P3
202 202
255
0 0 0 0 0 0 0 0 0 0 0 0 0 0 0 0 0 0 0 0 0 0 0 0 
0 0 0 0 0 0 0 0 0 0 0 0 0 0 0 0 0 0 0 0 0 0 0 0 
0 0 0 0 0 0 0 0 0 0 0 0 0 0 0 0 0 0 0 0 0 0 0 0 
0 0 0 0 0 0 0 0 0 0 0 0 0 0 0 0 0 0 0 0 0 0 0 0 
0 0 0 0 0 0 0 0 0 0 0 0 0 0 0 0 0 0 0 0 0 0 0 0 
0 0 0 0 0 0 0 0 0 0 0 0 0 0 0 0 0 0 0 0 0 0 0 0 
0 0 0 0 0 0 0 0 0 0 0 0 0 0 0 0 0 0 0 0 0 0 0 0 
0 0 0 0 0 0 0 0 0 0 0 0 0 0 0 0 0 0 0 0 0 0 0 0 
0 0 0 0 0 0 0 0 0 0 0 0 0 0 0 0 0 0 0 0 0 0 0 0 
0 0 0 0 0 0 0 0 0 0 0 0 0 0 0 0 0 0 0 0 0 0 0 0 
0 0 0 0 0 0 0 0 0 0 0 0 0 0 0 0 0 0 0 0 0 0 0 0 
0 0 0 0 0 0 1 1 1 9 4 4 23 11 11 33 15 16 46 22 23 55 27 28 
63 32 33 67 34 35 67 35 36 77 41 42 76 41 42 77 43 44 77 44 44 69 40 41 
68 40 41 64 38 39 58 35 36 46 29 29 36 23 23 25 16 16 13 9 9 1 1 1 
1 1 1 0 0 0 0 0 0 0 0 0 0 0 0 0 0 0 0 0 0 0 0 0 
0 0 0 0 0 0 0 0 0 0 0 0 0 0 0 0 0 0 0 0 0 0 0 0 
0 0 0 0 0 0 0 0 0 0 0 0 0 0 0 0 0 0 0 0 0 0 0 0 
0 0 0 0 0 0 0 0 0 0 0 0 0 0 0 0 0 0 0 0 0 0 0 0 
0 0 0 0 0 0 0 0 0 0 0 0 0 0 0 0 0 0 0 0 0 0 0 0 
0 0 0 0 0 0 0 0 0 0 0 0 0 0 0 0 0 0 0 0 0 0 0 0 
0 0 0 0 0 0 0 0 0 0 0 0 0 0 0 0 0 0 0 0 0 0 0 0 
0 0 0 0 0 0 0 0 0 0 0 0 0 0 0 0 0 0 0 0 0 0 0 0 
0 0 0 0 0 0 0 0 0 0 0 0 0 0 0 0 0 0 0 0 0 0 0 0 
0 0 0 0 0 0 0 0 0 0 0 0 0 0 0 0 0 0 0 0 0 0 0 0 
0 0 0 0 0 0 0 0 0 0 0 0 0 0 0 0 0 0 0 0 0 0 0 0 
0 0 0 0 0 0 
0 0 0 0 0 0 0 0 0 0 0 0 0 0 0 0 0 0 0 0 0 0 0 0 
0 0 0 0 0 0 0 0 0 0 0 0 0 0 0 0 0 0 0 0 0 0 0 0 
0 0 0 0 0 0 0 0 0 0 0 0 0 0 0 0 0 0 0 0 0 0 0 0 
0 0 0 0 0 0 0 0 0 0 0 0 0 0 0 0 0 0 0 0 0 0 0 0 
0 0 0 0 0 0 0 0 0 0 0 0 0 0 0 0 0 0 0 0 0 0 0 0 
0 0 0 0 0 0 0 0 0 0 0 0 0 0 0 0 0 0 0 0 0 0 0 0 
0 0 0 0 0 0 0 0 0 0 0 0 0 0 0 0 0 0 0 0 0 0 0 0 
0 0 0 0 0 0 0 0 0 0 0 0 0 0 0 0 0 0 0 0 0 0 0 0 
0 0 0 0 0 0 0 0 0 0 0 0 0 0 0 0 0 0 0 0 0 0 0 0 
0 0 0 0 0 0 0 0 0 0 0 0 0 0 0 0 0 0 0 0 0 0 0 0 
0 0 0 0 0 0 0 0 0 0 0 0 39 14 15 90 34 36 120 46 49 148 58 62 
173 74 77 189 82 85 209 93 96 210 95 99 211 98 102 213 102 105 213 104 106 214 106 109 
213 107 111 213 110 114 213 112 115 211 114 117 213 117 120 212 119 122 213 123 126 214 124 127 
212 126 128 216 130 132 214 131 134 215 136 138 216 137 138 213 138 141 216 142 144 211 142 144 
198 136 137 181 125 127 154 109 109 128 90 91 95 68 69 51 37 37 5 4 4 0 0 0 
0 0 0 0 0 0 0 0 0 0 0 0 0 0 0 0 0 0 0 0 0 0 0 0 
0 0 0 0 0 0 0 0 0 0 0 0 0 0 0 0 0 0 0 0 0 0 0 0 
0 0 0 0 0 0 0 0 0 0 0 0 0 0 0 0 0 0 0 0 0 0 0 0 
0 0 0 0 0 0 0 0 0 0 0 0 0 0 0 0 0 0 0 0 0 0 0 0 
0 0 0 0 0 0 0 0 0 0 0 0 0 0 0 0 0 0 0 0 0 0 0 0 
0 0 0 0 0 0 0 0 0 0 0 0 0 0 0 0 0 0 0 0 0 0 0 0 
0 0 0 0 0 0 0 0 0 0 0 0 0 0 0 0 0 0 0 0 0 0 0 0 
0 0 0 0 0 0 0 0 0 0 0 0 0 0 0 0 0 0 0 0 0 0 0 0 
0 0 0 0 0 0 0 0 0 0 0 0 0 0 0 0 0 0 0 0 0 0 0 0 
0 0 0 0 0 0 0 0 0 0 0 0 0 0 0 0 0 0 0 0 0 0 0 0 
0 0 0 0 0 0 
0 0 0 0 0 0 0 0 0 0 0 0 0 0 0 0 0 0 0 0 0 0 0 0 
0 0 0 0 0 0 0 0 0 0 0 0 0 0 0 0 0 0 0 0 0 0 0 0 
0 0 0 0 0 0 0 0 0 0 0 0 0 0 0 0 0 0 0 0 0 0 0 0 
0 0 0 0 0 0 0 0 0 0 0 0 0 0 0 0 0 0 0 0 0 0 0 0 
0 0 0 0 0 0 0 0 0 0 0 0 0 0 0 0 0 0 0 0 0 0 0 0 
0 0 0 0 0 0 0 0 0 0 0 0 0 0 0 0 0 0 0 0 0 0 0 0 
0 0 0 0 0 0 0 0 0 0 0 0 0 0 0 0 0 0 0 0 0 0 0 0 
0 0 0 0 0 0 0 0 0 0 0 0 0 0 0 0 0 0 0 0 0 0 0 0 
0 0 0 0 0 0 0 0 0 0 0 0 0 0 0 0 0 0 0 0 0 0 0 0 
0 0 0 0 0 0 0 0 0 0 0 0 0 0 0 0 0 0 0 0 0 63 20 21 
130 41 44 174 58 63 204 71 75 221 79 84 227 83 88 227 85 90 228 88 93 227 89 93 
226 90 95 226 93 98 225 95 98 226 96 101 227 98 102 226 100 105 226 103 108 223 103 107 
218 104 108 217 105 108 214 107 110 211 108 112 210 111 114 210 113 115 212 114 117 214 118 121 
219 122 126 219 125 129 223 129 131 229 134 136 227 136 140 227 140 143 227 143 145 228 145 147 
230 148 150 229 152 153 230 156 157 230 159 160 230 162 163 229 165 167 227 166 166 212 156 158 
183 137 138 139 105 106 80 62 62 7 5 5 0 0 0 0 0 0 0 0 0 0 0 0 
0 0 0 0 0 0 0 0 0 0 0 0 0 0 0 0 0 0 0 0 0 0 0 0 
0 0 0 0 0 0 0 0 0 0 0 0 0 0 0 0 0 0 0 0 0 0 0 0 
0 0 0 0 0 0 0 0 0 0 0 0 0 0 0 0 0 0 0 0 0 0 0 0 
0 0 0 0 0 0 0 0 0 0 0 0 0 0 0 0 0 0 0 0 0 0 0 0 
0 0 0 0 0 0 0 0 0 0 0 0 0 0 0 0 0 0 0 0 0 0 0 0 
0 0 0 0 0 0 0 0 0 0 0 0 0 0 0 0 0 0 0 0 0 0 0 0 
0 0 0 0 0 0 0 0 0 0 0 0 0 0 0 0 0 0 0 0 0 0 0 0 
0 0 0 0 0 0 0 0 0 0 0 0 0 0 0 0 0 0 0 0 0 0 0 0 
0 0 0 0 0 0 0 0 0 0 0 0 0 0 0 0 0 0 0 0 0 0 0 0 
0 0 0 0 0 0 
0 0 0 0 0 0 0 0 0 0 0 0 0 0 0 0 0 0 0 0 0 0 0 0 
0 0 0 0 0 0 0 0 0 0 0 0 0 0 0 0 0 0 0 0 0 0 0 0 
0 0 0 0 0 0 0 0 0 0 0 0 0 0 0 0 0 0 0 0 0 0 0 0 
0 0 0 0 0 0 0 0 0 0 0 0 0 0 0 0 0 0 0 0 0 0 0 0 
0 0 0 0 0 0 0 0 0 0 0 0 0 0 0 0 0 0 0 0 0 0 0 0 
0 0 0 0 0 0 0 0 0 0 0 0 0 0 0 0 0 0 0 0 0 0 0 0 
0 0 0 0 0 0 0 0 0 0 0 0 0 0 0 0 0 0 0 0 0 0 0 0 
0 0 0 0 0 0 0 0 0 0 0 0 0 0 0 0 0 0 0 0 0 0 0 0 
0 0 0 0 0 0 0 0 0 0 0 0 0 0 0 0 0 0 0 0 0 0 0 0 
0 0 0 0 0 0 6 2 2 109 29 32 190 54 59 225 65 72 242 71 77 246 74 80 
246 77 82 245 78 83 244 79 86 244 81 87 245 83 89 245 84 91 240 85 91 230 85 90 
218 83 87 200 79 85 175 74 78 148 70 73 118 62 64 88 51 54 54 43 45 40 41 41 
44 44 44 45 45 45 42 42 42 43 43 43 43 44 44 46 47 47 47 47 47 47 47 47 
47 47 47 49 49 50 51 51 52 60 55 55 93 70 72 122 85 87 149 98 101 175 115 117 
202 130 132 219 141 143 232 150 152 240 158 160 245 164 166 246 167 168 246 170 171 246 174 175 
247 178 179 247 181 183 248 185 186 245 187 188 231 179 180 198 156 156 131 105 105 16 13 13 
0 0 0 0 0 0 0 0 0 0 0 0 0 0 0 0 0 0 0 0 0 0 0 0 
0 0 0 0 0 0 0 0 0 0 0 0 0 0 0 0 0 0 0 0 0 0 0 0 
0 0 0 0 0 0 0 0 0 0 0 0 0 0 0 0 0 0 0 0 0 0 0 0 
0 0 0 0 0 0 0 0 0 0 0 0 0 0 0 0 0 0 0 0 0 0 0 0 
0 0 0 0 0 0 0 0 0 0 0 0 0 0 0 0 0 0 0 0 0 0 0 0 
0 0 0 0 0 0 0 0 0 0 0 0 0 0 0 0 0 0 0 0 0 0 0 0 
0 0 0 0 0 0 0 0 0 0 0 0 0 0 0 0 0 0 0 0 0 0 0 0 
0 0 0 0 0 0 0 0 0 0 0 0 0 0 0 0 0 0 0 0 0 0 0 0 
0 0 0 0 0 0 0 0 0 0 0 0 0 0 0 0 0 0 0 0 0 0 0 0 
0 0 0 0 0 0 
0 0 0 0 0 0 0 0 0 0 0 0 0 0 0 0 0 0 0 0 0 0 0 0 
0 0 0 0 0 0 0 0 0 0 0 0 0 0 0 0 0 0 0 0 0 0 0 0 
0 0 0 0 0 0 0 0 0 0 0 0 0 0 0 0 0 0 0 0 0 0 0 0 
0 0 0 0 0 0 0 0 0 0 0 0 0 0 0 0 0 0 0 0 0 0 0 0 
0 0 0 0 0 0 0 0 0 0 0 0 0 0 0 0 0 0 0 0 0 0 0 0 
0 0 0 0 0 0 0 0 0 0 0 0 0 0 0 0 0 0 0 0 0 0 0 0 
0 0 0 0 0 0 0 0 0 0 0 0 0 0 0 0 0 0 0 0 0 0 0 0 
0 0 0 0 0 0 0 0 0 0 0 0 0 0 0 0 0 0 0 0 0 0 0 0 
0 0 0 0 0 0 0 0 0 0 0 0 0 0 0 0 0 0 0 0 0 47 11 12 
160 37 43 216 53 60 243 62 69 246 64 70 245 66 72 245 68 73 245 68 76 245 70 77 
243 71 79 232 71 77 213 69 73 181 65 68 131 54 58 54 38 38 33 33 33 36 36 36 
38 39 39 37 37 37 35 35 35 37 37 37 37 38 38 41 41 41 41 41 41 39 39 39 
39 39 39 40 41 41 44 44 44 45 45 45 43 43 43 43 44 44 44 44 44 47 47 47 
49 49 49 50 50 50 49 50 50 51 52 52 53 54 54 56 56 56 55 55 56 55 55 55 
56 57 57 59 59 59 61 61 61 61 62 62 72 69 70 141 104 105 184 129 130 215 149 151 
232 162 164 244 173 174 246 177 178 246 179 181 247 184 185 247 188 189 248 192 193 246 193 194 
227 181 183 174 141 142 71 58 58 0 0 0 0 0 0 0 0 0 0 0 0 0 0 0 
0 0 0 0 0 0 0 0 0 0 0 0 0 0 0 0 0 0 0 0 0 0 0 0 
0 0 0 0 0 0 0 0 0 0 0 0 0 0 0 0 0 0 0 0 0 0 0 0 
0 0 0 0 0 0 0 0 0 0 0 0 0 0 0 0 0 0 0 0 0 0 0 0 
0 0 0 0 0 0 0 0 0 0 0 0 0 0 0 0 0 0 0 0 0 0 0 0 
0 0 0 0 0 0 0 0 0 0 0 0 0 0 0 0 0 0 0 0 0 0 0 0 
0 0 0 0 0 0 0 0 0 0 0 0 0 0 0 0 0 0 0 0 0 0 0 0 
0 0 0 0 0 0 0 0 0 0 0 0 0 0 0 0 0 0 0 0 0 0 0 0 
0 0 0 0 0 0 0 0 0 0 0 0 0 0 0 0 0 0 0 0 0 0 0 0 
0 0 0 0 0 0 
0 0 0 0 0 0 0 0 0 0 0 0 0 0 0 0 0 0 0 0 0 0 0 0 
0 0 0 0 0 0 0 0 0 0 0 0 0 0 0 0 0 0 0 0 0 0 0 0 
0 0 0 0 0 0 0 0 0 0 0 0 0 0 0 0 0 0 0 0 0 0 0 0 
0 0 0 0 0 0 0 0 0 0 0 0 0 0 0 0 0 0 0 0 0 0 0 0 
0 0 0 0 0 0 0 0 0 0 0 0 0 0 0 0 0 0 0 0 0 0 0 0 
0 0 0 0 0 0 0 0 0 0 0 0 0 0 0 0 0 0 0 0 0 0 0 0 
0 0 0 0 0 0 0 0 0 0 0 0 0 0 0 0 0 0 0 0 0 0 0 0 
0 0 0 0 0 0 0 0 0 0 0 0 0 0 0 0 0 0 0 0 0 0 0 0 
0 0 0 0 0 0 0 0 0 0 0 0 45 9 10 174 36 41 229 51 57 245 55 62 
245 57 64 246 58 66 244 59 67 245 60 68 241 62 68 223 61 67 191 57 61 130 50 52 
45 35 35 33 33 33 33 33 33 33 33 33 37 37 37 39 39 39 37 37 37 37 37 37 
38 38 38 40 40 40 42 42 42 42 42 42 40 40 40 40 41 41 43 43 43 46 46 46 
45 45 45 44 44 44 45 45 45 46 46 46 49 49 49 50 51 51 48 49 49 48 49 49 
50 50 51 54 54 55 57 57 57 56 56 56 54 54 55 56 56 57 60 60 61 61 61 61 
61 61 61 61 62 62 62 62 62 65 65 66 68 68 68 69 70 70 69 69 70 70 71 72 
72 73 74 74 75 75 140 111 112 196 144 145 227 165 166 242 177 178 247 183 184 246 187 188 
247 191 192 248 195 195 247 198 199 237 193 194 189 156 156 77 64 64 0 0 0 0 0 0 
0 0 0 0 0 0 0 0 0 0 0 0 0 0 0 0 0 0 0 0 0 0 0 0 
0 0 0 0 0 0 0 0 0 0 0 0 0 0 0 0 0 0 0 0 0 0 0 0 
0 0 0 0 0 0 0 0 0 0 0 0 0 0 0 0 0 0 0 0 0 0 0 0 
0 0 0 0 0 0 0 0 0 0 0 0 0 0 0 0 0 0 0 0 0 0 0 0 
0 0 0 0 0 0 0 0 0 0 0 0 0 0 0 0 0 0 0 0 0 0 0 0 
0 0 0 0 0 0 0 0 0 0 0 0 0 0 0 0 0 0 0 0 0 0 0 0 
0 0 0 0 0 0 0 0 0 0 0 0 0 0 0 0 0 0 0 0 0 0 0 0 
0 0 0 0 0 0 0 0 0 0 0 0 0 0 0 0 0 0 0 0 0 0 0 0 
0 0 0 0 0 0 
0 0 0 0 0 0 0 0 0 0 0 0 0 0 0 0 0 0 0 0 0 0 0 0 
0 0 0 0 0 0 0 0 0 0 0 0 0 0 0 0 0 0 0 0 0 0 0 0 
0 0 0 0 0 0 0 0 0 0 0 0 0 0 0 0 0 0 0 0 0 0 0 0 
0 0 0 0 0 0 0 0 0 0 0 0 0 0 0 0 0 0 0 0 0 0 0 0 
0 0 0 0 0 0 0 0 0 0 0 0 0 0 0 0 0 0 0 0 0 0 0 0 
0 0 0 0 0 0 0 0 0 0 0 0 0 0 0 0 0 0 0 0 0 0 0 0 
0 0 0 0 0 0 0 0 0 0 0 0 0 0 0 0 0 0 0 0 0 0 0 0 
0 0 0 0 0 0 0 0 0 0 0 0 0 0 0 0 0 0 0 0 0 0 0 0 
0 0 0 26 5 6 165 30 36 228 44 53 245 48 55 245 51 57 245 51 58 246 52 59 
245 54 61 232 54 60 198 50 57 122 40 43 33 33 33 33 33 33 30 30 30 30 30 30 
31 32 32 34 34 34 34 35 35 32 33 33 33 33 33 34 34 34 36 36 36 39 39 39 
37 37 38 35 36 36 37 37 37 40 40 40 42 42 42 41 41 41 40 40 40 41 41 41 
42 42 42 44 44 44 45 45 45 44 45 45 45 45 45 46 47 47 49 49 49 50 50 51 
49 49 50 51 51 51 52 52 53 55 55 55 56 56 57 56 56 56 56 56 56 58 58 58 
60 60 60 61 62 62 62 62 62 63 63 64 65 65 65 67 68 68 70 70 70 71 71 71 
72 72 72 73 74 75 74 75 75 77 77 78 79 79 80 81 81 82 134 111 112 204 154 155 
235 174 175 246 186 187 247 190 191 247 193 194 247 198 199 248 201 202 236 196 196 182 152 152 
44 37 37 0 0 0 0 0 0 0 0 0 0 0 0 0 0 0 0 0 0 0 0 0 
0 0 0 0 0 0 0 0 0 0 0 0 0 0 0 0 0 0 0 0 0 0 0 0 
0 0 0 0 0 0 0 0 0 0 0 0 0 0 0 0 0 0 0 0 0 0 0 0 
0 0 0 0 0 0 0 0 0 0 0 0 0 0 0 0 0 0 0 0 0 0 0 0 
0 0 0 0 0 0 0 0 0 0 0 0 0 0 0 0 0 0 0 0 0 0 0 0 
0 0 0 0 0 0 0 0 0 0 0 0 0 0 0 0 0 0 0 0 0 0 0 0 
0 0 0 0 0 0 0 0 0 0 0 0 0 0 0 0 0 0 0 0 0 0 0 0 
0 0 0 0 0 0 0 0 0 0 0 0 0 0 0 0 0 0 0 0 0 0 0 0 
0 0 0 0 0 0 
0 0 0 0 0 0 0 0 0 0 0 0 0 0 0 0 0 0 0 0 0 0 0 0 
0 0 0 0 0 0 0 0 0 0 0 0 0 0 0 0 0 0 0 0 0 0 0 0 
0 0 0 0 0 0 0 0 0 0 0 0 0 0 0 0 0 0 0 0 0 0 0 0 
0 0 0 0 0 0 0 0 0 0 0 0 0 0 0 0 0 0 0 0 0 0 0 0 
0 0 0 0 0 0 0 0 0 0 0 0 0 0 0 0 0 0 0 0 0 0 0 0 
0 0 0 0 0 0 0 0 0 0 0 0 0 0 0 0 0 0 0 0 0 0 0 0 
0 0 0 0 0 0 0 0 0 0 0 0 0 0 0 0 0 0 0 0 0 0 0 0 
0 0 0 0 0 0 0 0 0 0 0 0 0 0 0 0 0 0 0 0 0 100 16 20 
212 38 45 243 44 51 246 45 53 244 45 53 246 46 54 244 47 55 226 46 53 175 42 46 
67 34 37 34 34 34 34 34 34 31 31 31 31 31 32 34 34 34 36 36 36 36 36 36 
35 35 35 34 34 34 35 35 35 37 37 37 38 38 38 37 37 37 37 37 37 38 38 38 
40 40 40 42 42 42 42 42 42 41 41 41 40 40 41 43 43 44 45 45 46 44 44 44 
43 44 44 45 45 45 45 45 46 47 47 47 48 48 48 48 48 48 47 47 47 51 51 51 
52 52 53 55 55 55 55 55 56 55 55 56 57 57 58 60 60 60 61 61 61 61 61 62 
62 62 62 63 63 64 64 64 64 68 68 69 69 70 70 71 72 72 71 72 73 72 73 73 
75 75 75 76 77 77 77 78 78 80 81 82 83 83 83 84 84 84 87 87 87 88 89 89 
89 90 90 103 100 100 184 145 146 230 176 178 246 189 190 248 194 194 248 197 198 248 201 202 
248 204 204 225 189 189 126 106 106 4 3 3 0 0 0 0 0 0 0 0 0 0 0 0 
0 0 0 0 0 0 0 0 0 0 0 0 0 0 0 0 0 0 0 0 0 0 0 0 
0 0 0 0 0 0 0 0 0 0 0 0 0 0 0 0 0 0 0 0 0 0 0 0 
0 0 0 0 0 0 0 0 0 0 0 0 0 0 0 0 0 0 0 0 0 0 0 0 
0 0 0 0 0 0 0 0 0 0 0 0 0 0 0 0 0 0 0 0 0 0 0 0 
0 0 0 0 0 0 0 0 0 0 0 0 0 0 0 0 0 0 0 0 0 0 0 0 
0 0 0 0 0 0 0 0 0 0 0 0 0 0 0 0 0 0 0 0 0 0 0 0 
0 0 0 0 0 0 0 0 0 0 0 0 0 0 0 0 0 0 0 0 0 0 0 0 
0 0 0 0 0 0 
0 0 0 0 0 0 0 0 0 0 0 0 0 0 0 0 0 0 0 0 0 0 0 0 
0 0 0 0 0 0 0 0 0 0 0 0 0 0 0 0 0 0 0 0 0 0 0 0 
0 0 0 0 0 0 0 0 0 0 0 0 0 0 0 0 0 0 0 0 0 0 0 0 
0 0 0 0 0 0 0 0 0 0 0 0 0 0 0 0 0 0 0 0 0 0 0 0 
0 0 0 0 0 0 0 0 0 0 0 0 0 0 0 0 0 0 0 0 0 0 0 0 
0 0 0 0 0 0 0 0 0 0 0 0 0 0 0 0 0 0 0 0 0 0 0 0 
0 0 0 0 0 0 0 0 0 0 0 0 0 0 0 0 0 0 0 0 0 0 0 0 
0 0 0 0 0 0 0 0 0 0 0 0 14 2 2 163 24 29 235 38 45 245 41 48 
246 41 48 246 42 50 244 43 51 230 42 50 179 40 46 70 33 35 33 33 34 34 34 34 
33 33 33 35 35 35 34 34 34 35 35 35 36 36 36 35 35 35 35 35 35 36 36 36 
37 37 37 38 38 38 38 38 38 39 39 39 39 39 39 38 39 39 41 42 42 40 40 40 
38 38 38 38 38 38 36 36 36 35 35 35 34 34 35 31 31 31 30 30 30 28 29 29 
29 30 31 31 32 32 33 33 33 33 34 34 34 35 36 35 35 35 37 37 39 38 39 39 
40 41 42 41 42 42 44 44 45 44 44 45 48 49 51 53 53 53 55 56 56 57 57 58 
62 62 63 63 63 63 66 66 66 68 68 68 70 71 71 71 71 72 73 73 74 74 74 75 
75 75 76 77 77 77 80 80 80 83 83 84 84 84 84 84 85 85 87 87 88 89 89 89 
90 90 91 92 92 93 94 94 95 96 97 97 113 106 106 193 155 156 233 180 181 247 192 193 
247 196 197 249 202 203 248 205 205 244 205 205 183 154 154 29 24 24 0 0 0 0 0 0 
0 0 0 0 0 0 0 0 0 0 0 0 0 0 0 0 0 0 0 0 0 0 0 0 
0 0 0 0 0 0 0 0 0 0 0 0 0 0 0 0 0 0 0 0 0 0 0 0 
0 0 0 0 0 0 0 0 0 0 0 0 0 0 0 0 0 0 0 0 0 0 0 0 
0 0 0 0 0 0 0 0 0 0 0 0 0 0 0 0 0 0 0 0 0 0 0 0 
0 0 0 0 0 0 0 0 0 0 0 0 0 0 0 0 0 0 0 0 0 0 0 0 
0 0 0 0 0 0 0 0 0 0 0 0 0 0 0 0 0 0 0 0 0 0 0 0 
0 0 0 0 0 0 0 0 0 0 0 0 0 0 0 0 0 0 0 0 0 0 0 0 
0 0 0 0 0 0 
0 0 0 0 0 0 0 0 0 0 0 0 0 0 0 0 0 0 0 0 0 0 0 0 
0 0 0 0 0 0 0 0 0 0 0 0 0 0 0 0 0 0 0 0 0 0 0 0 
0 0 0 0 0 0 0 0 0 0 0 0 0 0 0 0 0 0 0 0 0 0 0 0 
0 0 0 0 0 0 0 0 0 0 0 0 0 0 0 0 0 0 0 0 0 0 0 0 
0 0 0 0 0 0 0 0 0 0 0 0 0 0 0 0 0 0 0 0 0 0 0 0 
0 0 0 0 0 0 0 0 0 0 0 0 0 0 0 0 0 0 0 0 0 0 0 0 
0 0 0 0 0 0 0 0 0 0 0 0 0 0 0 0 0 0 0 0 0 0 0 0 
0 0 0 0 0 0 38 5 6 190 27 34 241 35 44 245 37 45 246 36 44 244 37 45 
241 39 45 201 39 43 92 32 37 31 31 31 32 32 32 31 31 31 31 31 31 33 33 33 
32 32 32 33 33 33 33 33 33 34 34 34 33 33 33 35 35 35 35 35 35 34 34 34 
34 34 34 35 35 35 35 35 35 32 32 32 28 28 28 24 24 24 20 20 20 20 20 20 
21 21 21 21 21 21 22 22 22 22 23 23 24 24 25 25 25 25 26 27 27 28 29 29 
29 30 30 30 31 31 30 31 31 32 33 33 33 34 34 35 36 36 35 36 37 38 38 39 
39 40 40 40 41 41 43 43 44 43 44 45 45 45 47 48 49 49 49 50 51 50 51 52 
53 54 55 54 55 56 57 58 59 58 58 60 65 65 66 67 67 68 70 71 72 74 74 75 
75 75 75 77 77 78 79 80 80 81 81 82 83 83 84 85 85 86 85 85 85 87 87 88 
89 89 90 91 91 92 94 95 95 97 98 99 98 98 100 100 100 101 102 103 103 131 121 122 
211 167 168 242 189 190 248 196 197 248 201 202 249 204 204 247 206 206 205 172 172 58 49 49 
0 0 0 0 0 0 0 0 0 0 0 0 0 0 0 0 0 0 0 0 0 0 0 0 
0 0 0 0 0 0 0 0 0 0 0 0 0 0 0 0 0 0 0 0 0 0 0 0 
0 0 0 0 0 0 0 0 0 0 0 0 0 0 0 0 0 0 0 0 0 0 0 0 
0 0 0 0 0 0 0 0 0 0 0 0 0 0 0 0 0 0 0 0 0 0 0 0 
0 0 0 0 0 0 0 0 0 0 0 0 0 0 0 0 0 0 0 0 0 0 0 0 
0 0 0 0 0 0 0 0 0 0 0 0 0 0 0 0 0 0 0 0 0 0 0 0 
0 0 0 0 0 0 0 0 0 0 0 0 0 0 0 0 0 0 0 0 0 0 0 0 
0 0 0 0 0 0 
0 0 0 0 0 0 0 0 0 0 0 0 0 0 0 0 0 0 0 0 0 0 0 0 
0 0 0 0 0 0 0 0 0 0 0 0 0 0 0 0 0 0 0 0 0 0 0 0 
0 0 0 0 0 0 0 0 0 0 0 0 0 0 0 0 0 0 0 0 0 0 0 0 
0 0 0 0 0 0 0 0 0 0 0 0 0 0 0 0 0 0 0 0 0 0 0 0 
0 0 0 0 0 0 0 0 0 0 0 0 0 0 0 0 0 0 0 0 0 0 0 0 
0 0 0 0 0 0 0 0 0 0 0 0 0 0 0 0 0 0 0 0 0 0 0 0 
0 0 0 0 0 0 0 0 0 0 0 0 0 0 0 0 0 0 0 0 0 0 0 0 
46 6 7 202 27 34 244 33 43 245 34 43 245 33 43 244 34 43 227 34 42 160 32 39 
38 32 32 32 32 32 31 31 31 31 31 31 32 32 32 33 33 33 34 34 34 32 32 32 
33 33 33 34 34 34 34 34 35 36 36 36 35 35 35 35 35 35 32 32 32 27 27 27 
22 22 22 17 18 18 19 19 19 19 19 19 18 19 19 20 20 20 21 21 22 22 22 22 
22 22 22 23 23 23 24 24 24 24 24 25 26 26 27 27 27 27 28 29 29 30 30 30 
32 32 32 32 32 32 31 32 32 33 34 34 35 36 37 36 37 39 38 39 39 40 41 42 
40 41 41 42 43 44 44 44 44 46 47 48 46 47 48 50 51 52 49 50 51 53 54 55 
54 55 56 57 58 59 58 58 60 61 62 63 63 63 64 63 64 66 66 67 69 69 70 71 
71 73 74 73 74 76 78 80 80 82 82 83 84 85 85 86 87 87 88 88 89 90 91 91 
92 92 93 94 94 95 96 97 97 98 98 99 101 101 102 104 104 105 104 104 105 107 107 108 
109 110 110 113 114 114 181 152 153 232 184 185 248 196 197 249 201 202 249 205 205 248 207 207 
222 186 187 72 60 60 0 0 0 0 0 0 0 0 0 0 0 0 0 0 0 0 0 0 
0 0 0 0 0 0 0 0 0 0 0 0 0 0 0 0 0 0 0 0 0 0 0 0 
0 0 0 0 0 0 0 0 0 0 0 0 0 0 0 0 0 0 0 0 0 0 0 0 
0 0 0 0 0 0 0 0 0 0 0 0 0 0 0 0 0 0 0 0 0 0 0 0 
0 0 0 0 0 0 0 0 0 0 0 0 0 0 0 0 0 0 0 0 0 0 0 0 
0 0 0 0 0 0 0 0 0 0 0 0 0 0 0 0 0 0 0 0 0 0 0 0 
0 0 0 0 0 0 0 0 0 0 0 0 0 0 0 0 0 0 0 0 0 0 0 0 
0 0 0 0 0 0 
0 0 0 0 0 0 0 0 0 0 0 0 0 0 0 0 0 0 0 0 0 0 0 0 
0 0 0 0 0 0 0 0 0 0 0 0 0 0 0 0 0 0 0 0 0 0 0 0 
0 0 0 0 0 0 0 0 0 0 0 0 0 0 0 0 0 0 0 0 0 0 0 0 
0 0 0 0 0 0 0 0 0 0 0 0 0 0 0 0 0 0 0 0 0 0 0 0 
0 0 0 0 0 0 0 0 0 0 0 0 0 0 0 0 0 0 0 0 0 0 0 0 
0 0 0 0 0 0 0 0 0 0 0 0 0 0 0 0 0 0 0 0 0 0 0 0 
0 0 0 0 0 0 0 0 0 0 0 0 0 0 0 0 0 0 39 5 6 199 24 31 
244 32 40 245 32 41 244 31 40 244 31 41 219 31 40 117 31 35 31 31 31 31 31 31 
31 31 31 31 31 31 31 31 31 31 31 31 31 31 31 30 30 31 32 32 32 32 32 32 
33 33 33 33 33 33 30 30 31 27 27 27 19 19 19 13 14 13 13 13 13 14 15 15 
14 15 15 16 16 16 16 17 17 17 17 17 19 19 19 20 20 20 20 20 20 21 21 21 
21 21 22 22 22 22 23 24 24 25 25 26 25 25 25 26 27 27 28 29 29 29 30 30 
31 32 32 30 31 31 32 33 33 33 34 34 36 36 36 36 36 38 39 40 41 39 40 40 
42 42 43 42 42 43 43 44 46 46 46 47 48 48 49 49 50 51 50 51 52 52 53 54 
54 55 57 56 58 58 59 59 61 62 63 64 62 62 64 64 66 68 66 67 69 71 71 73 
70 72 73 75 76 78 74 76 77 81 81 83 81 82 83 84 86 87 88 88 89 90 91 91 
91 92 92 95 95 96 96 97 97 98 98 99 100 100 101 102 102 103 105 106 106 107 108 109 
110 111 112 112 113 113 115 115 116 117 117 118 154 138 139 225 179 180 247 195 195 249 200 201 
249 205 205 249 207 207 217 184 184 67 56 56 0 0 0 0 0 0 0 0 0 0 0 0 
0 0 0 0 0 0 0 0 0 0 0 0 0 0 0 0 0 0 0 0 0 0 0 0 
0 0 0 0 0 0 0 0 0 0 0 0 0 0 0 0 0 0 0 0 0 0 0 0 
0 0 0 0 0 0 0 0 0 0 0 0 0 0 0 0 0 0 0 0 0 0 0 0 
0 0 0 0 0 0 0 0 0 0 0 0 0 0 0 0 0 0 0 0 0 0 0 0 
0 0 0 0 0 0 0 0 0 0 0 0 0 0 0 0 0 0 0 0 0 0 0 0 
0 0 0 0 0 0 0 0 0 0 0 0 0 0 0 0 0 0 0 0 0 0 0 0 
0 0 0 0 0 0 
0 0 0 0 0 0 0 0 0 0 0 0 0 0 0 0 0 0 0 0 0 0 0 0 
0 0 0 0 0 0 0 0 0 0 0 0 0 0 0 0 0 0 0 0 0 0 0 0 
0 0 0 0 0 0 0 0 0 0 0 0 0 0 0 0 0 0 0 0 0 0 0 0 
0 0 0 0 0 0 0 0 0 0 0 0 0 0 0 0 0 0 0 0 0 0 0 0 
0 0 0 0 0 0 0 0 0 0 0 0 0 0 0 0 0 0 0 0 0 0 0 0 
0 0 0 0 0 0 0 0 0 0 0 0 0 0 0 0 0 0 0 0 0 0 0 0 
0 0 0 0 0 0 0 0 0 0 0 0 30 3 4 194 23 29 244 30 38 245 31 38 
246 31 38 244 31 38 210 31 37 85 30 30 30 30 30 32 32 32 31 31 31 31 31 31 
30 30 30 31 31 31 31 32 31 32 32 32 33 33 33 32 32 33 32 32 32 29 29 30 
25 25 25 13 13 13 11 11 12 12 12 12 13 13 13 14 14 14 14 14 14 15 15 15 
16 16 16 17 17 17 17 18 18 18 19 19 19 19 19 20 20 21 20 20 20 21 22 22 
22 22 22 23 23 23 23 23 24 24 25 25 25 25 25 27 28 28 28 29 29 30 31 31 
31 31 31 31 32 32 32 33 33 33 34 34 34 35 36 37 37 37 39 39 40 41 42 42 
41 42 43 43 43 44 45 46 47 46 46 47 49 49 50 50 51 52 52 52 53 51 53 54 
56 57 58 56 58 59 61 62 62 62 62 64 64 65 66 65 66 67 69 70 72 70 71 72 
73 74 75 75 76 77 77 78 80 81 82 84 82 83 85 85 86 89 88 89 91 91 92 94 
94 94 96 98 99 99 98 99 99 100 100 101 102 102 103 104 104 105 105 105 106 108 108 109 
111 112 113 114 115 115 116 116 117 118 118 119 121 121 122 124 125 125 141 135 136 218 177 178 
247 194 195 250 200 201 250 204 204 248 206 206 214 179 179 51 43 43 0 0 0 0 0 0 
0 0 0 0 0 0 0 0 0 0 0 0 0 0 0 0 0 0 0 0 0 0 0 0 
0 0 0 0 0 0 0 0 0 0 0 0 0 0 0 0 0 0 0 0 0 0 0 0 
0 0 0 0 0 0 0 0 0 0 0 0 0 0 0 0 0 0 0 0 0 0 0 0 
0 0 0 0 0 0 0 0 0 0 0 0 0 0 0 0 0 0 0 0 0 0 0 0 
0 0 0 0 0 0 0 0 0 0 0 0 0 0 0 0 0 0 0 0 0 0 0 0 
0 0 0 0 0 0 0 0 0 0 0 0 0 0 0 0 0 0 0 0 0 0 0 0 
0 0 0 0 0 0 
0 0 0 0 0 0 0 0 0 0 0 0 0 0 0 0 0 0 0 0 0 0 0 0 
0 0 0 0 0 0 0 0 0 0 0 0 0 0 0 0 0 0 0 0 0 0 0 0 
0 0 0 0 0 0 0 0 0 0 0 0 0 0 0 0 0 0 0 0 0 0 0 0 
0 0 0 0 0 0 0 0 0 0 0 0 0 0 0 0 0 0 0 0 0 0 0 0 
0 0 0 0 0 0 0 0 0 0 0 0 0 0 0 0 0 0 0 0 0 0 0 0 
0 0 0 0 0 0 0 0 0 0 0 0 0 0 0 0 0 0 0 0 0 0 0 0 
0 0 0 0 0 0 0 0 0 161 18 23 241 28 36 245 29 37 246 29 35 243 29 36 
209 31 35 84 30 30 31 31 31 31 31 31 31 31 31 31 31 31 31 31 31 31 31 31 
31 31 31 31 31 31 31 31 31 31 31 31 30 30 30 23 23 23 12 12 12 11 11 11 
13 13 13 12 12 12 12 12 12 13 13 13 13 13 13 14 14 14 15 16 16 14 15 15 
17 17 17 17 18 18 18 18 18 19 19 19 21 21 21 20 20 20 22 22 22 21 21 22 
22 22 22 23 24 24 24 24 25 26 26 26 27 27 27 27 29 29 29 30 30 30 31 31 
30 31 31 32 33 33 33 34 34 35 36 36 36 36 38 38 39 40 39 39 40 42 42 42 
42 42 43 43 44 46 45 46 46 48 48 49 49 50 51 52 52 53 51 52 53 54 55 56 
56 58 59 59 60 61 62 62 63 63 64 65 65 66 66 66 67 67 70 71 72 70 71 73 
75 76 78 75 76 78 80 81 83 80 81 83 86 88 88 85 86 88 91 92 94 92 93 94 
97 98 100 98 100 101 101 102 104 103 103 106 105 107 108 104 105 106 107 108 109 110 110 111 
111 112 112 115 116 116 118 118 119 120 121 121 122 123 123 126 126 127 127 128 128 127 128 128 
138 130 130 218 176 177 246 193 194 249 199 200 248 203 203 248 205 205 192 161 161 16 13 13 
0 0 0 0 0 0 0 0 0 0 0 0 0 0 0 0 0 0 0 0 0 0 0 0 
0 0 0 0 0 0 0 0 0 0 0 0 0 0 0 0 0 0 0 0 0 0 0 0 
0 0 0 0 0 0 0 0 0 0 0 0 0 0 0 0 0 0 0 0 0 0 0 0 
0 0 0 0 0 0 0 0 0 0 0 0 0 0 0 0 0 0 0 0 0 0 0 0 
0 0 0 0 0 0 0 0 0 0 0 0 0 0 0 0 0 0 0 0 0 0 0 0 
0 0 0 0 0 0 0 0 0 0 0 0 0 0 0 0 0 0 0 0 0 0 0 0 
0 0 0 0 0 0 
0 0 0 0 0 0 0 0 0 0 0 0 0 0 0 0 0 0 0 0 0 0 0 0 
0 0 0 0 0 0 0 0 0 0 0 0 0 0 0 0 0 0 0 0 0 0 0 0 
0 0 0 0 0 0 0 0 0 0 0 0 0 0 0 0 0 0 0 0 0 0 0 0 
0 0 0 0 0 0 0 0 0 0 0 0 0 0 0 0 0 0 0 0 0 0 0 0 
0 0 0 0 0 0 0 0 0 0 0 0 0 0 0 0 0 0 0 0 0 0 0 0 
0 0 0 0 0 0 0 0 0 0 0 0 0 0 0 0 0 0 0 0 0 0 0 0 
0 0 0 113 12 15 232 27 34 246 28 36 244 28 34 244 28 34 216 29 34 93 32 32 
31 31 31 32 32 32 31 31 31 31 31 31 31 31 31 32 32 32 32 32 32 31 31 31 
31 31 31 31 31 31 27 27 27 17 17 17 11 11 11 11 11 11 12 12 12 11 11 11 
12 12 12 13 13 14 13 13 13 15 15 15 14 14 14 15 15 15 15 15 15 16 17 17 
18 18 18 18 18 18 18 19 19 19 19 19 21 21 22 21 21 21 22 22 22 23 23 23 
23 23 23 24 24 25 25 25 26 27 27 27 28 29 29 29 29 29 30 31 31 31 31 32 
32 33 33 32 33 33 35 36 36 35 35 36 39 39 40 40 40 40 40 41 42 42 42 43 
43 43 44 45 45 47 46 47 49 49 50 51 49 51 52 53 53 53 52 53 54 56 57 58 
57 58 59 60 61 62 62 63 64 65 66 68 65 65 67 69 70 72 70 72 73 73 74 76 
74 75 77 79 80 83 80 81 83 83 85 86 85 87 89 88 89 91 92 93 95 94 95 97 
98 100 101 99 101 102 104 106 107 104 105 107 110 112 114 111 112 114 115 116 118 112 114 115 
115 116 116 116 117 117 119 119 120 121 122 122 125 126 126 128 128 129 128 129 129 127 127 127 
124 125 126 120 121 121 136 129 130 220 175 176 247 193 194 249 198 199 248 201 202 243 201 201 
149 124 124 0 0 0 0 0 0 0 0 0 0 0 0 0 0 0 0 0 0 0 0 0 
0 0 0 0 0 0 0 0 0 0 0 0 0 0 0 0 0 0 0 0 0 0 0 0 
0 0 0 0 0 0 0 0 0 0 0 0 0 0 0 0 0 0 0 0 0 0 0 0 
0 0 0 0 0 0 0 0 0 0 0 0 0 0 0 0 0 0 0 0 0 0 0 0 
0 0 0 0 0 0 0 0 0 0 0 0 0 0 0 0 0 0 0 0 0 0 0 0 
0 0 0 0 0 0 0 0 0 0 0 0 0 0 0 0 0 0 0 0 0 0 0 0 
0 0 0 0 0 0 
0 0 0 0 0 0 0 0 0 0 0 0 0 0 0 0 0 0 0 0 0 0 0 0 
0 0 0 0 0 0 0 0 0 0 0 0 0 0 0 0 0 0 0 0 0 0 0 0 
0 0 0 0 0 0 0 0 0 0 0 0 0 0 0 0 0 0 0 0 0 0 0 0 
0 0 0 0 0 0 0 0 0 0 0 0 0 0 0 0 0 0 0 0 0 0 0 0 
0 0 0 0 0 0 0 0 0 0 0 0 0 0 0 0 0 0 0 0 0 0 0 0 
0 0 0 0 0 0 0 0 0 0 0 0 0 0 0 0 0 0 0 0 0 34 3 4 
211 23 30 246 27 35 245 27 33 244 27 33 231 27 33 116 29 29 28 28 28 28 28 28 
29 29 29 29 29 29 30 30 30 29 29 29 28 28 28 29 29 29 29 29 29 29 29 29 
19 19 19 8 8 8 8 8 8 8 8 8 9 9 9 8 8 8 9 9 9 9 9 9 
10 10 10 10 10 10 12 12 12 12 12 12 11 11 11 13 14 14 13 14 14 15 16 16 
14 14 15 16 16 16 16 16 16 17 17 17 18 18 18 19 19 19 19 19 19 20 20 20 
20 21 21 22 22 23 23 23 23 24 24 24 26 26 26 27 27 27 29 30 30 29 29 29 
31 31 31 31 31 31 32 32 32 33 33 35 35 35 36 38 38 39 39 40 40 39 39 40 
42 43 44 42 43 44 46 46 47 46 46 47 49 49 50 49 50 51 52 53 53 53 54 55 
58 58 59 58 59 60 60 61 62 62 63 64 65 66 67 68 68 69 69 70 71 71 72 74 
73 75 76 78 79 80 78 78 80 82 84 86 83 85 86 89 90 92 89 89 91 94 95 97 
94 96 97 101 101 103 99 101 103 106 107 110 106 108 110 112 113 115 114 115 117 117 120 121 
121 122 124 118 120 122 120 121 122 121 122 122 123 123 124 126 127 127 125 126 126 122 123 123 
120 120 121 116 117 117 114 114 115 112 112 113 143 129 129 230 179 180 247 192 194 247 197 198 
248 201 202 231 191 191 69 57 57 0 0 0 0 0 0 0 0 0 0 0 0 0 0 0 
0 0 0 0 0 0 0 0 0 0 0 0 0 0 0 0 0 0 0 0 0 0 0 0 
0 0 0 0 0 0 0 0 0 0 0 0 0 0 0 0 0 0 0 0 0 0 0 0 
0 0 0 0 0 0 0 0 0 0 0 0 0 0 0 0 0 0 0 0 0 0 0 0 
0 0 0 0 0 0 0 0 0 0 0 0 0 0 0 0 0 0 0 0 0 0 0 0 
0 0 0 0 0 0 0 0 0 0 0 0 0 0 0 0 0 0 0 0 0 0 0 0 
0 0 0 0 0 0 
0 0 0 0 0 0 0 0 0 0 0 0 0 0 0 0 0 0 0 0 0 0 0 0 
0 0 0 0 0 0 0 0 0 0 0 0 0 0 0 0 0 0 0 0 0 0 0 0 
0 0 0 0 0 0 0 0 0 0 0 0 0 0 0 0 0 0 0 0 0 0 0 0 
0 0 0 0 0 0 0 0 0 0 0 0 0 0 0 0 0 0 0 0 0 0 0 0 
0 0 0 0 0 0 0 0 0 0 0 0 0 0 0 0 0 0 0 0 0 0 0 0 
0 0 0 0 0 0 0 0 0 0 0 0 0 0 0 0 0 0 146 14 19 241 26 33 
245 25 34 246 25 33 239 27 33 160 28 30 29 29 29 29 29 29 29 29 29 30 30 30 
28 28 28 29 29 29 29 29 29 29 29 29 30 30 30 27 27 27 17 17 17 8 8 8 
8 8 8 9 9 9 9 9 9 9 9 9 9 9 9 9 9 9 9 9 9 10 10 10 
10 10 11 10 10 10 12 12 12 12 13 13 12 12 12 13 13 13 15 16 16 15 15 15 
16 16 16 16 17 17 17 17 17 18 18 19 18 18 18 20 20 20 20 20 21 21 21 21 
20 21 21 23 23 24 24 25 25 26 27 27 26 27 27 28 29 29 29 29 29 30 31 31 
31 32 32 33 34 34 33 34 35 36 36 36 37 37 38 38 39 40 39 39 40 41 42 43 
42 42 43 45 45 46 46 46 47 48 49 49 50 50 51 51 52 53 52 53 54 55 56 57 
58 58 59 59 60 61 62 63 65 63 64 66 68 68 69 67 67 69 71 72 74 70 71 73 
76 77 80 77 78 79 81 82 84 82 83 85 87 88 90 89 90 91 91 93 95 94 94 97 
97 98 101 100 102 103 103 105 106 107 110 111 110 110 112 114 115 118 114 116 118 121 122 125 
120 122 124 128 131 133 128 131 132 131 133 135 127 127 129 127 127 127 125 126 127 122 122 123 
118 118 119 116 117 117 113 114 114 112 112 114 109 110 110 105 106 106 168 141 142 240 185 186 
248 192 193 247 195 196 246 199 199 183 149 150 6 5 5 0 0 0 0 0 0 0 0 0 
0 0 0 0 0 0 0 0 0 0 0 0 0 0 0 0 0 0 0 0 0 0 0 0 
0 0 0 0 0 0 0 0 0 0 0 0 0 0 0 0 0 0 0 0 0 0 0 0 
0 0 0 0 0 0 0 0 0 0 0 0 0 0 0 0 0 0 0 0 0 0 0 0 
0 0 0 0 0 0 0 0 0 0 0 0 0 0 0 0 0 0 0 0 0 0 0 0 
0 0 0 0 0 0 0 0 0 0 0 0 0 0 0 0 0 0 0 0 0 0 0 0 
0 0 0 0 0 0 
0 0 0 0 0 0 0 0 0 0 0 0 0 0 0 0 0 0 0 0 0 0 0 0 
0 0 0 0 0 0 0 0 0 0 0 0 0 0 0 0 0 0 0 0 0 0 0 0 
0 0 0 0 0 0 0 0 0 0 0 0 0 0 0 0 0 0 0 0 0 0 0 0 
0 0 0 0 0 0 0 0 0 0 0 0 0 0 0 0 0 0 0 0 0 0 0 0 
0 0 0 0 0 0 0 0 0 0 0 0 0 0 0 0 0 0 0 0 0 0 0 0 
0 0 0 0 0 0 0 0 0 0 0 0 48 5 6 220 23 31 245 25 34 245 25 32 
244 25 32 202 26 31 48 29 29 29 29 29 31 31 31 29 29 29 29 29 29 29 29 29 
31 31 31 31 31 31 29 29 29 27 27 27 14 14 14 8 8 8 8 8 8 8 9 9 
8 8 8 9 9 9 9 9 9 10 10 10 10 10 10 10 10 10 11 11 11 11 11 11 
12 12 12 12 12 12 13 13 13 12 13 13 14 14 14 15 15 15 14 14 14 15 16 16 
17 17 17 17 18 18 19 19 19 19 19 19 20 20 20 20 21 21 22 22 22 22 23 23 
23 23 24 24 24 24 26 26 26 27 28 28 28 29 29 29 30 30 29 30 30 30 31 31 
32 33 33 33 34 34 35 36 37 37 37 38 37 38 38 40 41 41 42 42 42 42 43 44 
44 45 46 46 47 48 47 47 48 50 51 52 50 50 51 54 55 55 53 55 56 58 59 60 
58 59 60 62 63 65 62 63 64 66 68 70 67 68 70 69 70 71 71 72 74 75 76 77 
77 78 80 80 81 83 82 84 86 84 86 87 89 90 91 89 91 93 94 95 98 93 96 97 
101 103 104 101 103 104 107 109 112 107 108 111 114 114 116 113 114 116 120 122 124 121 121 124 
125 128 130 127 130 132 133 135 137 137 139 141 136 138 140 131 133 135 124 125 126 121 122 122 
118 119 119 116 116 117 113 114 114 111 112 112 108 109 109 105 106 106 104 104 105 100 101 101 
203 160 161 246 187 188 247 191 192 248 195 196 236 190 191 84 68 69 0 0 0 0 0 0 
0 0 0 0 0 0 0 0 0 0 0 0 0 0 0 0 0 0 0 0 0 0 0 0 
0 0 0 0 0 0 0 0 0 0 0 0 0 0 0 0 0 0 0 0 0 0 0 0 
0 0 0 0 0 0 0 0 0 0 0 0 0 0 0 0 0 0 0 0 0 0 0 0 
0 0 0 0 0 0 0 0 0 0 0 0 0 0 0 0 0 0 0 0 0 0 0 0 
0 0 0 0 0 0 0 0 0 0 0 0 0 0 0 0 0 0 0 0 0 0 0 0 
0 0 0 0 0 0 
0 0 0 0 0 0 0 0 0 0 0 0 0 0 0 0 0 0 0 0 0 0 0 0 
0 0 0 0 0 0 0 0 0 0 0 0 0 0 0 0 0 0 0 0 0 0 0 0 
0 0 0 0 0 0 0 0 0 0 0 0 0 0 0 0 0 0 0 0 0 0 0 0 
0 0 0 0 0 0 0 0 0 0 0 0 0 0 0 0 0 0 0 0 0 0 0 0 
0 0 0 0 0 0 0 0 0 0 0 0 0 0 0 0 0 0 0 0 0 0 0 0 
0 0 0 0 0 0 0 0 0 136 14 19 241 25 33 245 25 34 244 25 32 235 25 32 
118 29 29 29 29 29 29 29 29 29 29 29 30 30 30 30 30 30 29 29 29 29 29 29 
30 30 30 27 27 27 15 15 15 8 8 8 8 8 8 8 8 8 9 9 9 8 8 8 
10 10 10 8 8 8 9 10 10 9 9 9 10 10 10 11 11 11 9 9 9 11 11 12 
11 11 11 12 12 12 13 14 14 14 14 14 13 13 13 15 16 16 16 16 16 16 16 17 
17 18 18 18 18 18 18 18 19 20 20 20 19 19 19 21 21 22 22 22 23 22 23 23 
24 24 25 25 25 25 26 27 27 27 28 28 28 29 29 30 30 30 29 30 30 31 32 32 
34 35 35 34 35 35 37 37 38 36 37 37 39 40 40 40 40 41 42 42 43 43 44 44 
46 46 48 47 47 48 48 49 50 51 51 52 52 52 53 54 54 55 55 56 58 58 59 60 
61 61 62 62 62 64 64 64 66 67 68 69 68 68 70 73 73 75 72 73 75 77 78 80 
77 78 79 81 83 84 81 83 86 88 90 92 88 89 90 93 94 96 94 94 96 99 100 102 
100 101 102 104 105 108 106 107 110 111 112 114 112 114 116 116 117 120 121 123 125 122 124 126 
128 131 133 129 131 132 136 138 140 133 135 138 136 138 140 130 132 134 129 132 134 122 123 125 
118 119 120 114 115 115 112 112 113 111 111 112 107 108 108 104 105 105 102 102 103 99 100 100 
98 98 99 134 118 118 234 177 178 247 188 189 247 191 192 246 193 194 179 143 144 0 0 0 
0 0 0 0 0 0 0 0 0 0 0 0 0 0 0 0 0 0 0 0 0 0 0 0 
0 0 0 0 0 0 0 0 0 0 0 0 0 0 0 0 0 0 0 0 0 0 0 0 
0 0 0 0 0 0 0 0 0 0 0 0 0 0 0 0 0 0 0 0 0 0 0 0 
0 0 0 0 0 0 0 0 0 0 0 0 0 0 0 0 0 0 0 0 0 0 0 0 
0 0 0 0 0 0 0 0 0 0 0 0 0 0 0 0 0 0 0 0 0 0 0 0 
0 0 0 0 0 0 
0 0 0 0 0 0 0 0 0 0 0 0 0 0 0 0 0 0 0 0 0 0 0 0 
0 0 0 0 0 0 0 0 0 0 0 0 0 0 0 0 0 0 0 0 0 0 0 0 
0 0 0 0 0 0 0 0 0 0 0 0 0 0 0 0 0 0 0 0 0 0 0 0 
0 0 0 0 0 0 0 0 0 0 0 0 0 0 0 0 0 0 0 0 0 0 0 0 
0 0 0 0 0 0 0 0 0 0 0 0 0 0 0 0 0 0 0 0 0 0 0 0 
0 0 0 16 2 2 201 22 28 246 25 33 245 24 33 244 25 32 193 26 31 35 29 29 
29 29 29 29 29 29 30 31 31 30 30 30 29 29 29 30 30 30 30 30 30 29 29 29 
17 17 17 7 7 7 7 7 8 8 8 8 8 8 8 9 9 9 9 9 9 9 9 9 
9 9 9 10 10 11 10 10 10 9 9 9 10 10 10 11 11 11 10 10 10 12 12 12 
11 12 11 12 12 12 13 14 13 13 13 13 15 16 16 16 16 16 17 17 17 17 17 17 
18 19 19 20 20 20 20 20 20 20 20 20 20 20 21 22 22 22 23 24 24 22 23 23 
24 24 24 27 27 27 27 28 28 29 29 29 29 30 30 31 31 31 31 32 32 32 33 33 
34 35 35 36 36 37 36 37 37 39 40 40 40 41 41 41 41 42 43 43 44 44 44 46 
46 47 48 48 49 50 50 51 52 50 51 52 53 54 55 54 56 56 59 59 61 59 60 60 
63 63 65 62 62 64 67 68 69 68 69 70 72 72 74 73 73 75 75 76 78 76 78 80 
81 82 83 81 83 84 84 86 89 87 89 90 90 91 93 94 95 97 95 97 99 101 103 104 
101 103 104 107 109 112 107 109 110 114 115 118 113 115 117 119 121 124 120 121 124 127 129 132 
128 130 132 135 137 140 135 137 140 137 139 142 131 133 136 129 132 134 125 128 130 122 123 126 
119 121 123 114 115 116 111 112 113 108 109 109 106 107 107 103 104 104 101 101 102 99 100 100 
97 97 98 94 95 96 94 94 94 188 146 147 245 183 185 247 187 188 247 191 192 229 179 180 
51 40 41 0 0 0 0 0 0 0 0 0 0 0 0 0 0 0 0 0 0 0 0 0 
0 0 0 0 0 0 0 0 0 0 0 0 0 0 0 0 0 0 0 0 0 0 0 0 
0 0 0 0 0 0 0 0 0 0 0 0 0 0 0 0 0 0 0 0 0 0 0 0 
0 0 0 0 0 0 0 0 0 0 0 0 0 0 0 0 0 0 0 0 0 0 0 0 
0 0 0 0 0 0 0 0 0 0 0 0 0 0 0 0 0 0 0 0 0 0 0 0 
0 0 0 0 0 0 
0 0 0 0 0 0 0 0 0 0 0 0 0 0 0 0 0 0 0 0 0 0 0 0 
0 0 0 0 0 0 0 0 0 0 0 0 0 0 0 0 0 0 0 0 0 0 0 0 
0 0 0 0 0 0 0 0 0 0 0 0 0 0 0 0 0 0 0 0 0 0 0 0 
0 0 0 0 0 0 0 0 0 0 0 0 0 0 0 0 0 0 0 0 0 0 0 0 
0 0 0 0 0 0 0 0 0 0 0 0 0 0 0 0 0 0 0 0 0 0 0 0 
79 9 11 235 27 34 246 27 35 246 26 34 235 25 33 110 28 28 29 29 29 30 30 30 
30 30 30 29 29 29 29 29 29 30 30 30 31 31 31 30 30 30 21 21 21 7 7 7 
7 7 7 8 8 8 7 7 7 8 8 8 8 8 8 9 9 9 8 8 8 10 10 10 
9 9 9 9 10 10 10 10 10 10 10 10 10 10 10 10 10 10 11 11 12 11 11 11 
12 12 12 11 11 11 14 14 14 14 14 14 15 16 16 16 16 16 17 17 18 17 18 18 
18 18 18 18 18 19 20 20 20 19 19 19 21 21 22 22 22 22 22 23 23 24 24 24 
25 25 25 25 26 26 27 27 27 28 29 29 28 29 29 30 31 31 31 32 32 32 33 33 
34 35 36 36 37 38 38 38 39 40 41 41 40 40 41 42 42 42 42 43 44 45 46 47 
47 48 49 49 50 51 50 51 52 53 54 55 53 54 55 57 58 59 58 59 60 60 61 62 
62 63 65 64 65 66 67 68 69 69 70 71 71 72 74 72 73 75 76 76 79 78 78 80 
82 83 84 81 83 85 88 88 90 89 89 91 94 95 97 92 94 96 98 101 102 99 100 101 
105 106 107 105 106 109 112 113 115 112 113 114 115 117 119 119 121 123 123 124 127 126 128 131 
130 133 134 134 136 139 136 137 141 136 138 140 130 132 134 129 132 134 122 123 126 122 124 126 
116 117 120 115 116 119 109 111 112 107 108 109 105 106 106 102 103 103 100 101 101 99 99 100 
96 97 97 94 95 95 90 91 91 88 89 90 127 109 110 235 173 174 248 184 185 247 186 188 
243 188 189 130 101 101 0 0 0 0 0 0 0 0 0 0 0 0 0 0 0 0 0 0 
0 0 0 0 0 0 0 0 0 0 0 0 0 0 0 0 0 0 0 0 0 0 0 0 
0 0 0 0 0 0 0 0 0 0 0 0 0 0 0 0 0 0 0 0 0 0 0 0 
0 0 0 0 0 0 0 0 0 0 0 0 0 0 0 0 0 0 0 0 0 0 0 0 
0 0 0 0 0 0 0 0 0 0 0 0 0 0 0 0 0 0 0 0 0 0 0 0 
0 0 0 0 0 0 
0 0 0 0 0 0 0 0 0 0 0 0 0 0 0 0 0 0 0 0 0 0 0 0 
0 0 0 0 0 0 0 0 0 0 0 0 0 0 0 0 0 0 0 0 0 0 0 0 
0 0 0 0 0 0 0 0 0 0 0 0 0 0 0 0 0 0 0 0 0 0 0 0 
0 0 0 0 0 0 0 0 0 0 0 0 0 0 0 0 0 0 0 0 0 0 0 0 
0 0 0 0 0 0 0 0 0 0 0 0 0 0 0 0 0 0 0 0 0 144 18 21 
244 29 37 245 28 36 245 28 35 210 28 33 45 29 29 28 28 28 29 29 29 28 28 28 
29 29 29 29 29 29 29 29 29 30 30 30 25 25 25 9 9 9 6 6 6 8 8 8 
7 7 7 7 7 7 7 7 7 8 8 8 9 9 9 8 8 8 9 9 9 9 9 9 
9 9 9 9 9 9 9 9 9 9 10 10 10 10 10 11 11 11 11 11 11 12 12 12 
12 12 12 13 13 13 13 13 13 14 15 15 14 15 15 16 16 16 16 16 16 17 18 18 
18 18 19 19 19 20 20 20 20 20 20 20 21 21 21 22 22 22 23 23 24 25 25 25 
25 25 25 26 27 27 28 28 29 30 30 30 30 31 31 30 31 31 32 33 33 33 34 34 
36 36 36 38 38 39 38 39 39 38 39 39 41 42 42 42 43 44 44 45 46 46 46 47 
48 49 50 49 50 51 51 51 52 52 53 54 54 55 56 57 58 59 58 59 60 61 62 63 
62 62 64 67 68 68 67 68 69 70 71 72 71 71 73 75 75 77 75 76 78 81 82 83 
81 83 83 85 86 89 86 88 90 91 92 94 93 94 95 95 97 99 98 100 101 101 103 105 
104 106 109 107 109 110 113 114 117 113 115 117 120 122 124 119 121 123 127 130 133 127 129 132 
134 137 139 133 135 138 139 140 144 132 134 136 131 133 135 124 126 129 123 125 128 119 120 122 
115 117 120 112 113 115 109 111 112 105 107 109 103 104 106 101 101 102 99 100 100 97 97 97 
95 95 97 92 93 93 89 90 90 87 87 88 86 86 87 83 84 84 203 151 152 246 179 180 
247 183 184 247 187 188 192 148 148 0 0 0 0 0 0 0 0 0 0 0 0 0 0 0 
0 0 0 0 0 0 0 0 0 0 0 0 0 0 0 0 0 0 0 0 0 0 0 0 
0 0 0 0 0 0 0 0 0 0 0 0 0 0 0 0 0 0 0 0 0 0 0 0 
0 0 0 0 0 0 0 0 0 0 0 0 0 0 0 0 0 0 0 0 0 0 0 0 
0 0 0 0 0 0 0 0 0 0 0 0 0 0 0 0 0 0 0 0 0 0 0 0 
0 0 0 0 0 0 
0 0 0 0 0 0 0 0 0 0 0 0 0 0 0 0 0 0 0 0 0 0 0 0 
0 0 0 0 0 0 0 0 0 0 0 0 0 0 0 0 0 0 0 0 0 0 0 0 
0 0 0 0 0 0 0 0 0 0 0 0 0 0 0 0 0 0 0 0 0 0 0 0 
0 0 0 0 0 0 0 0 0 0 0 0 0 0 0 0 0 0 0 0 0 0 0 0 
0 0 0 0 0 0 0 0 0 0 0 0 0 0 0 6 1 1 194 25 32 247 31 39 
246 30 37 243 29 36 150 27 32 27 27 27 29 29 29 28 28 28 29 29 29 28 28 28 
29 29 29 29 29 29 29 29 29 16 16 16 6 6 6 6 6 6 6 6 6 7 7 7 
7 7 7 6 6 6 7 7 7 8 8 8 7 7 7 8 8 8 9 9 9 8 8 8 
9 10 10 9 9 9 10 10 10 9 9 9 11 11 11 10 10 11 11 11 11 12 12 12 
10 11 10 13 13 13 12 13 13 14 15 15 15 15 15 16 16 16 16 16 16 17 17 17 
18 18 19 20 20 20 19 19 19 20 20 21 22 22 22 23 23 23 24 24 24 24 24 24 
25 26 26 27 28 28 28 29 29 29 29 29 30 30 30 31 32 32 32 33 33 33 34 35 
35 36 37 37 37 38 38 39 40 41 41 42 41 42 43 43 44 45 44 45 46 46 46 48 
49 49 50 50 50 51 51 52 53 52 53 54 56 57 59 57 58 60 62 62 62 60 62 63 
65 66 66 65 67 68 68 69 70 69 70 72 73 74 75 75 76 77 77 78 80 80 81 82 
81 83 85 86 88 90 88 89 91 92 93 95 92 93 96 99 101 102 98 101 102 104 106 107 
104 105 108 111 113 114 111 112 115 118 120 122 118 120 121 123 124 127 124 126 129 130 132 134 
132 134 136 135 137 140 134 136 139 131 133 135 128 130 133 122 123 126 122 123 125 115 117 120 
116 117 119 109 111 112 108 110 113 103 104 105 102 104 106 95 97 99 97 98 100 96 96 96 
94 94 94 90 91 92 87 87 88 87 87 88 85 85 86 84 84 85 81 81 82 146 116 116 
242 173 174 248 179 181 247 182 183 226 170 171 32 24 24 0 0 0 0 0 0 0 0 0 
0 0 0 0 0 0 0 0 0 0 0 0 0 0 0 0 0 0 0 0 0 0 0 0 
0 0 0 0 0 0 0 0 0 0 0 0 0 0 0 0 0 0 0 0 0 0 0 0 
0 0 0 0 0 0 0 0 0 0 0 0 0 0 0 0 0 0 0 0 0 0 0 0 
0 0 0 0 0 0 0 0 0 0 0 0 0 0 0 0 0 0 0 0 0 0 0 0 
0 0 0 0 0 0 
0 0 0 0 0 0 0 0 0 0 0 0 0 0 0 0 0 0 0 0 0 0 0 0 
0 0 0 0 0 0 0 0 0 0 0 0 0 0 0 0 0 0 0 0 0 0 0 0 
0 0 0 0 0 0 0 0 0 0 0 0 0 0 0 0 0 0 0 0 0 0 0 0 
0 0 0 0 0 0 0 0 0 0 0 0 0 0 0 0 0 0 0 0 0 0 0 0 
0 0 0 0 0 0 0 0 0 0 0 0 34 4 6 226 31 39 246 32 41 244 31 40 
234 30 38 97 30 32 30 30 30 29 29 29 29 29 29 29 29 29 30 30 30 31 31 31 
31 31 31 24 24 24 8 8 8 7 7 7 7 7 7 8 8 8 8 8 8 8 8 8 
8 8 8 8 8 8 8 8 8 9 9 9 8 8 8 9 10 10 10 10 10 10 10 10 
10 10 10 10 10 10 11 11 11 10 10 10 12 12 12 12 12 12 12 12 12 13 13 13 
13 14 14 14 14 15 16 16 16 16 16 17 17 17 17 18 18 18 18 19 19 19 19 19 
20 20 21 21 21 21 22 22 22 22 22 22 22 22 23 23 24 24 24 24 25 26 27 27 
26 27 27 29 30 30 29 31 31 30 31 31 31 32 32 32 33 33 33 34 34 36 36 38 
38 38 39 39 40 40 40 40 40 42 42 42 42 42 44 45 45 47 46 46 47 49 50 51 
49 50 51 52 53 53 53 53 54 56 56 57 58 59 60 60 61 62 62 62 64 62 64 66 
66 67 69 68 69 70 71 72 74 72 72 73 76 77 80 76 77 79 81 82 84 82 83 83 
87 88 91 86 88 90 93 94 95 92 94 95 98 99 101 100 101 103 104 105 106 105 106 108 
109 110 113 112 113 115 115 116 118 119 121 123 121 122 125 126 129 131 127 130 132 134 135 138 
133 136 138 139 141 144 133 135 137 133 134 137 124 127 129 124 126 128 119 121 123 117 119 122 
112 114 116 111 113 114 106 108 110 104 106 108 100 102 104 97 99 101 95 96 97 93 94 95 
93 94 95 91 91 92 89 89 89 87 87 87 84 85 85 85 85 86 82 83 83 81 81 81 
105 92 92 231 163 164 247 175 176 246 177 178 240 176 177 76 57 57 0 0 0 0 0 0 
0 0 0 0 0 0 0 0 0 0 0 0 0 0 0 0 0 0 0 0 0 0 0 0 
0 0 0 0 0 0 0 0 0 0 0 0 0 0 0 0 0 0 0 0 0 0 0 0 
0 0 0 0 0 0 0 0 0 0 0 0 0 0 0 0 0 0 0 0 0 0 0 0 
0 0 0 0 0 0 0 0 0 0 0 0 0 0 0 0 0 0 0 0 0 0 0 0 
0 0 0 0 0 0 
0 0 0 0 0 0 0 0 0 0 0 0 0 0 0 0 0 0 0 0 0 0 0 0 
0 0 0 0 0 0 0 0 0 0 0 0 0 0 0 0 0 0 0 0 0 0 0 0 
0 0 0 0 0 0 0 0 0 0 0 0 0 0 0 0 0 0 0 0 0 0 0 0 
0 0 0 0 0 0 0 0 0 0 0 0 0 0 0 0 0 0 0 0 0 0 0 0 
0 0 0 0 0 0 0 0 0 64 9 11 235 34 42 246 34 43 245 33 42 219 32 40 
51 31 31 31 31 31 31 31 31 31 31 31 31 31 31 32 32 32 31 31 31 31 31 31 
17 17 17 8 8 8 9 9 9 10 10 10 9 9 9 9 9 9 10 10 10 9 9 9 
9 9 9 9 9 9 9 9 9 11 11 11 11 12 11 11 11 11 12 12 12 12 12 13 
13 13 13 12 12 13 13 13 13 14 14 14 13 13 13 16 16 16 14 15 14 16 16 16 
16 16 16 16 16 16 18 19 19 18 18 18 19 19 19 19 19 19 20 20 20 21 21 21 
22 22 22 23 23 23 23 23 24 25 25 25 24 25 25 25 25 26 28 28 28 29 29 29 
29 30 30 31 32 32 32 33 33 33 34 34 34 35 35 35 35 36 36 37 38 38 39 40 
40 40 40 41 42 42 43 44 44 43 44 45 45 46 47 47 47 49 49 50 51 52 53 54 
53 53 54 53 54 56 55 56 56 60 61 62 60 60 62 63 64 65 62 63 65 68 68 70 
68 70 70 72 74 75 73 73 75 76 77 79 77 78 80 82 83 85 83 84 86 86 88 89 
89 89 92 91 93 94 94 96 97 96 97 100 100 102 104 102 104 105 107 109 111 107 109 111 
114 115 117 114 115 117 120 122 125 121 121 124 127 128 131 126 128 131 134 137 140 134 136 137 
140 142 145 137 139 141 136 137 139 131 134 136 127 128 131 123 124 127 119 121 123 118 119 121 
114 115 117 110 112 114 106 107 110 107 107 110 99 102 104 100 101 102 94 95 97 94 95 97 
89 91 92 88 90 92 90 91 91 88 89 89 87 87 88 84 85 85 82 82 83 81 81 82 
79 79 79 76 76 77 211 147 148 247 171 172 246 174 175 244 177 178 118 86 87 0 0 0 
0 0 0 0 0 0 0 0 0 0 0 0 0 0 0 0 0 0 0 0 0 0 0 0 
0 0 0 0 0 0 0 0 0 0 0 0 0 0 0 0 0 0 0 0 0 0 0 0 
0 0 0 0 0 0 0 0 0 0 0 0 0 0 0 0 0 0 0 0 0 0 0 0 
0 0 0 0 0 0 0 0 0 0 0 0 0 0 0 0 0 0 0 0 0 0 0 0 
0 0 0 0 0 0 
0 0 0 0 0 0 0 0 0 0 0 0 0 0 0 0 0 0 0 0 0 0 0 0 
0 0 0 0 0 0 0 0 0 0 0 0 0 0 0 0 0 0 0 0 0 0 0 0 
0 0 0 0 0 0 0 0 0 0 0 0 0 0 0 0 0 0 0 0 0 0 0 0 
0 0 0 0 0 0 0 0 0 0 0 0 0 0 0 0 0 0 0 0 0 0 0 0 
0 0 0 0 0 0 100 15 18 241 37 45 246 36 44 245 35 43 188 33 40 29 29 29 
30 30 30 30 30 30 30 30 30 30 30 30 29 29 29 31 31 31 26 26 26 8 8 8 
8 8 8 7 7 7 9 9 9 8 8 8 9 9 9 9 9 9 9 9 9 8 8 8 
9 9 9 9 9 9 9 9 9 10 10 10 10 10 10 11 11 11 10 11 11 11 11 11 
11 11 11 12 12 12 12 12 12 12 12 12 13 13 13 14 14 14 15 15 15 14 14 14 
14 14 14 15 16 16 16 17 17 18 18 18 18 18 18 18 19 19 19 20 20 20 20 21 
22 22 22 22 23 23 23 23 23 24 24 24 24 24 25 27 27 28 27 27 27 28 29 29 
28 29 30 30 31 31 31 31 31 32 32 32 33 34 35 35 36 36 36 37 38 39 39 41 
40 41 41 40 41 41 43 43 44 44 44 44 46 46 48 46 47 48 50 51 52 50 51 52 
54 54 55 52 53 54 56 58 59 57 58 60 60 61 62 63 63 64 64 65 66 66 67 68 
70 70 71 72 73 74 73 73 75 76 76 79 78 79 80 82 83 85 83 84 85 87 88 90 
87 89 91 93 94 95 93 94 95 99 100 102 99 100 102 105 106 107 105 105 108 110 111 114 
110 112 115 117 118 120 118 121 123 123 125 127 126 128 130 130 132 134 134 136 138 136 138 141 
138 140 143 135 136 138 133 135 138 125 128 130 127 127 130 120 122 124 118 120 123 114 115 116 
114 115 117 107 109 111 106 108 109 101 102 104 99 100 103 94 96 98 93 94 96 90 91 93 
88 89 91 84 85 88 82 83 83 84 84 85 85 86 86 83 83 84 80 81 81 78 79 79 
76 76 77 75 76 76 74 74 75 176 126 128 246 167 169 246 170 171 246 173 174 156 111 112 
0 0 0 0 0 0 0 0 0 0 0 0 0 0 0 0 0 0 0 0 0 0 0 0 
0 0 0 0 0 0 0 0 0 0 0 0 0 0 0 0 0 0 0 0 0 0 0 0 
0 0 0 0 0 0 0 0 0 0 0 0 0 0 0 0 0 0 0 0 0 0 0 0 
0 0 0 0 0 0 0 0 0 0 0 0 0 0 0 0 0 0 0 0 0 0 0 0 
0 0 0 0 0 0 
0 0 0 0 0 0 0 0 0 0 0 0 0 0 0 0 0 0 0 0 0 0 0 0 
0 0 0 0 0 0 0 0 0 0 0 0 0 0 0 0 0 0 0 0 0 0 0 0 
0 0 0 0 0 0 0 0 0 0 0 0 0 0 0 0 0 0 0 0 0 0 0 0 
0 0 0 0 0 0 0 0 0 0 0 0 0 0 0 0 0 0 0 0 0 0 0 0 
0 0 0 134 22 25 244 41 48 244 39 45 243 37 44 159 34 38 29 29 29 29 29 29 
28 28 28 28 28 28 29 29 29 29 29 29 29 29 29 18 18 18 7 7 7 6 6 6 
7 7 7 6 6 6 7 7 7 6 6 6 8 8 8 7 7 7 8 8 8 8 8 8 
8 8 8 9 9 9 8 8 8 8 8 8 9 9 9 9 9 9 9 10 10 9 9 9 
10 10 10 10 10 10 11 11 11 11 11 12 11 11 11 12 12 12 13 13 13 13 13 13 
14 15 15 15 15 15 15 16 15 16 16 17 17 17 17 18 18 18 19 19 19 20 20 20 
21 21 21 20 20 21 21 21 21 23 24 24 23 23 24 25 25 25 26 26 26 27 28 28 
29 30 30 30 31 31 30 30 31 31 32 32 32 33 33 35 36 36 35 36 37 37 38 39 
38 39 39 41 42 42 40 41 41 42 43 44 44 44 46 47 47 49 49 49 50 50 50 51 
51 52 53 53 54 55 56 56 57 58 59 60 61 62 63 61 62 62 64 65 67 66 67 67 
69 70 72 70 71 73 75 75 77 74 75 77 80 81 82 78 80 81 85 86 87 84 86 89 
89 90 92 91 92 94 95 96 97 96 98 100 101 102 103 103 104 107 106 108 111 110 112 114 
111 112 115 117 119 121 118 120 121 124 126 128 124 127 129 133 134 137 131 132 135 138 140 143 
134 136 138 134 136 139 127 130 132 127 129 132 122 123 125 119 121 124 114 116 118 111 112 114 
108 109 112 105 106 108 103 104 106 98 101 102 96 97 99 93 94 95 93 94 95 86 87 89 
86 88 89 80 82 83 81 81 83 76 77 80 78 79 80 81 81 81 80 80 80 77 78 78 
75 75 75 73 73 74 70 71 71 69 70 70 145 108 109 243 163 165 247 167 168 246 170 171 
185 130 131 0 0 0 0 0 0 0 0 0 0 0 0 0 0 0 0 0 0 0 0 0 
0 0 0 0 0 0 0 0 0 0 0 0 0 0 0 0 0 0 0 0 0 0 0 0 
0 0 0 0 0 0 0 0 0 0 0 0 0 0 0 0 0 0 0 0 0 0 0 0 
0 0 0 0 0 0 0 0 0 0 0 0 0 0 0 0 0 0 0 0 0 0 0 0 
0 0 0 0 0 0 
0 0 0 0 0 0 0 0 0 0 0 0 0 0 0 0 0 0 0 0 0 0 0 0 
0 0 0 0 0 0 0 0 0 0 0 0 0 0 0 0 0 0 0 0 0 0 0 0 
0 0 0 0 0 0 0 0 0 0 0 0 0 0 0 0 0 0 0 0 0 0 0 0 
0 0 0 0 0 0 0 0 0 0 0 0 0 0 0 0 0 0 0 0 0 0 0 0 
150 27 31 245 43 50 245 42 48 242 41 47 127 34 37 30 30 30 30 30 30 30 30 30 
30 30 30 29 29 29 29 29 29 29 29 29 13 13 13 7 7 7 7 7 7 7 7 7 
7 7 7 7 7 7 7 7 7 8 8 8 7 7 7 8 8 8 8 8 8 9 9 9 
9 9 9 9 9 9 9 9 9 9 10 9 10 10 10 10 10 10 10 11 11 10 10 10 
10 10 10 11 11 11 12 12 13 12 12 13 12 13 12 13 13 13 13 13 13 15 15 15 
15 15 15 15 16 16 17 17 17 19 19 20 18 19 19 20 20 20 19 20 20 20 20 20 
22 22 22 22 22 22 23 23 23 23 23 24 26 26 27 25 25 25 27 28 28 28 29 29 
30 31 31 31 31 31 31 32 32 32 33 33 33 34 34 35 36 37 38 38 38 38 38 39 
39 40 40 42 42 43 42 42 43 44 45 46 46 47 47 49 49 51 50 50 51 53 54 55 
52 53 54 55 56 57 56 57 58 61 62 62 62 62 63 64 65 66 64 65 67 70 70 71 
70 71 72 73 74 75 74 75 77 77 77 80 80 81 83 83 83 84 85 87 88 87 89 91 
91 92 94 92 94 95 97 99 101 97 99 101 104 106 107 103 105 107 110 111 114 109 110 112 
115 116 119 116 117 120 123 125 127 122 124 126 129 131 134 130 132 135 135 137 140 135 138 140 
134 135 138 131 133 136 125 127 130 125 127 129 119 121 123 117 118 121 111 113 115 111 113 115 
106 107 109 106 107 108 101 102 104 100 102 104 94 95 97 94 94 96 89 90 92 88 90 91 
83 84 86 81 83 85 79 80 81 76 77 79 74 75 77 74 74 76 78 78 79 76 76 77 
75 75 75 74 75 75 71 71 72 70 70 71 70 70 70 117 90 90 238 156 158 247 165 166 
247 166 168 199 137 139 0 0 0 0 0 0 0 0 0 0 0 0 0 0 0 0 0 0 
0 0 0 0 0 0 0 0 0 0 0 0 0 0 0 0 0 0 0 0 0 0 0 0 
0 0 0 0 0 0 0 0 0 0 0 0 0 0 0 0 0 0 0 0 0 0 0 0 
0 0 0 0 0 0 0 0 0 0 0 0 0 0 0 0 0 0 0 0 0 0 0 0 
0 0 0 0 0 0 
0 0 0 0 0 0 0 0 0 0 0 0 0 0 0 0 0 0 0 0 0 0 0 0 
0 0 0 0 0 0 0 0 0 0 0 0 0 0 0 0 0 0 0 0 0 0 0 0 
0 0 0 0 0 0 0 0 0 0 0 0 0 0 0 0 0 0 0 0 0 0 0 0 
0 0 0 0 0 0 0 0 0 0 0 0 0 0 0 0 0 0 0 0 0 157 29 35 
246 45 53 246 44 51 237 43 50 96 35 37 32 32 32 32 32 32 31 31 31 32 32 32 
32 32 32 33 33 33 31 31 31 11 11 11 9 9 9 9 9 9 9 9 9 9 9 9 
9 9 9 9 9 9 9 9 9 8 8 8 10 10 10 9 9 10 10 10 10 11 11 11 
10 10 10 11 11 11 11 11 11 12 12 12 13 13 13 12 13 13 13 13 13 13 13 13 
13 13 13 14 14 14 14 14 14 15 15 15 15 15 15 15 15 15 16 16 16 16 17 17 
16 17 17 18 18 18 20 20 21 21 21 21 21 21 21 21 21 22 23 23 23 23 23 24 
23 23 24 25 25 25 25 26 26 27 27 27 27 27 27 29 29 29 29 30 30 30 31 32 
32 32 33 33 34 34 35 35 36 35 36 36 36 37 38 37 38 39 41 42 42 41 41 42 
43 44 44 44 44 45 46 47 48 46 47 48 50 50 52 51 51 52 53 54 55 53 54 56 
57 58 58 59 60 60 60 61 63 62 63 64 64 64 66 67 68 69 69 69 70 71 72 74 
72 73 73 76 77 79 76 77 80 82 83 85 82 83 84 86 88 89 86 87 89 94 94 96 
93 94 95 97 98 100 98 99 101 104 105 106 105 106 108 109 110 113 111 113 116 114 115 117 
116 119 121 121 123 124 126 127 131 127 129 132 134 136 138 134 136 138 140 142 146 135 138 140 
137 139 141 130 132 135 128 131 133 123 125 127 122 125 127 116 118 121 116 117 119 110 113 114 
108 110 113 105 106 108 102 103 105 98 100 101 95 96 98 94 95 97 90 91 93 88 89 91 
84 85 87 84 85 86 79 80 82 79 80 81 73 74 76 74 74 76 70 71 73 76 77 77 
74 74 75 73 74 74 72 73 73 71 72 72 71 71 71 68 69 69 93 77 77 234 149 152 
245 159 162 246 162 164 206 139 141 0 0 0 0 0 0 0 0 0 0 0 0 0 0 0 
0 0 0 0 0 0 0 0 0 0 0 0 0 0 0 0 0 0 0 0 0 0 0 0 
0 0 0 0 0 0 0 0 0 0 0 0 0 0 0 0 0 0 0 0 0 0 0 0 
0 0 0 0 0 0 0 0 0 0 0 0 0 0 0 0 0 0 0 0 0 0 0 0 
0 0 0 0 0 0 
0 0 0 0 0 0 0 0 0 0 0 0 0 0 0 0 0 0 0 0 0 0 0 0 
0 0 0 0 0 0 0 0 0 0 0 0 0 0 0 0 0 0 0 0 0 0 0 0 
0 0 0 0 0 0 0 0 0 0 0 0 0 0 0 0 0 0 0 0 0 0 0 0 
0 0 0 0 0 0 0 0 0 0 0 0 0 0 0 0 0 0 172 34 39 246 47 55 
246 45 54 238 44 52 82 33 33 28 28 28 27 27 27 28 28 28 28 28 28 28 28 28 
28 28 28 21 21 21 5 5 5 5 5 5 5 5 5 5 5 5 5 5 5 6 6 6 
5 5 5 6 6 6 6 6 6 6 6 6 6 6 6 7 7 7 7 7 7 7 7 7 
8 8 8 8 8 8 8 8 8 9 9 9 9 9 9 8 8 8 10 10 10 10 10 10 
10 10 10 10 10 11 10 10 11 10 10 10 12 12 12 13 13 13 13 13 13 13 13 13 
15 16 16 15 15 16 15 15 16 16 17 17 18 18 18 18 18 19 20 20 20 20 20 20 
21 21 21 21 21 21 22 22 23 24 24 24 24 24 25 26 27 27 26 27 27 29 29 29 
29 29 29 30 31 31 30 31 31 33 34 34 33 34 35 36 36 36 36 36 37 38 39 39 
39 39 40 41 42 43 42 43 44 45 45 47 46 47 48 49 49 50 50 51 52 50 51 52 
53 55 56 55 56 56 57 58 59 59 60 60 62 62 64 62 63 65 67 68 68 67 67 69 
71 72 74 72 73 74 75 76 78 77 78 80 80 82 83 80 82 84 84 86 88 88 89 90 
90 91 93 94 95 97 96 97 99 101 103 104 99 101 104 108 109 111 108 109 110 113 114 117 
113 115 117 120 121 123 119 121 123 127 129 132 127 130 132 133 136 139 132 133 137 132 134 137 
128 130 132 125 127 130 121 122 125 117 119 121 115 117 119 111 112 114 109 111 113 103 105 107 
104 104 106 98 99 101 98 100 101 91 92 94 92 94 95 86 87 89 86 88 89 80 81 83 
81 82 84 76 77 78 75 76 79 71 72 74 70 71 72 68 68 70 66 67 68 62 63 64 
68 69 69 71 71 72 69 70 70 67 67 67 67 67 67 66 66 66 63 63 63 82 69 70 
231 144 147 245 155 157 246 159 161 212 141 143 0 0 0 0 0 0 0 0 0 0 0 0 
0 0 0 0 0 0 0 0 0 0 0 0 0 0 0 0 0 0 0 0 0 0 0 0 
0 0 0 0 0 0 0 0 0 0 0 0 0 0 0 0 0 0 0 0 0 0 0 0 
0 0 0 0 0 0 0 0 0 0 0 0 0 0 0 0 0 0 0 0 0 0 0 0 
0 0 0 0 0 0 
0 0 0 0 0 0 0 0 0 0 0 0 0 0 0 0 0 0 0 0 0 0 0 0 
0 0 0 0 0 0 0 0 0 0 0 0 0 0 0 0 0 0 0 0 0 0 0 0 
0 0 0 0 0 0 0 0 0 0 0 0 0 0 0 0 0 0 0 0 0 0 0 0 
0 0 0 0 0 0 0 0 0 0 0 0 0 0 0 170 37 41 245 52 58 246 49 56 
235 47 53 71 32 32 29 29 29 29 29 29 29 29 29 28 28 28 28 28 28 29 29 29 
19 19 19 6 6 6 6 6 6 7 7 7 6 6 6 6 6 6 6 6 6 5 5 5 
6 6 6 7 7 7 7 7 7 7 7 7 8 8 8 8 8 8 8 8 8 8 8 8 
8 8 8 9 9 9 9 9 9 10 10 10 10 10 10 10 10 10 10 10 10 10 10 10 
11 11 11 11 11 11 11 11 11 12 13 12 14 14 14 14 14 14 13 14 14 14 14 14 
15 15 15 16 17 17 18 18 18 18 18 18 19 19 19 19 19 19 20 20 20 19 19 20 
22 22 22 21 22 22 23 23 24 24 24 24 26 26 26 25 26 26 28 29 29 28 29 29 
29 29 29 31 32 32 31 32 32 33 34 34 34 35 36 36 37 38 38 38 39 40 41 41 
41 41 42 42 43 44 43 44 45 46 47 48 47 47 48 50 50 51 50 51 51 53 54 54 
54 55 56 57 57 58 58 60 60 61 61 63 62 63 64 65 66 67 68 68 69 69 70 72 
72 73 75 73 74 77 77 78 79 78 80 81 81 83 85 83 84 86 88 89 91 88 89 91 
95 95 97 93 95 97 100 101 102 99 101 102 104 106 109 106 108 110 113 114 115 113 115 117 
119 120 122 120 121 123 122 124 127 126 128 131 130 132 134 134 135 138 132 133 137 131 133 135 
125 126 129 125 126 129 119 120 121 118 120 122 112 114 115 111 113 115 105 107 110 104 106 109 
100 102 103 99 100 102 92 94 97 92 94 95 89 90 92 87 88 89 83 85 87 81 82 84 
79 80 82 75 77 77 75 76 78 72 73 75 71 72 73 67 67 69 66 68 69 62 63 64 
62 62 63 63 64 65 68 68 69 67 68 68 65 65 66 63 63 63 63 64 64 63 63 63 
72 66 66 229 141 144 245 151 153 246 155 157 215 138 140 0 0 0 0 0 0 0 0 0 
0 0 0 0 0 0 0 0 0 0 0 0 0 0 0 0 0 0 0 0 0 0 0 0 
0 0 0 0 0 0 0 0 0 0 0 0 0 0 0 0 0 0 0 0 0 0 0 0 
0 0 0 0 0 0 0 0 0 0 0 0 0 0 0 0 0 0 0 0 0 0 0 0 
0 0 0 0 0 0 
0 0 0 0 0 0 0 0 0 0 0 0 0 0 0 0 0 0 0 0 0 0 0 0 
0 0 0 0 0 0 0 0 0 0 0 0 0 0 0 0 0 0 0 0 0 0 0 0 
0 0 0 0 0 0 0 0 0 0 0 0 0 0 0 0 0 0 0 0 0 0 0 0 
0 0 0 0 0 0 0 0 0 0 0 0 157 36 39 245 55 60 245 53 58 233 51 56 
63 31 34 29 29 29 28 28 28 28 28 28 29 29 29 29 29 29 28 28 28 16 16 16 
5 5 5 6 6 6 5 5 5 5 5 5 5 5 5 5 5 5 5 5 5 6 6 6 
7 7 7 7 7 7 6 6 6 6 6 6 7 7 7 8 8 8 7 7 7 7 7 7 
9 9 9 8 8 8 9 9 9 8 8 8 9 9 9 10 10 10 9 9 9 10 10 10 
9 9 9 11 11 11 11 11 11 12 12 12 11 12 12 14 14 14 13 13 13 15 15 16 
15 15 15 16 16 17 17 18 18 17 17 17 17 17 18 18 18 18 19 19 19 20 20 21 
20 21 21 21 21 21 23 23 24 25 25 25 26 27 27 26 27 27 28 29 29 29 29 29 
30 30 30 30 31 31 31 32 32 33 34 35 36 36 37 36 36 37 38 39 40 39 39 40 
41 42 43 42 42 43 45 45 47 47 47 48 47 48 49 49 50 50 50 50 52 53 53 54 
54 55 56 56 57 58 59 60 60 61 62 63 61 62 64 66 67 68 67 67 69 71 71 73 
70 71 73 75 76 77 75 75 77 79 81 82 80 81 83 85 87 88 87 88 89 90 91 93 
91 92 94 95 97 99 98 101 102 101 103 104 104 106 108 106 107 108 112 114 116 112 114 116 
119 120 123 118 120 123 126 129 131 125 127 129 133 135 138 131 132 135 133 135 138 126 129 131 
124 127 129 119 120 123 119 120 122 113 115 117 111 113 114 107 109 110 104 106 108 101 103 106 
99 100 102 96 98 101 91 92 94 91 92 94 86 87 89 84 86 89 79 81 82 79 81 82 
75 76 78 74 76 77 70 72 73 71 72 73 67 68 69 65 67 68 62 63 65 61 62 63 
59 60 61 58 58 60 58 59 60 64 65 65 65 65 65 62 62 62 61 61 61 59 60 60 
58 58 58 67 60 60 225 135 138 245 149 152 246 151 154 206 131 133 0 0 0 0 0 0 
0 0 0 0 0 0 0 0 0 0 0 0 0 0 0 0 0 0 0 0 0 0 0 0 
0 0 0 0 0 0 0 0 0 0 0 0 0 0 0 0 0 0 0 0 0 0 0 0 
0 0 0 0 0 0 0 0 0 0 0 0 0 0 0 0 0 0 0 0 0 0 0 0 
0 0 0 0 0 0 
0 0 0 0 0 0 0 0 0 0 0 0 0 0 0 0 0 0 0 0 0 0 0 0 
0 0 0 0 0 0 0 0 0 0 0 0 0 0 0 0 0 0 0 0 0 0 0 0 
0 0 0 0 0 0 0 0 0 0 0 0 0 0 0 0 0 0 0 0 0 0 0 0 
0 0 0 0 0 0 0 0 0 142 33 37 245 57 64 245 56 61 235 53 58 68 32 32 
28 28 28 28 28 28 28 28 28 28 28 28 28 28 28 27 27 27 12 12 12 4 4 4 
4 4 4 5 5 5 5 5 5 6 6 6 5 5 5 5 5 5 4 4 4 6 6 6 
5 5 5 6 6 6 5 5 5 7 7 7 6 6 6 6 6 6 7 7 7 7 7 7 
8 8 8 8 8 8 9 9 9 8 8 8 10 10 10 9 9 9 9 9 9 10 10 10 
10 10 10 11 11 11 10 10 10 12 12 12 12 13 13 13 13 13 13 13 13 15 15 15 
15 15 15 15 15 15 15 16 16 17 17 17 18 18 18 19 19 19 19 19 20 20 20 20 
20 21 21 22 22 23 23 23 23 25 25 25 25 26 26 26 27 27 27 28 28 29 29 29 
29 29 29 30 31 31 31 32 32 33 33 34 35 35 36 36 37 37 38 38 38 38 39 40 
40 41 41 41 42 43 44 45 46 45 45 46 47 48 48 47 48 49 50 51 52 52 54 54 
55 56 57 55 56 57 59 60 62 61 62 62 62 63 65 65 65 66 68 68 69 68 69 71 
71 72 74 74 74 76 75 76 78 77 79 80 80 81 83 85 86 88 86 87 89 89 91 93 
89 91 93 96 98 98 97 97 98 102 104 106 102 104 106 108 109 111 107 109 111 115 118 119 
114 115 117 119 122 124 122 123 126 127 130 131 128 130 133 129 130 133 127 128 130 122 124 127 
120 122 124 115 116 118 114 116 118 110 111 112 108 111 112 102 104 107 103 104 106 98 98 100 
98 98 100 91 92 94 91 91 93 85 87 89 84 85 87 79 81 83 81 81 81 77 78 80 
74 75 76 70 71 73 69 70 72 68 69 70 66 66 68 64 64 66 62 63 63 60 60 62 
57 58 58 56 57 58 52 53 54 53 55 56 61 62 62 61 62 62 60 60 61 58 58 59 
58 58 58 56 57 57 65 58 58 227 133 135 246 145 148 246 148 151 197 122 125 0 0 0 
0 0 0 0 0 0 0 0 0 0 0 0 0 0 0 0 0 0 0 0 0 0 0 0 
0 0 0 0 0 0 0 0 0 0 0 0 0 0 0 0 0 0 0 0 0 0 0 0 
0 0 0 0 0 0 0 0 0 0 0 0 0 0 0 0 0 0 0 0 0 0 0 0 
0 0 0 0 0 0 
0 0 0 0 0 0 0 0 0 0 0 0 0 0 0 0 0 0 0 0 0 0 0 0 
0 0 0 0 0 0 0 0 0 0 0 0 0 0 0 0 0 0 0 0 0 0 0 0 
0 0 0 0 0 0 0 0 0 0 0 0 0 0 0 0 0 0 0 0 0 0 0 0 
0 0 0 0 0 0 128 31 35 246 59 67 246 57 65 237 56 63 75 35 36 30 30 30 
30 30 30 30 30 30 30 30 30 31 31 31 31 31 31 14 14 14 7 7 7 8 8 8 
7 7 7 8 8 8 8 8 8 7 7 7 8 8 8 8 8 8 9 9 9 9 9 9 
8 8 8 9 9 9 8 8 8 9 9 10 8 8 8 9 9 9 10 10 10 10 10 10 
11 11 11 11 11 11 11 11 11 11 12 12 13 13 13 12 12 12 12 12 12 13 13 13 
13 13 13 12 12 12 12 12 12 13 14 14 15 15 15 14 15 15 17 17 17 18 18 18 
17 17 17 19 19 19 20 20 20 20 20 20 21 21 21 19 19 19 21 21 22 22 22 23 
24 24 24 24 24 25 25 25 26 26 27 27 28 28 28 28 29 29 29 30 30 30 31 31 
30 31 31 32 33 34 34 35 36 36 37 38 37 37 38 39 40 40 40 40 41 42 43 44 
41 42 42 45 45 47 45 46 47 49 50 50 49 49 50 52 53 54 51 52 53 54 55 57 
56 57 58 58 58 59 60 61 63 63 64 65 67 68 68 66 67 69 70 70 72 70 71 72 
75 76 78 74 75 76 80 80 81 79 81 83 84 86 87 85 86 86 91 92 93 89 91 93 
94 96 98 97 98 100 101 101 104 101 102 105 105 106 108 108 109 112 110 113 114 115 116 117 
115 117 119 122 124 126 123 125 127 131 131 134 128 130 132 132 133 135 123 125 128 122 125 128 
116 117 119 117 118 120 109 111 113 109 111 113 105 106 108 103 105 107 99 101 103 97 99 101 
94 95 97 90 91 93 90 91 91 87 88 89 84 85 88 80 81 83 79 80 82 76 77 79 
74 75 77 70 71 74 72 72 73 67 68 69 66 67 68 62 63 64 62 63 64 58 59 60 
59 60 62 55 56 57 53 54 55 53 54 55 52 53 55 62 62 63 61 61 61 59 59 59 
60 60 60 59 59 59 58 58 58 69 64 64 231 132 134 245 141 144 245 144 148 186 111 114 
0 0 0 0 0 0 0 0 0 0 0 0 0 0 0 0 0 0 0 0 0 0 0 0 
0 0 0 0 0 0 0 0 0 0 0 0 0 0 0 0 0 0 0 0 0 0 0 0 
0 0 0 0 0 0 0 0 0 0 0 0 0 0 0 0 0 0 0 0 0 0 0 0 
0 0 0 0 0 0 
0 0 0 0 0 0 0 0 0 0 0 0 0 0 0 0 0 0 0 0 0 0 0 0 
0 0 0 0 0 0 0 0 0 0 0 0 0 0 0 0 0 0 0 0 0 0 0 0 
0 0 0 0 0 0 0 0 0 0 0 0 0 0 0 0 0 0 0 0 0 0 0 0 
0 0 0 90 23 25 244 63 68 246 61 68 239 59 66 84 36 37 29 29 29 29 29 29 
29 29 29 29 29 29 28 28 28 28 28 28 12 12 12 6 6 6 6 6 6 6 6 6 
6 6 6 7 7 7 6 6 6 6 6 6 7 7 7 6 6 6 7 7 7 7 7 7 
7 7 7 7 7 7 7 7 7 8 8 8 8 8 8 8 8 8 8 8 8 9 9 9 
8 9 9 10 10 10 9 10 10 10 10 10 10 10 10 10 10 10 11 11 11 11 11 11 
12 12 12 11 11 11 13 13 13 12 13 13 13 14 14 14 15 15 15 15 15 16 16 16 
17 17 17 17 17 17 17 17 17 17 17 18 19 19 19 19 19 19 20 20 20 21 21 22 
22 23 23 22 22 22 24 24 24 25 26 26 26 27 27 26 26 26 29 29 29 28 29 29 
31 32 32 32 32 32 33 34 34 34 34 35 36 37 37 37 38 38 38 38 39 40 41 41 
41 41 42 43 44 45 45 45 46 46 47 48 47 48 49 50 51 52 50 51 52 54 54 55 
54 54 55 59 59 60 58 59 60 62 63 65 62 63 64 66 66 68 67 68 68 71 71 73 
71 72 74 75 76 77 76 77 78 79 81 83 82 83 85 85 85 87 87 88 89 89 91 93 
93 94 96 94 95 96 98 100 103 99 101 103 105 106 109 105 106 109 112 114 116 111 113 115 
116 118 121 117 119 122 125 126 127 124 126 129 128 130 133 123 125 127 121 124 126 116 117 121 
113 114 116 110 112 114 106 106 109 105 106 107 100 102 105 98 99 102 95 95 97 94 96 98 
87 89 91 90 90 91 84 85 86 83 84 86 77 78 81 77 79 79 74 75 76 73 74 76 
68 68 71 69 69 71 64 66 67 64 65 67 61 62 63 59 59 61 58 59 60 56 57 58 
55 56 57 51 52 53 52 53 54 49 49 50 50 50 51 48 49 50 59 60 60 58 58 58 
57 57 57 56 57 57 56 56 57 55 55 55 75 62 62 233 130 133 244 138 141 246 141 144 
152 89 91 0 0 0 0 0 0 0 0 0 0 0 0 0 0 0 0 0 0 0 0 0 
0 0 0 0 0 0 0 0 0 0 0 0 0 0 0 0 0 0 0 0 0 0 0 0 
0 0 0 0 0 0 0 0 0 0 0 0 0 0 0 0 0 0 0 0 0 0 0 0 
0 0 0 0 0 0 
0 0 0 0 0 0 0 0 0 0 0 0 0 0 0 0 0 0 0 0 0 0 0 0 
0 0 0 0 0 0 0 0 0 0 0 0 0 0 0 0 0 0 0 0 0 0 0 0 
0 0 0 0 0 0 0 0 0 0 0 0 0 0 0 0 0 0 0 0 0 0 0 0 
55 15 16 240 66 70 246 65 70 241 62 68 103 42 43 32 32 32 31 31 31 31 31 31 
30 30 30 31 31 31 30 30 30 12 12 12 8 8 8 8 8 8 8 8 8 9 9 9 
8 8 8 8 8 8 8 8 8 8 8 8 8 8 8 8 8 8 9 9 9 9 9 9 
9 9 9 9 9 9 9 9 9 9 9 9 9 9 9 10 10 10 10 10 10 10 11 11 
11 11 11 11 11 11 10 11 11 12 12 12 12 12 12 11 11 11 12 12 12 13 13 14 
14 14 14 14 14 14 15 15 15 15 15 15 15 15 15 15 16 16 17 17 17 17 17 17 
17 17 17 18 18 18 18 19 19 19 19 19 20 20 20 20 20 21 21 21 21 22 23 23 
23 23 24 24 24 24 25 26 26 26 26 27 28 29 29 29 29 29 29 29 29 29 30 30 
32 33 33 31 32 33 35 35 36 36 36 37 37 37 38 38 38 39 40 40 40 39 40 41 
42 43 44 44 45 46 46 47 48 45 46 47 49 49 49 49 50 51 53 54 54 52 53 54 
56 56 57 57 58 60 59 60 60 61 62 63 63 64 65 66 66 67 67 68 70 69 70 73 
72 72 74 76 76 77 76 77 78 80 81 84 81 82 83 85 86 87 85 86 88 90 93 94 
90 91 92 96 97 99 96 97 100 102 104 105 102 102 104 106 108 110 109 110 112 111 113 117 
114 116 119 118 120 122 122 123 126 123 124 128 123 125 127 118 120 122 117 119 122 110 111 114 
111 112 114 104 105 108 105 106 109 100 102 103 99 101 103 94 95 96 93 95 96 87 89 91 
87 87 90 83 84 86 83 84 85 80 81 82 76 77 79 75 75 76 72 73 75 70 72 73 
67 69 70 67 67 69 64 65 66 62 64 66 59 60 61 59 60 61 56 57 58 56 56 58 
53 54 54 52 53 53 50 51 52 51 52 52 48 49 50 48 49 49 46 47 49 58 58 58 
58 58 59 57 57 58 57 57 57 55 56 56 55 55 55 82 67 68 239 128 132 245 134 139 
245 138 141 118 70 70 0 0 0 0 0 0 0 0 0 0 0 0 0 0 0 0 0 0 
0 0 0 0 0 0 0 0 0 0 0 0 0 0 0 0 0 0 0 0 0 0 0 0 
0 0 0 0 0 0 0 0 0 0 0 0 0 0 0 0 0 0 0 0 0 0 0 0 
0 0 0 0 0 0 
0 0 0 0 0 0 0 0 0 0 0 0 0 0 0 0 0 0 0 0 0 0 0 0 
0 0 0 0 0 0 0 0 0 0 0 0 0 0 0 0 0 0 0 0 0 0 0 0 
0 0 0 0 0 0 0 0 0 0 0 0 0 0 0 0 0 0 0 0 0 28 8 9 
234 66 71 246 68 73 244 67 71 134 48 50 28 28 28 29 29 29 29 29 29 29 29 29 
30 30 30 29 29 29 13 13 13 6 6 6 6 6 6 5 5 5 6 6 6 6 6 6 
8 8 8 7 7 7 6 6 6 6 6 6 7 7 7 7 7 7 7 7 7 7 7 7 
8 8 8 7 7 7 8 8 8 8 8 8 8 8 8 10 10 10 9 9 9 9 9 9 
9 9 9 9 9 9 11 11 11 9 9 9 9 9 9 10 10 10 10 10 10 12 12 12 
12 12 12 13 13 13 12 12 12 12 13 13 12 12 12 14 15 15 15 15 15 15 15 15 
16 17 17 16 16 16 18 18 18 17 17 17 19 19 19 19 20 20 19 19 20 20 20 21 
20 20 21 23 23 23 24 24 24 25 25 25 25 25 25 26 27 27 26 27 27 27 28 28 
29 30 30 30 31 32 32 32 33 35 35 35 35 35 35 36 37 38 36 37 37 39 39 41 
40 40 42 41 42 43 44 44 44 44 44 45 46 47 48 48 49 50 50 50 52 50 52 52 
53 54 54 54 55 55 58 58 59 59 59 60 61 62 62 62 62 64 66 66 68 66 66 68 
71 72 72 70 71 73 74 76 78 75 76 77 79 80 81 79 80 82 82 84 85 84 86 88 
88 89 91 90 92 94 93 95 97 98 98 99 98 100 101 104 105 107 103 104 107 109 111 113 
110 111 113 116 118 120 115 117 120 120 121 124 114 116 116 113 115 118 107 108 112 107 108 109 
103 104 106 100 102 104 97 98 99 95 97 98 91 93 94 90 91 92 86 87 89 84 85 87 
82 83 84 78 79 81 77 78 80 72 73 76 73 74 75 68 70 71 68 70 72 64 65 66 
64 64 66 60 60 61 61 62 63 57 58 59 55 57 58 55 55 55 54 54 55 52 52 54 
49 51 52 49 49 50 47 48 49 47 48 49 45 46 47 45 45 46 43 43 44 43 44 45 
54 55 55 56 56 56 55 55 55 53 54 54 53 53 53 51 51 51 108 73 73 243 128 132 
246 132 137 241 134 138 79 45 46 0 0 0 0 0 0 0 0 0 0 0 0 0 0 0 
0 0 0 0 0 0 0 0 0 0 0 0 0 0 0 0 0 0 0 0 0 0 0 0 
0 0 0 0 0 0 0 0 0 0 0 0 0 0 0 0 0 0 0 0 0 0 0 0 
0 0 0 0 0 0 
0 0 0 0 0 0 0 0 0 0 0 0 0 0 0 0 0 0 0 0 0 0 0 0 
0 0 0 0 0 0 0 0 0 0 0 0 0 0 0 0 0 0 0 0 0 0 0 0 
0 0 0 0 0 0 0 0 0 0 0 0 0 0 0 0 0 0 2 1 1 220 65 71 
245 71 77 245 70 76 166 54 58 31 31 31 31 31 31 31 31 31 30 30 30 30 30 30 
31 31 31 14 14 14 7 7 7 7 7 7 7 7 7 8 8 8 7 7 7 8 8 8 
7 7 7 7 7 7 7 7 7 8 8 8 8 8 8 8 8 8 8 8 8 9 9 9 
9 9 9 9 9 9 9 9 9 9 9 9 9 9 9 10 10 10 9 9 9 10 10 10 
10 10 10 10 10 10 11 11 11 10 10 10 10 10 10 11 11 11 11 12 12 12 12 12 
12 12 12 11 11 11 14 14 14 13 14 14 14 15 15 16 16 16 16 16 16 15 15 15 
17 17 17 17 17 18 18 18 18 17 17 18 19 19 19 20 20 20 20 20 20 20 21 21 
23 23 23 23 23 23 24 24 24 24 25 25 26 27 27 26 27 27 28 28 28 29 30 30 
29 30 31 31 31 31 33 33 34 34 34 35 34 35 35 36 36 37 38 38 38 38 39 41 
41 41 42 43 43 44 42 43 43 45 45 46 45 46 47 49 50 51 49 49 50 52 53 53 
52 53 54 54 55 56 55 55 57 58 59 60 59 59 61 61 62 63 64 65 67 68 68 69 
69 70 70 70 71 73 73 74 76 73 74 76 78 79 81 78 78 81 83 85 86 83 85 85 
88 90 91 89 90 92 93 95 97 93 94 96 99 101 103 99 100 103 105 106 108 104 106 108 
111 112 114 112 113 115 114 116 119 112 113 117 112 113 115 106 108 111 103 105 107 102 104 105 
98 100 101 97 97 100 91 92 94 92 93 95 87 88 89 87 89 90 81 83 84 81 82 85 
77 78 80 77 78 80 73 74 75 71 73 74 68 69 70 67 68 69 65 66 66 62 63 65 
60 60 61 59 59 60 59 60 61 55 56 57 55 56 57 52 52 53 52 53 54 50 50 52 
50 51 52 49 49 50 48 49 50 45 46 47 47 47 48 44 44 46 44 45 45 42 42 43 
43 43 44 55 55 55 54 55 55 54 54 54 54 54 54 52 52 52 51 51 51 132 81 83 
244 127 129 247 130 133 236 127 132 28 15 15 0 0 0 0 0 0 0 0 0 0 0 0 
0 0 0 0 0 0 0 0 0 0 0 0 0 0 0 0 0 0 0 0 0 0 0 0 
0 0 0 0 0 0 0 0 0 0 0 0 0 0 0 0 0 0 0 0 0 0 0 0 
0 0 0 0 0 0 
0 0 0 0 0 0 0 0 0 0 0 0 0 0 0 0 0 0 0 0 0 0 0 0 
0 0 0 0 0 0 0 0 0 0 0 0 0 0 0 0 0 0 0 0 0 0 0 0 
0 0 0 0 0 0 0 0 0 0 0 0 0 0 0 0 0 0 183 57 60 246 75 80 
246 73 79 197 63 67 29 29 29 29 29 29 29 29 29 29 29 29 29 29 29 29 29 29 
14 14 14 5 5 5 6 6 6 6 6 6 5 5 5 8 8 8 6 6 6 7 7 7 
7 7 7 7 7 7 8 8 8 6 6 6 7 7 7 8 8 8 8 8 8 7 7 7 
8 8 8 8 8 8 8 8 8 8 8 8 10 10 10 9 9 9 9 9 9 10 10 10 
10 10 10 9 9 9 10 10 10 10 10 11 10 10 10 11 11 12 10 10 10 10 11 10 
12 12 12 11 12 12 11 12 12 12 12 12 13 14 14 13 13 13 14 15 15 14 15 15 
16 16 16 16 17 17 17 17 17 16 16 16 18 18 18 17 18 18 18 18 18 20 20 20 
20 20 21 21 22 22 22 23 23 23 23 23 23 24 24 25 26 26 26 26 26 26 27 27 
28 29 29 29 30 30 30 30 31 31 31 31 32 33 33 33 33 34 35 36 37 36 37 38 
38 39 39 39 40 40 41 42 43 41 41 42 43 44 45 45 46 48 47 48 49 49 49 50 
49 49 50 51 51 53 54 55 55 55 56 57 56 56 58 59 59 62 59 61 62 63 64 65 
63 64 65 67 68 70 68 69 70 72 72 74 73 73 75 75 76 78 76 78 79 80 82 83 
82 82 85 85 86 88 88 88 90 89 90 93 92 93 96 94 95 98 98 100 101 101 102 104 
105 106 107 105 106 109 108 110 112 104 105 106 103 105 106 98 99 101 97 98 100 93 94 96 
91 93 95 88 89 90 87 89 89 84 85 87 82 83 84 79 79 81 76 77 80 74 74 77 
72 73 74 70 71 72 67 69 71 66 67 68 63 64 65 63 63 65 59 60 61 58 59 61 
55 56 58 55 56 56 52 53 54 52 53 55 51 51 52 49 50 52 48 48 50 48 49 49 
46 47 47 45 46 47 44 44 45 44 45 46 42 43 44 41 41 42 41 42 42 39 39 41 
40 41 41 42 42 42 53 54 54 51 51 51 51 51 51 50 51 51 49 50 50 49 49 49 
164 91 94 244 124 128 245 126 128 222 117 120 0 0 0 0 0 0 0 0 0 0 0 0 
0 0 0 0 0 0 0 0 0 0 0 0 0 0 0 0 0 0 0 0 0 0 0 0 
0 0 0 0 0 0 0 0 0 0 0 0 0 0 0 0 0 0 0 0 0 0 0 0 
0 0 0 0 0 0 
0 0 0 0 0 0 0 0 0 0 0 0 0 0 0 0 0 0 0 0 0 0 0 0 
0 0 0 0 0 0 0 0 0 0 0 0 0 0 0 0 0 0 0 0 0 0 0 0 
0 0 0 0 0 0 0 0 0 0 0 0 0 0 0 127 42 44 246 79 82 245 77 81 
224 72 75 32 30 30 31 31 31 31 31 31 30 30 30 30 30 30 31 31 31 19 19 19 
7 7 7 7 7 7 7 7 7 7 7 7 8 8 8 7 7 7 8 8 8 9 9 9 
8 8 8 9 9 9 8 8 8 8 8 8 8 8 8 9 9 9 8 8 8 9 9 9 
9 9 9 10 10 10 9 9 9 9 9 9 10 10 10 10 10 10 10 10 10 10 10 10 
10 11 11 11 11 11 10 10 10 11 11 11 11 11 11 11 12 12 12 12 12 12 12 12 
12 12 12 12 12 12 12 13 13 12 13 13 13 13 13 14 14 14 14 14 14 15 15 15 
15 15 15 17 17 17 17 17 17 16 16 17 18 18 18 18 18 18 18 19 19 19 19 19 
19 20 20 21 22 22 21 22 22 23 23 23 23 23 24 24 25 25 25 26 26 26 26 27 
27 27 28 29 29 30 29 30 30 31 31 32 31 31 32 32 33 34 34 34 36 36 36 36 
36 37 38 37 38 39 40 40 40 40 41 42 42 43 44 43 43 45 46 46 47 46 47 47 
49 49 50 50 50 51 52 53 54 51 53 53 55 55 58 56 57 58 59 59 61 60 61 61 
62 63 64 63 65 66 66 67 68 68 69 69 69 70 72 73 74 75 74 75 76 76 78 79 
78 80 82 82 83 85 83 83 85 87 88 90 88 89 90 92 93 95 92 94 95 97 99 101 
97 99 101 102 103 106 98 100 102 99 101 101 94 96 98 92 93 95 89 90 92 86 88 90 
85 86 88 82 84 85 80 82 84 77 77 80 76 77 79 73 74 75 72 72 74 69 69 71 
69 69 70 65 66 67 63 64 66 60 61 62 60 60 61 57 58 58 56 57 58 54 55 56 
54 54 55 52 53 53 51 51 53 49 50 51 48 49 49 47 48 49 45 45 47 44 46 47 
44 45 45 46 46 47 43 43 44 44 44 45 43 43 45 42 43 44 41 41 42 41 41 42 
38 39 40 39 39 41 43 43 44 53 53 53 51 52 52 51 51 51 49 50 50 49 49 49 
48 48 48 207 104 108 245 121 125 246 124 127 187 97 99 0 0 0 0 0 0 0 0 0 
0 0 0 0 0 0 0 0 0 0 0 0 0 0 0 0 0 0 0 0 0 0 0 0 
0 0 0 0 0 0 0 0 0 0 0 0 0 0 0 0 0 0 0 0 0 0 0 0 
0 0 0 0 0 0 
0 0 0 0 0 0 0 0 0 0 0 0 0 0 0 0 0 0 0 0 0 0 0 0 
0 0 0 0 0 0 0 0 0 0 0 0 0 0 0 0 0 0 0 0 0 0 0 0 
0 0 0 0 0 0 0 0 0 0 0 0 64 21 23 242 81 85 245 80 84 238 77 81 
61 36 37 28 28 28 28 28 28 28 28 28 29 29 29 29 29 29 20 20 20 4 4 4 
6 6 6 5 5 5 5 5 5 4 4 4 6 6 6 6 6 6 5 5 5 5 5 5 
6 6 6 6 6 6 6 6 6 7 7 7 6 6 6 7 7 7 7 7 7 7 7 7 
7 7 7 8 8 8 8 8 8 9 9 9 8 8 8 8 8 8 8 8 8 8 8 8 
9 9 9 10 10 10 9 9 9 10 10 10 9 9 9 10 10 10 10 10 10 11 11 11 
11 11 11 11 11 11 12 12 12 11 12 12 12 12 12 12 13 13 27 28 28 76 76 76 
104 104 106 123 123 124 138 138 139 142 142 143 150 150 151 154 155 155 155 156 156 159 159 160 
157 157 158 164 164 165 163 164 164 162 163 163 164 165 165 166 166 168 166 167 168 169 170 171 
168 168 168 166 167 167 169 169 171 167 167 168 171 171 172 172 172 173 176 178 178 177 177 179 
175 175 175 180 181 182 180 180 181 176 177 178 177 178 179 179 179 180 184 185 186 186 187 188 
186 187 189 189 189 190 189 189 190 189 190 190 191 192 193 194 194 196 192 192 193 192 192 192 
194 194 194 199 200 201 199 199 200 199 200 200 199 199 200 204 204 205 206 206 207 203 204 204 
208 208 209 208 209 210 207 208 208 210 211 212 215 215 217 213 213 214 218 219 220 216 217 217 
217 219 219 215 216 217 221 221 222 218 219 220 214 214 215 213 213 214 217 218 219 213 213 214 
213 213 214 207 208 209 210 211 211 209 210 210 205 206 207 203 204 204 201 202 202 201 202 203 
204 204 205 197 198 198 193 195 195 194 195 196 192 193 193 191 192 192 189 190 190 191 192 192 
190 190 190 189 189 190 189 190 190 185 186 186 187 188 189 180 181 182 184 184 185 179 180 180 
180 182 182 179 179 179 176 177 177 162 163 163 39 40 41 39 40 41 39 39 40 38 39 39 
36 37 37 37 37 38 35 36 36 41 41 41 49 49 49 49 49 49 48 48 48 46 47 47 
45 45 45 50 45 45 229 110 114 246 118 122 245 120 126 128 65 68 0 0 0 0 0 0 
0 0 0 0 0 0 0 0 0 0 0 0 0 0 0 0 0 0 0 0 0 0 0 0 
0 0 0 0 0 0 0 0 0 0 0 0 0 0 0 0 0 0 0 0 0 0 0 0 
0 0 0 0 0 0 
0 0 0 0 0 0 0 0 0 0 0 0 0 0 0 0 0 0 0 0 0 0 0 0 
0 0 0 0 0 0 0 0 0 0 0 0 0 0 0 0 0 0 0 0 0 0 0 0 
0 0 0 0 0 0 0 0 0 8 3 3 232 81 85 245 84 90 244 82 87 107 48 49 
30 30 30 30 30 30 30 30 30 29 29 29 30 30 30 24 24 24 7 7 7 7 7 7 
7 7 7 7 7 7 5 5 5 7 7 7 8 8 8 7 7 7 7 7 7 8 8 8 
7 7 7 8 8 8 8 8 8 8 8 8 8 8 8 8 8 8 8 8 8 8 8 8 
10 10 10 8 8 8 10 10 10 9 9 9 10 10 10 9 9 9 10 10 10 9 9 9 
10 10 10 10 10 10 10 10 10 10 10 10 10 10 10 10 10 10 11 11 11 11 11 12 
11 11 11 11 12 12 11 12 12 40 40 40 116 116 117 145 145 146 153 153 154 155 155 156 
155 155 156 155 155 155 153 153 155 150 150 151 150 150 151 149 149 150 147 147 148 147 148 149 
148 148 149 149 149 151 150 151 151 151 151 153 152 153 154 153 153 154 156 156 157 156 156 156 
156 156 157 161 161 162 159 159 160 160 160 161 161 161 161 164 165 166 164 164 165 166 167 168 
165 165 166 166 166 167 169 169 170 167 167 168 170 171 172 170 170 170 174 175 175 174 174 175 
177 178 178 180 180 181 180 180 181 180 180 180 185 185 185 182 183 184 189 190 190 188 189 190 
188 189 190 189 189 190 190 190 190 190 190 191 190 190 190 197 197 198 199 199 200 200 201 201 
205 205 207 204 204 204 204 205 206 205 205 206 207 207 208 209 209 209 211 211 212 212 213 213 
206 207 208 209 209 210 209 209 210 212 213 214 209 210 210 211 212 212 213 214 214 208 209 209 
205 206 207 204 205 205 200 200 201 199 199 199 197 197 198 199 199 199 192 192 193 194 194 194 
190 190 191 191 191 192 191 191 191 189 189 190 187 187 188 186 186 187 184 184 185 183 183 183 
180 180 181 179 180 180 175 176 177 176 176 177 174 174 175 174 174 175 175 175 175 172 172 173 
172 172 173 177 177 178 173 173 174 71 71 72 39 40 41 38 39 40 39 39 40 37 38 38 
38 38 39 36 36 37 36 37 37 32 34 34 43 43 43 50 50 50 48 49 49 47 47 47 
46 47 47 45 45 45 78 56 57 239 111 115 246 116 119 242 115 119 47 23 23 0 0 0 
0 0 0 0 0 0 0 0 0 0 0 0 0 0 0 0 0 0 0 0 0 0 0 0 
0 0 0 0 0 0 0 0 0 0 0 0 0 0 0 0 0 0 0 0 0 0 0 0 
0 0 0 0 0 0 
0 0 0 0 0 0 0 0 0 0 0 0 0 0 0 0 0 0 0 0 0 0 0 0 
0 0 0 0 0 0 0 0 0 0 0 0 0 0 0 0 0 0 0 0 0 0 0 0 
0 0 0 0 0 0 0 0 0 189 70 72 247 88 93 245 86 91 168 65 69 31 31 31 
30 30 30 29 29 29 30 30 30 30 30 30 29 29 29 7 7 7 7 7 7 7 7 7 
6 6 6 6 6 6 6 6 6 7 7 7 7 7 7 7 7 7 8 8 8 8 8 9 
7 7 7 7 7 7 8 8 8 9 9 9 8 8 8 9 9 9 8 8 8 9 9 9 
9 9 9 9 9 9 10 10 10 9 9 9 9 10 9 9 9 9 9 9 9 11 11 11 
10 10 10 10 10 10 9 9 9 10 10 10 11 11 11 10 10 10 11 11 11 10 11 11 
11 11 11 58 58 58 136 136 137 154 154 155 155 155 156 150 150 151 140 140 141 133 133 135 
130 130 132 125 125 126 123 123 124 120 121 122 122 122 124 123 124 125 124 125 126 126 126 127 
128 129 130 129 129 130 128 129 129 133 133 134 131 131 132 134 134 135 133 133 135 135 136 137 
139 140 141 138 139 140 140 140 141 139 140 141 143 143 144 147 147 148 144 144 145 145 145 146 
148 149 150 153 153 154 151 152 153 158 158 160 155 156 156 158 158 159 159 159 160 161 161 162 
161 161 162 164 165 165 166 166 167 169 170 171 172 173 174 174 174 176 171 171 171 180 180 181 
176 176 177 186 187 188 177 178 179 180 180 180 184 184 185 190 190 191 183 183 184 193 193 194 
197 198 198 196 196 197 194 195 195 197 197 198 200 200 202 207 208 208 206 207 208 202 203 203 
205 206 206 203 204 204 201 202 202 196 196 197 201 202 202 201 201 202 197 198 198 193 193 194 
197 198 198 195 196 196 193 193 194 187 187 187 189 190 190 190 191 191 180 181 182 181 181 181 
171 171 172 175 175 176 173 173 174 175 175 175 168 169 169 172 172 173 172 173 173 170 170 171 
169 169 169 164 164 165 161 162 162 161 161 162 159 159 159 159 159 160 158 158 158 157 157 158 
170 170 170 176 176 176 119 119 119 39 39 40 37 37 38 38 38 40 38 38 39 38 38 39 
36 37 38 36 36 38 34 35 35 33 34 34 33 33 33 46 46 46 48 48 48 48 48 48 
47 47 47 46 46 46 45 45 45 131 70 74 245 109 115 246 112 116 225 106 109 0 0 0 
0 0 0 0 0 0 0 0 0 0 0 0 0 0 0 0 0 0 0 0 0 0 0 0 
0 0 0 0 0 0 0 0 0 0 0 0 0 0 0 0 0 0 0 0 0 0 0 0 
0 0 0 0 0 0 
0 0 0 0 0 0 0 0 0 0 0 0 0 0 0 0 0 0 0 0 0 0 0 0 
0 0 0 0 0 0 0 0 0 0 0 0 0 0 0 0 0 0 0 0 0 0 0 0 
0 0 0 0 0 0 106 40 42 245 92 95 246 90 93 218 83 85 29 29 29 29 29 29 
30 30 30 30 30 30 29 29 29 28 28 28 7 7 7 5 5 5 5 5 5 5 5 5 
6 6 6 5 5 5 5 5 5 6 6 6 6 6 6 6 6 6 7 7 7 6 6 6 
5 5 5 6 6 6 8 8 8 8 8 8 7 7 7 7 7 7 8 8 8 8 8 8 
8 8 8 9 9 9 9 9 9 8 8 8 9 9 9 9 9 9 9 9 9 10 10 10 
9 9 9 9 9 9 9 9 9 10 10 10 10 10 10 9 9 9 9 9 9 37 37 37 
139 140 141 164 164 164 162 162 163 149 149 150 137 138 139 128 129 130 129 129 131 130 130 131 
132 132 134 133 133 135 136 136 137 132 133 134 133 134 135 137 138 139 136 137 138 139 139 141 
137 138 139 140 141 141 140 141 142 140 141 142 145 145 147 144 145 146 149 150 151 151 152 153 
151 151 152 154 154 156 155 155 156 154 154 156 155 156 157 159 159 161 158 159 161 161 161 162 
162 163 164 170 170 172 166 166 167 168 169 170 169 170 171 172 173 174 174 174 176 176 177 178 
174 175 176 171 172 173 182 183 184 179 180 181 185 186 186 185 186 187 188 189 190 188 189 190 
190 191 192 194 195 195 195 195 197 201 202 202 200 201 202 201 202 203 203 204 204 203 204 205 
205 206 207 213 214 216 212 213 215 215 216 217 217 218 219 219 220 221 216 217 218 223 225 226 
221 222 223 215 216 217 218 219 220 213 213 214 218 219 220 209 210 211 212 213 214 210 211 212 
209 210 211 210 210 212 204 205 206 198 199 200 199 201 201 197 198 198 197 199 199 198 198 199 
189 190 191 187 188 188 188 189 189 188 188 190 176 177 177 183 184 185 183 184 184 180 180 182 
176 177 177 175 176 177 173 174 174 172 173 173 172 172 173 168 169 170 171 171 172 173 174 174 
185 185 186 160 160 160 36 37 38 36 37 38 36 37 37 37 37 38 36 37 37 37 37 38 
36 36 37 35 36 37 33 34 34 32 33 33 30 31 31 32 32 32 46 47 47 46 47 47 
45 45 45 45 45 45 44 44 45 44 44 44 198 91 93 245 107 111 245 109 115 175 81 84 
0 0 0 0 0 0 0 0 0 0 0 0 0 0 0 0 0 0 0 0 0 0 0 0 
0 0 0 0 0 0 0 0 0 0 0 0 0 0 0 0 0 0 0 0 0 0 0 0 
0 0 0 0 0 0 
0 0 0 0 0 0 0 0 0 0 0 0 0 0 0 0 0 0 0 0 0 0 0 0 
0 0 0 0 0 0 0 0 0 0 0 0 0 0 0 0 0 0 0 0 0 0 0 0 
0 0 0 28 11 11 238 93 97 245 93 96 238 91 94 60 36 37 29 29 29 27 27 27 
28 28 28 29 29 29 28 28 28 14 14 14 4 4 4 5 5 5 5 5 5 5 5 5 
4 4 4 4 4 4 6 6 6 6 6 6 5 5 5 5 5 5 5 5 6 5 5 5 
4 4 4 7 7 7 7 7 7 7 7 7 7 7 7 7 7 7 7 7 7 8 8 8 
7 7 7 9 9 9 8 8 8 8 8 8 9 9 9 8 8 8 9 10 10 9 9 9 
8 8 8 8 8 8 9 9 9 8 8 8 9 9 9 8 8 8 98 99 99 156 157 157 
160 160 161 150 151 152 133 133 135 124 124 125 126 126 128 124 124 125 128 128 129 125 125 127 
132 133 134 130 130 131 131 132 132 130 131 132 129 130 130 135 135 136 133 134 135 133 134 134 
137 137 138 137 138 139 143 144 144 141 142 143 140 141 142 143 144 145 143 143 144 145 145 146 
144 145 146 146 147 148 153 154 155 158 158 160 155 156 157 156 156 157 152 152 153 158 158 159 
157 158 159 165 167 168 163 164 165 164 165 165 166 167 168 165 167 167 170 170 172 172 172 174 
177 178 178 177 177 179 178 179 180 179 180 181 181 182 183 180 181 182 187 187 189 184 185 186 
189 190 191 192 193 194 194 195 197 196 198 198 196 196 197 195 196 197 202 202 203 202 202 204 
208 209 210 216 217 218 212 213 214 218 220 220 216 218 218 215 216 217 217 218 219 210 211 212 
216 217 218 209 210 211 215 216 216 207 208 208 210 210 211 211 212 213 206 207 208 205 206 207 
207 208 208 199 200 201 201 201 202 201 202 203 194 195 195 189 190 190 192 192 193 188 188 190 
189 190 190 185 186 187 184 185 185 183 183 185 175 176 176 178 179 179 180 180 181 169 171 171 
175 176 177 171 172 172 169 169 170 165 165 165 168 169 170 165 165 165 165 165 166 182 182 183 
176 176 177 50 50 51 35 36 37 34 35 36 35 35 36 34 35 36 36 37 38 34 35 35 
34 35 36 32 32 33 33 34 34 30 32 32 30 31 31 29 30 31 30 31 31 45 45 45 
44 44 44 44 44 44 43 43 43 42 42 42 47 41 41 232 99 103 246 104 109 243 105 110 
85 39 40 0 0 0 0 0 0 0 0 0 0 0 0 0 0 0 0 0 0 0 0 0 
0 0 0 0 0 0 0 0 0 0 0 0 0 0 0 0 0 0 0 0 0 0 0 0 
0 0 0 0 0 0 
0 0 0 0 0 0 0 0 0 0 0 0 0 0 0 0 0 0 0 0 0 0 0 0 
0 0 0 0 0 0 0 0 0 0 0 0 0 0 0 0 0 0 0 0 0 0 0 0 
0 0 0 206 83 86 246 97 102 245 96 100 131 60 62 28 28 28 29 29 29 28 28 28 
28 28 28 28 28 28 20 20 20 4 4 4 4 4 4 4 4 4 4 4 4 4 4 4 
4 4 4 5 5 5 5 5 5 5 5 5 5 5 5 5 5 5 4 4 4 5 5 5 
5 5 5 6 6 6 6 6 6 6 6 6 6 6 6 7 7 7 6 6 6 8 8 8 
7 7 7 7 7 7 6 6 6 9 9 9 9 9 9 7 8 8 9 9 9 8 8 8 
7 7 7 8 8 8 7 7 7 8 8 8 17 17 18 132 133 133 159 160 161 157 157 158 
138 138 139 126 126 128 128 128 129 129 129 131 128 128 130 126 126 128 126 126 127 128 128 130 
128 128 130 128 128 130 126 127 128 129 130 131 130 131 132 132 133 134 132 132 134 134 135 136 
134 134 135 139 139 141 139 139 140 141 141 143 139 140 141 144 144 145 143 144 145 149 149 150 
148 149 150 148 148 149 148 148 149 150 150 151 151 151 152 154 155 156 155 156 157 157 158 160 
159 159 160 159 159 161 160 160 161 167 167 168 167 167 168 164 165 166 174 175 176 171 172 173 
172 173 173 176 176 177 178 178 179 173 174 174 178 178 179 180 181 181 185 186 187 185 186 187 
188 189 190 188 189 190 191 191 192 196 196 198 197 198 199 192 193 194 201 202 203 201 202 202 
204 206 207 203 204 205 206 207 208 213 214 214 210 211 212 213 214 215 215 216 217 216 217 217 
213 214 215 212 213 213 213 214 214 207 208 208 208 209 210 204 204 205 199 199 200 196 196 197 
196 196 197 192 192 192 191 191 193 191 191 192 190 191 191 192 193 194 183 184 184 183 184 185 
182 182 183 184 185 185 177 177 178 178 179 179 178 179 180 171 171 172 172 173 174 170 170 170 
167 168 169 167 167 167 162 162 163 165 166 166 160 161 162 165 165 166 177 178 179 184 185 185 
92 93 93 34 35 36 34 34 34 34 34 35 34 34 35 35 36 36 34 35 36 33 33 34 
32 33 35 31 32 32 31 32 32 29 30 30 31 31 31 28 29 29 27 28 28 34 34 34 
43 43 43 44 44 44 44 44 44 42 42 42 41 41 41 93 53 54 242 100 104 246 102 107 
232 99 103 0 0 0 0 0 0 0 0 0 0 0 0 0 0 0 0 0 0 0 0 0 
0 0 0 0 0 0 0 0 0 0 0 0 0 0 0 0 0 0 0 0 0 0 0 0 
0 0 0 0 0 0 
0 0 0 0 0 0 0 0 0 0 0 0 0 0 0 0 0 0 0 0 0 0 0 0 
0 0 0 0 0 0 0 0 0 0 0 0 0 0 0 0 0 0 0 0 0 0 0 0 
109 46 47 246 102 105 244 100 103 204 85 88 27 27 27 26 26 26 27 27 27 27 27 27 
28 28 28 25 25 25 4 4 4 3 3 3 3 3 3 3 3 3 4 4 4 3 3 3 
3 3 3 3 3 3 4 4 4 4 4 4 4 4 4 4 4 4 4 4 4 4 4 4 
5 5 5 5 5 5 4 4 4 4 4 4 6 6 6 6 6 7 6 6 6 6 6 6 
7 7 7 6 6 6 5 5 5 6 6 6 7 7 7 7 7 7 7 7 7 7 7 7 
6 6 6 6 6 6 7 7 7 29 29 29 153 153 153 162 162 164 150 150 152 132 132 134 
136 136 137 130 130 131 131 131 133 134 134 136 135 135 137 133 133 135 139 139 141 137 137 139 
137 138 139 137 138 139 135 135 137 139 140 141 141 142 143 136 138 138 140 141 142 143 144 145 
146 147 148 148 148 150 143 144 145 151 152 153 151 152 153 150 150 151 152 152 154 157 158 159 
156 156 157 159 160 161 160 160 162 159 161 162 161 162 163 164 164 165 166 166 167 165 165 167 
169 170 171 169 169 171 171 172 174 178 179 180 178 179 180 181 182 184 177 178 180 178 178 180 
183 183 185 181 182 182 189 190 191 189 190 191 192 193 194 189 190 191 199 200 200 195 196 197 
199 199 200 201 202 203 209 210 211 204 205 206 209 211 211 210 211 212 212 213 214 213 214 215 
214 215 216 219 220 221 220 222 223 222 223 225 225 227 228 227 228 229 220 221 222 223 224 225 
227 228 229 230 231 232 222 223 223 213 214 215 214 215 216 212 212 213 211 212 213 211 212 213 
210 211 212 204 205 206 205 206 206 207 208 209 201 202 202 199 200 200 196 197 197 194 194 195 
189 189 191 191 192 193 190 191 192 184 185 185 189 190 191 182 182 183 178 179 180 177 177 178 
181 182 182 178 179 180 177 178 179 172 173 174 175 176 177 184 185 186 192 194 194 147 147 148 
32 32 33 33 33 34 32 33 33 33 33 34 32 33 33 34 34 34 33 33 33 33 33 34 
30 30 31 30 31 31 29 30 30 29 30 30 27 28 28 27 28 28 26 27 27 26 26 26 
37 37 37 42 42 42 40 40 40 40 40 40 40 40 40 39 39 39 172 74 79 245 97 103 
245 100 104 179 75 79 0 0 0 0 0 0 0 0 0 0 0 0 0 0 0 0 0 0 
0 0 0 0 0 0 0 0 0 0 0 0 0 0 0 0 0 0 0 0 0 0 0 0 
0 0 0 0 0 0 
0 0 0 0 0 0 0 0 0 0 0 0 0 0 0 0 0 0 0 0 0 0 0 0 
0 0 0 0 0 0 0 0 0 0 0 0 0 0 0 0 0 0 0 0 0 14 6 6 
236 102 105 245 104 106 237 100 102 49 35 36 30 30 30 30 30 30 29 29 29 28 28 28 
29 29 29 10 10 10 6 6 6 5 5 5 6 6 6 5 5 5 6 6 6 5 5 5 
5 5 5 6 6 6 6 6 6 7 7 7 6 6 6 7 7 7 7 7 7 7 7 7 
7 7 7 7 7 7 7 7 7 7 7 7 7 7 7 8 8 8 8 8 8 8 8 8 
7 7 7 7 7 7 9 9 9 9 9 9 7 8 8 9 9 9 8 8 8 8 8 8 
8 8 8 8 8 8 41 41 41 153 154 154 161 161 162 141 141 143 129 129 131 125 125 127 
131 131 132 129 130 131 129 129 131 133 134 135 131 131 133 130 130 131 128 128 130 127 127 129 
129 129 131 131 132 132 131 132 133 139 140 141 135 136 137 135 135 136 141 142 143 144 145 146 
140 141 142 140 140 141 144 144 146 145 146 147 151 151 153 152 153 154 149 149 150 155 156 158 
155 155 156 152 152 154 156 157 158 161 161 162 159 160 161 166 167 168 161 162 163 165 166 167 
169 170 171 172 172 174 171 172 173 167 167 169 177 177 179 178 179 179 174 175 176 177 179 179 
178 179 180 179 180 181 187 187 188 185 185 187 185 186 186 192 193 194 194 195 196 196 196 198 
194 195 196 199 200 201 199 200 201 200 201 202 205 206 207 204 205 205 211 212 213 213 214 215 
216 218 219 210 211 212 216 217 219 215 216 217 218 219 220 220 221 222 216 216 217 218 219 220 
222 223 224 218 218 219 220 221 222 218 219 219 217 218 219 211 211 212 205 206 206 205 205 206 
209 209 210 196 197 197 197 197 198 197 197 198 200 200 202 193 193 194 186 187 188 196 197 197 
190 191 192 186 186 187 185 186 187 182 182 183 185 185 186 177 178 179 175 176 176 176 176 177 
180 181 181 174 174 175 173 174 174 167 168 169 172 173 173 186 186 186 175 175 176 36 36 36 
34 34 35 34 34 34 34 34 35 33 33 34 35 36 36 35 35 35 35 36 36 32 33 35 
32 32 32 32 33 33 30 31 31 29 29 29 27 28 28 28 29 29 27 28 28 28 28 28 
24 25 25 43 43 43 42 42 42 42 42 42 41 41 41 40 40 40 40 40 40 229 88 94 
246 94 100 243 96 101 64 27 28 0 0 0 0 0 0 0 0 0 0 0 0 0 0 0 
0 0 0 0 0 0 0 0 0 0 0 0 0 0 0 0 0 0 0 0 0 0 0 0 
0 0 0 0 0 0 
0 0 0 0 0 0 0 0 0 0 0 0 0 0 0 0 0 0 0 0 0 0 0 0 
0 0 0 0 0 0 0 0 0 0 0 0 0 0 0 0 0 0 0 0 0 190 85 88 
246 108 111 245 106 109 142 69 70 30 30 30 29 29 29 29 29 29 31 31 31 31 31 31 
17 17 17 6 6 6 7 7 7 7 7 7 7 7 7 7 7 7 7 7 7 8 8 8 
7 7 7 8 8 8 8 8 8 8 8 8 8 8 8 7 7 7 8 8 8 8 8 8 
9 9 9 9 9 9 9 9 9 8 8 8 10 10 10 9 9 9 10 10 10 8 8 8 
9 9 9 9 9 9 10 10 10 9 9 9 8 9 9 9 9 9 9 9 9 9 9 9 
9 9 9 34 34 35 147 147 149 155 155 156 136 136 138 123 123 125 124 124 125 124 124 125 
124 124 126 124 124 126 125 125 127 127 127 129 123 123 125 126 126 127 129 129 130 125 125 126 
122 123 124 125 125 126 132 133 134 131 131 132 130 131 131 129 129 129 133 133 135 137 138 139 
136 136 138 134 135 136 134 134 135 141 142 143 139 139 140 142 143 144 144 144 145 145 145 146 
148 149 150 146 146 147 145 146 147 150 150 151 150 151 152 149 149 150 153 153 154 158 158 160 
158 158 160 159 160 161 158 159 160 161 163 163 165 166 167 162 163 164 167 168 169 174 174 175 
176 177 177 174 175 176 171 171 172 175 175 176 178 180 180 187 188 189 188 189 190 184 184 184 
187 188 189 194 195 196 190 190 191 194 194 195 200 201 202 193 195 195 202 203 203 202 203 204 
205 206 207 210 210 211 207 208 209 207 208 209 210 211 211 213 213 215 209 210 210 207 208 209 
211 212 213 208 208 209 206 206 207 204 205 205 201 202 202 200 201 201 200 201 201 197 198 199 
195 195 196 190 191 192 191 192 192 189 189 190 185 186 186 182 182 182 185 185 186 177 178 179 
178 179 179 173 173 174 174 175 175 173 173 174 168 169 169 168 168 170 170 170 171 168 169 170 
160 161 161 167 168 169 165 165 166 161 162 162 180 180 181 181 182 183 68 68 69 33 34 35 
34 34 35 34 34 35 35 35 35 34 35 36 36 37 37 35 35 36 35 36 37 32 33 34 
34 35 35 31 33 33 32 33 33 30 30 31 31 32 32 29 30 30 28 28 28 26 26 26 
25 25 26 28 29 29 44 44 44 43 43 43 43 43 43 42 42 42 41 41 41 99 53 54 
244 91 95 246 92 98 225 87 93 0 0 0 0 0 0 0 0 0 0 0 0 0 0 0 
0 0 0 0 0 0 0 0 0 0 0 0 0 0 0 0 0 0 0 0 0 0 0 0 
0 0 0 0 0 0 
0 0 0 0 0 0 0 0 0 0 0 0 0 0 0 0 0 0 0 0 0 0 0 0 
0 0 0 0 0 0 0 0 0 0 0 0 0 0 0 0 0 0 70 32 33 244 112 114 
245 111 114 214 98 101 28 28 28 29 29 29 30 30 30 30 30 30 29 29 29 25 25 25 
6 6 6 5 5 5 6 6 6 6 6 6 6 6 6 6 6 6 6 6 6 6 6 6 
7 7 7 6 6 6 6 6 6 6 6 6 7 7 7 7 7 7 7 7 7 7 7 7 
7 7 7 8 8 8 7 7 7 7 7 7 8 8 8 8 8 8 8 8 8 8 8 8 
9 9 9 8 8 8 8 8 8 9 9 9 8 8 8 8 8 8 8 8 8 8 8 8 
22 22 22 148 148 148 154 154 155 133 133 134 121 121 123 122 122 124 121 122 123 121 121 123 
121 121 123 122 122 123 122 122 124 122 122 123 122 122 123 123 123 125 122 122 123 122 122 123 
123 123 124 127 127 129 128 129 130 126 126 127 128 128 129 128 128 129 131 131 133 131 131 132 
132 132 133 134 134 135 138 138 139 140 140 142 136 136 137 141 141 142 141 142 143 145 146 147 
142 143 144 142 142 143 148 148 150 152 152 153 149 149 150 149 150 151 150 150 151 152 153 154 
156 156 157 159 160 161 159 159 160 160 160 161 158 158 159 160 160 162 164 165 166 166 166 167 
175 176 176 169 169 170 171 171 172 177 177 178 176 177 178 180 180 181 175 175 176 181 181 181 
179 180 181 182 183 184 187 187 188 183 183 185 190 191 191 190 190 192 196 196 197 199 199 200 
203 203 204 205 206 207 206 207 208 202 203 204 207 207 208 205 205 206 206 207 207 203 203 204 
207 207 208 204 204 205 201 202 202 199 199 200 196 196 197 196 197 197 186 187 187 191 191 192 
181 181 181 184 185 185 185 185 185 185 186 187 180 181 181 174 174 175 178 179 179 172 172 174 
172 173 173 170 170 171 172 172 172 168 169 170 163 163 163 169 170 170 168 168 169 161 162 162 
162 162 163 161 161 161 160 160 161 171 171 171 178 178 179 116 116 117 32 32 33 33 34 34 
33 33 34 34 34 35 33 33 34 35 35 35 34 35 35 34 35 35 33 33 35 32 33 33 
32 32 32 31 32 32 29 30 30 28 29 29 28 29 29 27 28 28 26 27 27 24 24 25 
24 24 25 23 23 23 35 35 35 42 42 42 42 42 42 41 41 41 39 39 39 38 38 38 
188 71 76 245 89 94 245 90 95 141 53 56 0 0 0 0 0 0 0 0 0 0 0 0 
0 0 0 0 0 0 0 0 0 0 0 0 0 0 0 0 0 0 0 0 0 0 0 0 
0 0 0 0 0 0 
0 0 0 0 0 0 0 0 0 0 0 0 0 0 0 0 0 0 0 0 0 0 0 0 
0 0 0 0 0 0 0 0 0 0 0 0 0 0 0 0 0 0 221 106 107 245 115 117 
242 112 114 68 46 46 30 30 30 29 29 29 29 29 29 30 30 30 30 30 30 9 9 9 
6 6 6 6 6 6 6 6 6 6 6 6 6 6 6 6 6 6 6 6 6 7 7 7 
7 7 7 7 7 7 7 7 7 7 7 8 7 7 7 7 7 7 8 8 8 7 7 7 
9 9 9 9 9 9 9 9 9 9 9 9 9 9 9 8 8 8 9 9 9 8 8 8 
9 9 9 9 9 9 10 10 10 8 8 8 9 9 9 8 8 8 8 8 8 13 13 13 
144 144 145 164 164 164 142 142 144 131 131 133 130 130 132 130 130 131 132 132 134 139 140 141 
134 134 136 133 133 135 135 135 137 132 132 134 138 138 140 134 134 136 130 131 132 138 139 140 
139 139 141 136 138 138 138 138 140 139 140 141 139 139 140 135 136 137 143 143 144 143 143 145 
146 147 148 147 147 149 150 151 152 151 151 153 153 154 155 152 153 154 154 155 157 157 158 159 
162 163 164 155 157 158 164 165 166 163 164 165 167 167 169 164 165 166 164 164 165 170 170 171 
169 169 170 174 175 176 176 178 179 179 180 181 175 177 177 181 181 183 180 180 182 181 182 183 
187 188 189 190 190 191 194 195 196 194 196 197 197 198 200 196 197 198 202 203 203 201 201 203 
199 200 201 201 202 204 206 207 208 208 209 210 208 210 211 206 207 207 215 216 217 221 223 224 
216 217 218 223 224 225 224 225 226 222 223 224 223 224 225 215 216 217 224 225 226 220 221 222 
219 220 221 216 217 218 216 217 217 215 216 217 210 211 211 209 210 211 201 202 203 201 202 203 
202 203 205 203 204 205 206 207 208 198 200 201 202 202 203 188 190 190 190 190 191 186 187 187 
181 182 183 190 191 191 186 187 188 182 182 183 182 182 184 176 177 177 179 180 181 170 171 171 
176 176 177 171 171 171 175 177 177 191 191 191 162 163 163 31 32 33 33 34 34 33 33 34 
34 34 35 35 35 35 34 34 35 35 36 36 35 35 36 35 35 36 33 33 34 33 34 34 
31 32 32 32 33 33 30 30 30 29 30 31 27 28 29 29 29 29 26 27 27 25 25 26 
24 24 24 23 23 23 22 22 23 41 41 41 41 41 41 40 40 40 39 39 39 40 40 40 
44 38 38 235 81 87 245 85 92 238 86 91 12 4 5 0 0 0 0 0 0 0 0 0 
0 0 0 0 0 0 0 0 0 0 0 0 0 0 0 0 0 0 0 0 0 0 0 0 
0 0 0 0 0 0 
0 0 0 0 0 0 0 0 0 0 0 0 0 0 0 0 0 0 0 0 0 0 0 0 
0 0 0 0 0 0 0 0 0 0 0 0 0 0 0 121 59 61 245 118 120 245 117 118 
183 90 91 30 30 30 30 30 30 30 30 30 31 31 31 30 30 30 20 20 20 7 7 7 
7 7 7 7 7 7 8 8 8 6 6 6 7 7 7 7 7 7 7 7 7 8 8 8 
8 8 8 9 9 9 8 8 8 8 8 8 9 9 9 8 8 8 8 8 8 8 8 8 
9 9 9 9 9 9 10 10 10 9 9 10 8 8 8 8 8 8 10 10 10 9 9 9 
9 9 9 10 10 10 8 8 8 10 10 10 9 9 9 8 8 8 8 8 8 121 121 122 
158 158 158 140 140 142 122 122 124 123 123 124 122 122 124 122 122 123 129 129 130 125 125 126 
123 123 124 122 122 124 123 123 124 122 122 124 125 125 127 124 124 125 123 124 125 124 125 126 
127 127 129 128 129 130 131 131 132 128 128 130 128 128 129 133 133 134 136 137 138 131 131 133 
136 137 138 135 135 136 137 138 139 141 142 143 139 139 141 142 143 144 145 146 147 143 143 144 
153 153 154 150 151 152 153 153 155 149 149 150 154 155 156 152 152 153 152 153 154 158 158 159 
156 157 157 159 159 160 162 163 164 165 166 167 167 167 169 169 169 169 169 169 170 172 173 173 
177 178 179 178 180 180 177 177 178 172 173 174 184 185 185 183 183 184 185 186 187 193 194 195 
191 193 193 187 188 188 188 188 189 193 194 194 195 196 197 199 200 201 203 204 204 207 208 209 
202 203 203 205 206 207 210 211 212 210 211 211 208 209 209 204 205 205 206 206 207 205 205 206 
202 203 203 203 204 205 202 202 204 193 193 194 196 197 198 194 194 195 189 189 190 191 191 192 
188 188 189 184 184 185 185 186 186 187 187 188 179 180 181 180 180 181 176 176 177 174 175 175 
172 172 173 175 175 176 175 175 176 169 169 170 169 170 171 170 171 171 167 168 168 164 164 165 
161 162 162 164 164 165 180 181 182 176 176 176 48 48 49 32 33 34 35 36 37 33 33 35 
35 36 38 35 35 36 35 36 36 35 35 35 36 36 37 34 35 36 33 34 34 32 33 33 
32 33 33 32 32 32 31 32 33 30 30 30 29 30 30 28 28 28 26 26 26 25 26 26 
25 25 25 23 23 23 22 22 22 28 28 28 42 42 42 41 41 41 40 40 40 39 39 39 
38 38 38 141 59 62 246 81 88 245 83 89 185 66 71 0 0 0 0 0 0 0 0 0 
0 0 0 0 0 0 0 0 0 0 0 0 0 0 0 0 0 0 0 0 0 0 0 0 
0 0 0 0 0 0 
0 0 0 0 0 0 0 0 0 0 0 0 0 0 0 0 0 0 0 0 0 0 0 0 
0 0 0 0 0 0 0 0 0 0 0 0 4 2 2 235 119 121 246 121 124 237 116 118 
36 30 30 28 28 28 28 28 28 28 28 28 28 28 28 26 26 26 4 4 4 4 4 4 
5 5 5 4 4 4 6 6 6 4 4 4 4 4 4 4 4 4 6 6 6 6 6 6 
6 6 6 6 6 6 5 5 5 5 5 5 6 6 6 5 5 5 6 6 6 6 6 6 
6 6 6 6 6 6 7 7 7 7 7 7 7 7 7 7 7 7 7 7 7 7 7 7 
8 8 8 6 6 6 7 7 7 8 8 8 7 7 7 7 7 7 80 80 80 154 154 156 
146 146 147 122 122 124 122 122 123 121 121 123 122 123 124 122 122 123 121 121 122 123 123 125 
122 122 123 122 122 124 123 123 124 122 122 124 122 122 123 124 124 125 123 123 125 126 126 128 
124 125 125 126 127 128 128 129 129 129 129 131 130 131 132 131 131 132 132 133 134 134 134 135 
135 135 137 137 137 138 136 136 137 140 141 142 140 140 141 141 142 143 144 144 145 142 142 143 
146 146 147 147 147 148 148 149 150 151 151 152 147 148 149 150 150 151 152 152 153 156 157 158 
160 161 162 160 160 161 163 163 164 163 164 165 163 163 164 169 170 171 170 170 171 174 174 175 
172 173 173 174 175 176 173 173 173 178 178 179 175 176 177 175 176 176 181 181 182 185 186 186 
184 184 186 194 195 195 190 191 192 189 189 190 192 193 193 199 200 201 201 202 203 203 204 204 
198 199 199 204 205 205 206 207 207 204 205 205 202 202 203 201 201 202 212 213 213 200 200 201 
201 202 202 204 205 205 193 193 194 194 195 195 192 193 193 187 187 187 186 187 187 183 183 184 
185 185 186 182 182 183 178 178 179 177 178 178 173 173 174 178 179 179 172 173 173 174 174 175 
168 169 169 169 169 170 165 166 166 160 160 161 166 166 166 165 165 166 161 162 162 162 162 163 
157 157 157 174 174 175 181 181 182 92 93 93 31 31 32 33 33 34 33 34 34 33 34 35 
32 33 34 35 35 35 33 34 34 34 34 34 34 34 35 32 33 34 31 32 32 30 31 31 
29 30 30 28 29 29 28 29 29 26 27 27 27 28 28 24 24 24 23 23 24 21 22 22 
23 23 23 20 20 21 20 20 20 19 19 19 32 33 33 39 39 39 38 38 38 37 37 37 
37 37 37 36 36 36 224 73 79 246 80 86 244 79 86 51 17 18 0 0 0 0 0 0 
0 0 0 0 0 0 0 0 0 0 0 0 0 0 0 0 0 0 0 0 0 0 0 0 
0 0 0 0 0 0 
0 0 0 0 0 0 0 0 0 0 0 0 0 0 0 0 0 0 0 0 0 0 0 0 
0 0 0 0 0 0 0 0 0 0 0 0 161 84 85 245 126 127 244 125 126 143 79 80 
29 29 29 29 29 29 29 29 29 28 28 28 28 28 28 11 11 11 5 5 5 6 6 6 
5 5 5 5 5 5 6 6 6 5 5 5 5 5 5 5 5 5 7 7 7 7 7 7 
7 7 7 6 6 6 6 6 6 6 6 6 7 7 7 8 8 8 7 7 7 7 7 7 
8 8 8 7 7 7 8 8 8 8 8 8 8 8 8 9 9 9 8 8 8 8 8 8 
8 8 8 8 8 8 8 8 8 8 8 8 7 7 7 32 32 32 158 159 160 161 162 163 
139 140 141 138 138 140 138 138 139 134 134 136 140 141 142 134 134 136 136 136 138 135 135 136 
134 134 136 135 136 137 134 134 136 140 141 142 138 138 140 136 136 138 137 138 139 141 142 143 
139 141 141 143 144 145 141 142 143 142 143 143 142 143 144 145 146 147 149 150 152 149 150 151 
152 152 153 155 156 158 152 152 154 152 153 155 160 160 161 163 164 165 162 163 164 161 162 163 
164 165 166 168 168 170 169 171 171 172 173 174 169 170 171 173 174 175 176 177 178 181 183 185 
173 173 175 180 181 182 177 178 179 183 184 186 182 183 184 188 189 191 192 193 194 195 196 197 
196 198 198 194 195 196 199 200 202 197 198 199 199 200 202 196 197 197 206 207 209 212 213 214 
205 206 207 211 213 214 215 216 217 211 213 214 217 218 220 220 221 222 220 222 223 218 219 220 
221 223 223 226 227 228 224 225 226 224 225 226 224 225 226 222 223 224 228 229 230 222 223 224 
219 220 221 216 217 218 211 212 213 215 216 217 211 212 212 213 214 215 208 209 210 202 202 203 
204 205 206 206 207 207 204 205 206 199 200 200 191 191 192 193 194 195 191 192 193 186 187 188 
191 191 192 184 184 186 185 186 186 181 182 183 181 181 182 183 184 185 178 179 180 179 180 181 
181 181 182 191 192 192 148 148 149 32 33 34 33 33 33 33 34 35 34 35 35 35 35 36 
33 34 35 34 35 35 34 35 35 34 34 35 33 34 34 32 33 33 31 31 31 31 32 32 
30 30 30 30 31 31 28 29 29 28 28 28 27 27 27 25 26 26 24 24 25 22 23 23 
21 21 21 21 21 22 21 21 21 20 20 20 20 20 20 38 38 38 37 37 37 37 37 37 
37 37 37 36 37 37 96 46 50 245 76 81 245 78 83 207 68 72 0 0 0 0 0 0 
0 0 0 0 0 0 0 0 0 0 0 0 0 0 0 0 0 0 0 0 0 0 0 0 
0 0 0 0 0 0 
0 0 0 0 0 0 0 0 0 0 0 0 0 0 0 0 0 0 0 0 0 0 0 0 
0 0 0 0 0 0 0 0 0 8 4 4 238 126 127 245 128 129 227 119 120 31 31 31 
29 29 29 30 30 30 30 30 30 30 30 30 24 24 24 7 7 7 6 6 6 7 7 7 
5 5 5 6 6 6 7 7 7 6 6 6 6 6 6 6 6 6 6 6 6 7 7 7 
7 7 7 7 7 7 7 7 7 7 7 7 7 7 7 8 8 8 7 7 7 8 8 8 
8 8 8 8 8 8 9 9 9 8 8 8 8 8 8 9 9 9 8 8 8 9 9 9 
8 8 8 8 9 9 8 8 8 7 7 8 7 7 7 138 139 139 157 157 158 137 137 138 
128 128 129 126 126 127 127 127 129 126 127 128 128 128 130 128 128 130 126 127 128 125 125 127 
126 126 128 129 129 131 126 126 127 125 126 127 126 127 128 125 125 126 129 130 130 136 137 137 
130 131 132 132 133 134 139 140 141 140 141 141 136 136 137 135 136 136 140 140 141 139 139 141 
140 140 141 147 147 149 142 143 144 146 146 147 149 150 151 151 151 152 154 155 156 156 157 158 
158 159 160 155 156 157 157 157 158 158 159 160 163 163 165 168 169 170 165 165 166 164 165 166 
164 165 166 169 169 171 169 169 170 172 173 174 171 173 173 176 177 178 181 182 183 180 180 182 
187 187 189 182 183 184 189 190 191 187 188 188 187 188 189 193 195 196 194 194 195 194 194 196 
192 193 194 202 203 205 203 204 205 202 203 204 206 207 207 208 210 211 210 211 212 213 214 215 
214 215 216 212 212 213 211 212 213 211 212 213 216 217 218 219 220 221 216 217 217 213 214 214 
202 202 203 211 212 212 202 202 203 200 201 202 202 203 203 199 200 200 189 189 190 196 197 197 
193 193 194 193 194 196 191 192 192 181 181 182 185 186 186 183 183 184 178 179 179 178 179 179 
181 182 182 179 180 181 177 177 178 172 173 174 171 171 173 169 170 171 165 165 166 167 167 168 
182 182 183 174 174 174 37 37 38 33 34 34 35 35 35 34 35 35 36 37 37 35 36 37 
36 36 36 35 36 36 37 37 38 33 34 35 34 35 36 32 34 34 33 34 34 31 32 32 
31 31 31 29 30 30 29 30 30 27 28 28 26 27 27 26 26 27 24 24 24 24 24 24 
21 22 23 22 22 22 21 21 21 20 20 21 19 19 19 29 30 30 39 39 39 37 38 38 
36 36 36 36 36 36 35 35 35 208 65 71 246 74 80 244 75 80 63 20 21 0 0 0 
0 0 0 0 0 0 0 0 0 0 0 0 0 0 0 0 0 0 0 0 0 0 0 0 
0 0 0 0 0 0 
0 0 0 0 0 0 0 0 0 0 0 0 0 0 0 0 0 0 0 0 0 0 0 0 
0 0 0 0 0 0 0 0 0 168 91 91 246 132 133 245 131 131 122 70 70 30 30 30 
30 30 30 30 30 30 28 28 28 27 27 27 6 6 6 6 6 6 6 6 6 6 6 6 
5 5 5 5 5 5 6 6 6 5 5 5 6 6 6 6 6 6 7 7 7 6 6 6 
7 7 7 6 6 6 6 6 6 6 6 6 7 7 7 7 7 7 7 7 7 7 7 7 
6 6 6 9 9 9 8 8 8 7 7 7 8 8 8 7 7 7 8 8 8 8 8 8 
8 8 8 8 8 8 8 8 8 7 7 7 91 91 92 162 162 163 147 147 149 131 131 132 
131 131 132 130 130 132 128 129 130 129 129 131 130 130 131 131 132 133 128 129 130 131 131 132 
132 133 134 132 132 134 128 128 130 129 129 131 129 129 130 131 132 133 131 131 133 132 134 134 
133 134 135 134 136 136 141 142 143 139 140 141 139 140 140 145 146 147 145 146 147 143 143 145 
143 144 145 148 149 150 149 150 151 153 153 154 151 151 153 157 157 158 158 158 159 159 161 162 
163 164 165 164 165 166 159 160 161 165 165 166 164 164 165 175 175 177 167 168 169 169 170 171 
167 168 169 173 174 175 174 176 176 177 178 179 176 177 178 180 181 182 182 182 183 183 184 184 
186 187 188 193 195 196 187 188 188 197 198 199 198 199 200 197 198 199 191 192 193 197 197 199 
199 200 201 205 206 206 206 207 209 211 212 214 207 208 209 213 214 216 216 217 218 217 218 219 
219 220 221 216 217 218 211 212 213 218 219 220 216 217 218 215 216 217 212 213 214 213 213 214 
207 208 209 209 210 210 204 205 205 202 203 204 202 203 204 204 205 205 201 201 202 198 198 200 
191 191 192 186 188 188 187 187 188 189 189 190 194 195 195 185 186 187 179 180 181 181 182 182 
178 178 179 179 180 180 176 177 178 172 173 173 170 171 172 172 173 173 170 170 171 190 190 190 
185 186 186 69 69 70 32 32 33 35 35 35 34 35 35 33 34 35 34 35 35 34 34 35 
35 36 36 36 36 36 35 35 36 33 34 35 33 34 34 32 32 32 31 32 32 30 30 30 
30 31 31 28 29 29 28 29 29 26 27 27 26 26 26 24 24 24 23 24 24 22 22 22 
22 22 22 20 20 20 21 21 21 18 19 19 18 18 18 18 18 18 35 35 35 37 37 37 
36 36 36 35 35 35 34 34 34 69 40 40 243 69 76 245 70 78 213 65 71 0 0 0 
0 0 0 0 0 0 0 0 0 0 0 0 0 0 0 0 0 0 0 0 0 0 0 0 
0 0 0 0 0 0 
0 0 0 0 0 0 0 0 0 0 0 0 0 0 0 0 0 0 0 0 0 0 0 0 
0 0 0 0 0 0 16 9 9 240 135 135 246 136 137 225 124 124 29 29 29 29 29 29 
29 29 29 30 30 30 29 29 29 20 20 20 7 7 7 6 6 6 5 5 5 5 5 5 
5 5 5 6 6 6 5 5 5 6 6 6 5 5 5 6 6 6 6 6 6 7 7 7 
6 6 6 6 6 7 7 7 7 7 7 7 8 8 8 8 8 8 8 8 8 8 8 8 
8 8 8 8 8 8 7 7 7 8 8 8 9 9 9 8 9 9 7 7 7 8 8 8 
8 8 8 8 8 8 8 8 8 24 24 24 157 157 158 161 161 163 132 132 134 137 137 139 
133 133 134 133 133 134 130 130 132 135 136 137 134 134 136 130 130 132 136 136 138 134 134 135 
137 138 139 131 131 133 132 132 134 135 135 136 136 136 138 135 136 137 141 142 143 139 140 141 
139 140 140 143 143 145 145 146 147 145 146 147 152 154 154 147 147 148 151 152 153 153 153 154 
147 147 149 156 156 158 159 159 161 161 163 164 157 158 159 157 158 160 166 167 168 165 167 167 
160 161 162 165 165 167 171 172 173 173 174 175 165 167 167 178 179 180 175 177 178 180 180 182 
180 181 183 178 179 180 183 184 186 188 189 189 184 185 186 186 188 188 187 188 189 188 188 190 
192 193 193 193 194 195 195 196 196 195 196 197 203 204 204 198 199 200 206 207 208 203 204 205 
202 203 205 209 210 211 217 218 220 214 215 216 221 222 223 222 223 224 227 228 230 224 226 227 
224 225 226 225 226 227 217 218 219 227 228 229 221 222 223 222 223 224 221 222 223 215 216 217 
215 217 218 211 212 213 218 219 220 213 214 215 210 211 212 211 212 213 204 205 206 199 200 201 
197 198 199 193 194 195 190 190 192 197 198 198 194 195 197 194 195 195 185 185 187 188 188 189 
186 187 188 185 186 186 185 187 187 183 184 185 175 176 177 178 178 179 188 188 189 197 198 199 
125 125 125 33 33 34 33 34 34 35 35 36 35 35 35 36 36 36 34 35 36 35 35 36 
35 35 35 36 36 37 35 35 36 33 34 35 32 33 33 32 33 33 30 30 30 31 31 31 
29 30 30 29 30 30 27 28 28 27 27 27 25 25 26 25 25 26 22 22 22 22 22 23 
21 22 22 19 20 20 20 20 21 19 19 19 18 19 19 16 17 17 23 24 24 36 36 36 
36 36 37 35 35 35 35 35 35 35 35 35 201 60 63 244 68 75 245 69 77 70 20 22 
0 0 0 0 0 0 0 0 0 0 0 0 0 0 0 0 0 0 0 0 0 0 0 0 
0 0 0 0 0 0 
0 0 0 0 0 0 0 0 0 0 0 0 0 0 0 0 0 0 0 0 0 0 0 0 
0 0 0 0 0 0 170 99 99 246 141 141 246 139 139 115 72 72 30 30 30 29 29 29 
29 29 29 28 28 28 27 27 27 5 5 5 4 4 4 4 4 4 5 5 5 5 5 5 
4 4 4 5 5 5 4 4 4 5 5 5 6 6 6 6 6 6 6 6 6 6 6 6 
6 6 6 5 5 5 6 6 6 7 7 7 7 7 7 6 6 6 6 6 6 7 7 7 
7 7 8 7 7 7 8 8 8 8 8 8 9 9 9 7 8 7 7 7 7 7 7 7 
7 7 7 6 6 6 6 6 6 125 125 125 161 161 162 138 139 140 131 132 133 133 133 135 
128 129 130 133 133 135 130 131 132 129 129 130 127 127 128 133 133 135 129 129 130 129 129 130 
129 130 131 130 130 132 132 132 134 133 134 135 132 132 133 136 136 138 135 136 137 135 135 137 
137 138 139 136 137 137 134 135 135 144 144 145 141 141 143 142 142 143 144 145 146 145 146 147 
151 151 152 153 154 156 154 154 155 155 156 157 160 161 162 154 155 156 157 158 159 158 159 160 
158 159 160 160 160 161 157 158 159 166 167 168 166 167 168 166 166 167 167 167 169 172 173 174 
174 175 176 171 173 173 174 175 176 182 182 184 182 183 184 184 185 186 186 186 187 189 189 191 
191 192 193 192 193 194 196 197 198 195 196 197 200 201 202 200 201 201 202 203 204 199 200 200 
206 207 208 211 213 214 213 215 216 211 212 212 213 214 215 219 220 221 219 220 221 218 219 220 
219 220 221 221 222 223 219 220 221 217 218 219 222 223 223 210 210 211 213 214 215 212 213 214 
206 207 207 205 206 207 209 210 211 200 201 202 201 202 203 198 198 199 192 193 194 193 194 195 
194 195 196 189 190 191 189 190 190 189 189 190 182 183 184 179 180 180 182 182 183 182 182 184 
186 187 187 180 180 181 175 176 176 171 171 172 171 172 172 173 173 175 190 191 191 164 165 165 
34 34 35 33 33 34 35 35 36 35 35 36 34 35 36 34 35 36 37 37 37 35 35 35 
36 36 37 34 34 35 35 35 36 33 34 34 32 33 33 31 32 32 30 30 30 29 30 30 
29 30 30 28 28 28 26 27 27 25 25 25 23 23 24 23 23 23 22 22 22 22 22 23 
21 21 21 21 21 21 19 19 19 18 18 18 18 18 18 17 17 18 15 15 15 33 33 33 
34 35 35 34 34 34 34 35 35 34 34 34 69 38 41 242 65 71 245 67 72 215 61 67 
0 0 0 0 0 0 0 0 0 0 0 0 0 0 0 0 0 0 0 0 0 0 0 0 
0 0 0 0 0 0 
0 0 0 0 0 0 0 0 0 0 0 0 0 0 0 0 0 0 0 0 0 0 0 0 
0 0 0 6 4 4 238 140 140 245 142 142 223 129 129 30 30 30 28 28 28 28 28 28 
29 29 29 29 29 29 18 18 18 4 4 4 5 5 5 5 5 5 6 6 6 5 5 5 
6 6 6 5 5 5 5 5 5 5 5 5 6 6 6 7 7 7 6 6 6 6 6 6 
6 6 6 6 6 6 7 7 7 6 6 6 7 7 7 7 7 7 6 6 6 8 8 8 
8 8 8 6 6 6 7 7 7 8 8 8 8 8 8 8 8 8 7 7 7 7 8 8 
8 8 8 6 6 6 45 45 46 159 159 160 151 151 152 128 128 129 127 127 128 129 129 131 
127 127 128 127 128 129 125 125 127 127 127 128 132 132 134 133 133 134 127 127 129 130 130 131 
128 129 130 128 128 130 131 131 133 130 130 131 132 133 133 132 133 134 132 133 134 137 137 138 
137 138 139 141 142 143 138 138 139 144 146 146 145 146 147 143 144 145 144 145 146 147 148 149 
149 150 151 152 152 154 149 150 151 152 153 154 156 157 158 153 153 154 155 156 157 155 155 156 
159 159 161 161 162 163 164 165 166 161 162 163 166 166 168 170 172 172 172 173 174 167 168 169 
173 174 175 171 171 172 181 182 183 181 181 183 184 184 185 183 183 185 182 183 184 189 190 191 
183 183 185 190 191 191 191 191 193 191 192 192 194 194 196 190 191 192 193 194 195 198 199 201 
203 204 205 206 207 208 210 211 212 210 211 212 215 216 217 217 218 219 214 215 215 216 217 218 
222 223 224 217 218 219 223 224 225 221 222 223 217 218 219 213 214 214 208 208 209 208 209 211 
211 212 213 200 200 201 198 199 199 201 202 203 197 199 199 192 193 193 193 193 194 194 194 195 
190 191 192 193 194 195 186 186 187 184 185 186 184 184 185 181 182 183 180 181 181 178 179 180 
172 173 173 170 171 172 170 171 171 173 174 175 174 174 175 187 188 189 181 182 183 49 50 52 
33 33 34 34 35 35 35 35 36 35 36 36 34 34 35 36 36 37 36 37 37 35 36 36 
36 36 37 34 35 36 33 34 35 31 32 32 32 33 33 30 30 30 31 31 31 29 29 29 
28 29 29 27 28 28 26 26 26 24 24 24 24 24 25 22 22 23 22 22 22 21 21 21 
20 20 20 19 19 20 17 18 18 17 18 18 17 17 18 16 17 17 15 16 16 21 21 21 
35 35 35 35 35 35 35 35 35 33 33 33 33 33 33 199 55 61 246 63 69 245 65 71 
60 18 19 0 0 0 0 0 0 0 0 0 0 0 0 0 0 0 0 0 0 0 0 0 
0 0 0 0 0 0 
0 0 0 0 0 0 0 0 0 0 0 0 0 0 0 0 0 0 0 0 0 0 0 0 
0 0 0 149 86 86 246 143 143 246 144 144 122 77 77 28 28 28 28 28 28 28 28 28 
28 28 28 27 27 27 4 4 4 4 4 4 5 5 5 4 4 4 5 5 5 5 5 5 
4 4 4 5 5 5 4 4 4 5 5 5 5 5 5 6 6 6 6 6 6 5 5 5 
5 5 5 6 6 6 6 6 6 7 7 7 8 8 8 7 7 7 7 7 7 8 8 8 
6 6 6 7 7 7 6 6 6 7 7 7 8 8 8 7 7 7 7 7 7 7 8 8 
7 7 7 6 6 6 137 137 137 158 158 159 130 130 131 127 127 128 125 125 127 127 127 129 
127 127 129 127 127 128 126 126 127 123 124 125 127 127 128 124 124 126 125 126 127 126 127 128 
124 124 126 124 125 126 126 127 128 127 127 129 131 132 133 126 126 127 132 132 133 132 134 134 
136 136 138 134 135 136 136 136 137 138 139 140 143 144 145 140 140 142 141 141 142 143 143 144 
147 148 149 148 149 150 148 149 150 152 152 153 152 152 154 150 151 152 149 149 150 156 157 158 
155 155 156 158 159 160 160 160 162 160 161 161 167 168 169 169 169 171 162 162 163 163 163 165 
169 170 170 172 173 174 171 173 173 171 171 172 178 179 180 174 175 175 178 179 180 185 185 186 
181 181 182 183 184 184 192 193 193 186 187 188 190 190 191 196 197 198 195 196 196 194 195 196 
199 200 200 204 205 206 199 199 200 199 199 201 207 208 209 208 209 210 210 211 211 208 209 209 
209 210 211 209 210 210 218 219 220 210 211 212 206 206 207 204 205 205 202 203 204 200 201 201 
197 198 198 200 201 201 196 196 197 192 192 193 188 188 189 188 189 190 184 184 185 183 184 185 
180 180 180 185 186 187 179 179 180 178 179 180 178 178 179 174 175 175 169 170 170 173 174 175 
167 167 168 166 167 167 165 165 166 164 164 165 182 183 184 188 188 189 94 95 95 33 34 35 
33 33 34 34 35 36 34 35 36 37 37 38 34 35 36 35 35 36 35 35 36 35 35 36 
33 33 34 34 34 36 31 33 33 32 33 33 31 31 31 28 29 29 29 30 31 28 29 29 
27 27 27 26 26 26 24 24 24 23 23 24 23 23 23 21 21 21 21 21 22 20 20 20 
20 20 20 18 18 18 18 18 18 16 16 16 16 16 17 14 14 14 14 15 15 13 14 14 
30 30 30 35 35 35 34 34 34 33 33 33 33 33 33 66 37 38 243 58 66 245 61 68 
200 53 58 0 0 0 0 0 0 0 0 0 0 0 0 0 0 0 0 0 0 0 0 0 
0 0 0 0 0 0 
0 0 0 0 0 0 0 0 0 0 0 0 0 0 0 0 0 0 0 0 0 0 0 0 
0 0 0 232 132 132 245 141 141 231 135 135 29 29 29 29 29 29 29 29 29 30 30 30 
30 30 30 20 20 20 6 6 6 6 6 6 6 6 6 5 5 5 5 5 5 6 6 6 
6 6 6 6 6 6 7 7 7 7 7 7 6 6 6 7 7 7 7 7 7 8 8 8 
7 7 7 7 7 7 8 8 8 8 8 8 8 8 8 8 8 8 8 8 8 9 9 9 
7 7 7 9 9 9 9 9 9 8 8 8 10 10 10 9 9 9 8 8 8 8 8 8 
8 8 8 70 70 70 161 161 161 148 148 149 128 128 130 125 125 127 129 129 130 130 130 131 
128 128 129 127 127 128 127 127 129 131 131 132 127 127 128 130 130 132 130 130 132 130 131 132 
127 127 128 129 129 130 130 130 132 130 131 132 137 137 138 137 138 139 138 139 140 137 138 139 
139 140 140 139 139 141 143 143 144 145 145 147 145 146 147 148 148 149 153 155 156 152 152 154 
152 153 154 148 148 149 150 150 151 157 157 158 156 156 157 159 160 161 161 161 162 163 164 165 
162 162 163 160 161 162 168 169 170 168 168 170 164 165 166 177 177 179 171 173 173 169 169 170 
175 176 177 177 178 179 176 176 177 177 177 178 181 182 183 182 184 184 187 188 189 186 188 188 
192 192 193 190 191 192 195 196 197 198 199 200 198 199 200 198 199 200 202 204 205 203 204 205 
208 209 210 211 212 213 211 212 213 212 213 214 210 211 211 214 215 216 216 218 219 217 218 218 
218 219 220 215 216 217 214 215 216 210 211 212 213 214 214 216 217 218 210 211 212 199 200 200 
201 201 203 200 201 202 199 200 201 192 192 194 193 194 194 191 192 193 188 188 189 192 192 193 
188 189 190 189 189 190 183 183 184 183 184 184 184 185 186 183 184 184 176 176 178 174 174 175 
173 174 175 177 177 178 172 172 173 175 175 175 194 194 194 147 148 149 33 34 35 34 34 35 
36 37 38 35 35 37 37 38 38 36 37 37 37 37 38 37 37 37 37 38 39 37 37 38 
35 36 36 35 35 37 33 34 35 33 34 34 31 32 32 31 32 32 29 30 30 29 30 30 
27 28 28 27 27 27 25 25 26 24 24 25 23 24 24 22 22 22 23 23 23 22 22 22 
20 20 21 21 21 21 19 20 20 18 18 18 18 18 18 16 17 17 15 15 15 14 14 14 
18 19 19 34 34 34 34 34 34 35 35 35 35 35 35 33 33 33 213 53 59 245 57 66 
243 58 66 28 7 8 0 0 0 0 0 0 0 0 0 0 0 0 0 0 0 0 0 0 
0 0 0 0 0 0 
0 0 0 0 0 0 0 0 0 0 0 0 0 0 0 0 0 0 0 0 0 0 0 0 
111 61 61 245 136 136 246 138 138 152 92 92 29 29 29 28 28 28 28 28 28 28 28 28 
27 27 27 5 5 5 5 5 5 4 4 4 5 5 5 5 5 5 4 4 4 4 4 4 
4 4 4 4 4 4 6 6 6 6 6 6 6 6 6 5 5 5 5 5 6 6 6 6 
6 6 6 5 5 5 6 6 6 6 6 6 6 6 6 7 7 7 7 7 7 7 7 7 
7 7 7 8 8 8 6 6 6 8 8 8 8 8 8 6 6 6 6 7 7 7 7 7 
6 6 7 144 144 145 156 156 157 131 132 133 126 126 128 130 130 132 133 133 134 125 125 127 
126 126 127 131 132 133 131 131 133 126 127 128 128 128 130 131 131 133 126 126 128 126 126 128 
129 129 130 133 134 135 131 131 132 133 134 135 136 137 137 136 138 138 136 137 138 144 145 146 
137 138 139 141 142 142 149 150 151 153 153 154 157 158 159 162 162 164 167 167 169 167 167 169 
170 170 171 173 174 175 176 176 177 178 178 179 182 182 182 182 182 183 185 185 186 185 185 186 
184 185 186 188 189 190 192 194 194 193 194 194 193 194 194 192 192 193 194 194 196 194 194 195 
196 197 198 198 199 199 201 202 204 197 197 198 198 199 200 201 202 203 199 200 201 201 201 202 
200 201 201 199 200 201 206 207 208 201 202 203 201 202 204 206 207 208 201 201 203 212 213 214 
212 213 214 210 211 212 215 217 218 216 217 218 215 216 218 219 220 221 216 217 218 221 222 223 
229 231 232 220 220 221 217 218 219 217 218 219 213 214 216 215 216 217 212 213 214 206 207 208 
206 206 207 203 204 205 205 206 207 203 203 204 196 197 198 195 195 196 197 198 199 194 195 196 
188 188 190 182 183 183 183 183 184 187 188 188 182 183 184 180 180 181 174 175 176 179 179 180 
173 174 175 174 174 175 173 174 174 191 191 192 181 181 181 37 38 38 32 33 34 35 35 36 
36 37 38 35 35 36 36 36 37 36 36 37 35 35 36 36 37 37 36 37 37 35 35 36 
35 36 37 32 33 34 32 33 33 30 31 31 31 32 32 29 30 30 28 29 29 27 28 28 
27 27 27 25 25 25 24 24 25 21 22 22 20 20 20 21 21 22 20 20 20 20 20 20 
19 19 19 18 18 18 17 17 17 16 16 16 15 15 15 15 15 15 13 13 13 14 14 14 
12 13 12 30 30 30 33 33 33 33 33 33 32 32 32 31 31 31 97 38 38 246 56 62 
244 56 64 180 44 50 0 0 0 0 0 0 0 0 0 0 0 0 0 0 0 0 0 0 
0 0 0 0 0 0 
0 0 0 0 0 0 0 0 0 0 0 0 0 0 0 0 0 0 0 0 0 0 0 0 
217 117 118 245 132 133 238 131 132 35 29 29 29 29 29 30 30 30 30 30 30 30 30 30 
20 20 20 6 6 6 5 5 5 6 6 6 6 6 6 6 6 6 6 6 6 6 6 6 
7 7 7 6 6 6 8 8 8 7 7 7 7 7 7 7 7 7 6 6 6 6 6 6 
8 8 8 7 7 7 8 8 8 8 8 8 8 8 8 8 8 8 9 9 9 9 9 9 
7 7 7 9 9 9 8 8 8 9 9 9 9 9 9 8 9 9 8 8 8 8 8 8 
77 77 77 158 158 159 145 146 147 130 131 132 124 124 126 125 125 127 131 131 132 129 130 131 
131 131 132 135 135 137 127 127 129 130 130 131 126 126 128 126 126 127 128 128 130 133 133 135 
128 128 130 131 132 133 137 138 139 142 142 143 150 151 152 154 154 155 157 158 159 163 163 164 
164 164 165 169 169 170 170 170 171 169 170 170 172 173 173 173 173 174 176 176 177 170 170 171 
174 174 175 166 166 167 163 163 164 158 158 160 154 155 156 150 150 151 148 149 149 146 146 146 
145 145 146 146 147 148 147 148 148 147 147 149 152 152 153 154 154 154 159 160 161 163 165 166 
170 171 172 181 181 182 184 185 186 190 191 191 194 194 196 197 197 198 204 204 204 209 210 211 
209 210 211 213 214 215 212 213 214 212 212 212 215 215 217 218 218 219 215 216 216 219 220 221 
216 216 218 218 219 219 214 215 216 218 219 220 218 219 220 218 219 220 219 220 221 215 216 217 
215 216 216 217 217 218 216 217 218 213 214 215 204 205 205 206 207 208 207 207 208 212 213 214 
202 203 204 200 201 203 199 199 201 194 194 195 196 197 198 193 193 194 187 188 189 188 189 189 
191 193 194 182 183 183 178 179 180 181 181 182 181 182 182 176 177 178 179 180 180 176 176 178 
169 170 170 171 171 173 188 189 189 188 188 189 72 72 74 35 36 36 35 36 36 37 38 38 
37 38 39 38 38 39 37 37 39 39 39 39 35 36 37 38 38 38 37 37 38 37 37 38 
36 36 38 34 35 35 32 32 32 30 31 31 31 32 32 30 30 30 29 30 30 27 28 28 
28 28 28 24 24 25 24 24 25 23 23 23 23 23 23 22 22 22 22 23 23 20 20 21 
20 20 20 19 19 19 18 18 18 17 17 17 16 16 17 15 15 16 15 16 16 15 15 15 
13 13 13 20 20 20 35 35 35 34 34 34 34 34 34 34 34 34 33 33 33 224 51 57 
246 54 61 237 53 61 0 0 0 0 0 0 0 0 0 0 0 0 0 0 0 0 0 0 
0 0 0 0 0 0 
0 0 0 0 0 0 0 0 0 0 0 0 0 0 0 0 0 0 0 0 0 42 22 22 
244 128 129 245 130 130 186 103 104 29 29 29 29 29 29 28 28 28 28 28 28 28 28 28 
6 6 6 5 5 5 3 3 3 4 4 4 5 5 5 5 5 5 5 5 5 5 5 5 
5 5 5 5 5 5 5 5 5 5 5 5 6 6 6 5 5 5 4 4 4 7 7 7 
5 5 5 6 6 6 6 6 6 6 6 6 7 7 7 7 8 8 7 7 7 7 7 7 
7 7 7 7 7 7 8 8 8 8 8 8 7 7 7 7 8 8 8 8 8 7 7 7 
149 149 149 159 159 159 133 133 134 130 130 131 125 126 127 128 129 130 131 132 133 125 126 127 
125 126 127 131 131 132 130 130 131 134 135 136 141 141 142 141 141 142 147 147 149 154 154 155 
163 164 165 161 161 161 164 165 166 162 162 164 162 163 164 161 161 162 159 160 160 153 153 153 
150 150 150 135 136 136 122 122 123 107 108 108 83 84 85 62 62 62 32 32 33 24 25 25 
24 25 25 26 26 27 27 27 28 29 29 30 29 30 30 31 32 32 32 32 32 33 34 34 
34 34 35 36 37 37 37 37 38 39 39 39 39 40 41 40 41 42 43 43 43 43 43 44 
45 45 45 45 45 46 48 48 49 47 48 49 50 50 51 47 48 50 50 51 52 56 57 58 
80 80 81 105 105 106 123 124 124 140 141 141 160 160 161 174 175 176 187 187 188 211 211 212 
224 224 225 216 217 218 216 217 218 216 218 219 224 225 226 221 222 223 218 219 220 221 222 223 
220 221 222 216 217 218 213 214 214 212 213 214 204 205 205 207 207 209 207 208 209 202 202 204 
201 202 203 196 197 197 199 200 200 199 200 201 196 196 197 187 188 188 191 191 192 191 191 193 
188 189 189 178 178 180 182 183 183 178 179 180 178 178 179 176 176 177 176 177 177 174 175 175 
172 172 173 184 185 186 187 188 188 121 121 121 34 35 35 35 35 36 36 36 37 36 37 38 
37 38 38 37 37 38 38 38 38 37 37 37 36 37 37 36 37 37 35 36 36 35 36 37 
33 34 35 33 34 34 30 30 31 31 32 32 29 30 30 28 29 29 27 28 28 27 28 28 
24 24 24 23 23 24 22 23 23 22 22 22 20 20 21 20 20 21 19 19 19 19 20 20 
18 18 18 17 17 17 16 16 17 15 15 15 13 15 15 13 13 14 14 14 14 13 13 13 
12 12 12 12 12 12 30 30 30 31 31 31 32 32 33 33 33 33 31 31 31 141 41 44 
245 51 58 244 52 59 127 30 33 0 0 0 0 0 0 0 0 0 0 0 0 0 0 0 
0 0 0 0 0 0 
0 0 0 0 0 0 0 0 0 0 0 0 0 0 0 0 0 0 0 0 0 179 92 93 
246 127 128 243 127 128 67 47 47 28 28 28 29 29 29 31 31 31 30 30 30 22 22 22 
6 6 6 5 5 5 5 5 5 6 6 6 6 6 6 6 6 6 6 6 6 6 6 6 
5 5 5 6 6 6 7 7 7 6 6 6 7 7 7 7 7 7 7 7 7 7 7 7 
7 7 7 8 8 8 7 7 7 7 7 7 8 8 8 8 8 8 9 9 9 8 8 8 
8 8 8 9 9 9 10 10 10 8 8 8 9 9 9 9 9 9 8 8 8 74 74 74 
158 158 159 142 142 144 123 123 124 126 126 128 126 126 127 123 123 124 124 124 126 134 134 136 
143 143 144 148 149 150 155 155 157 157 157 158 157 157 158 161 161 162 156 156 156 148 148 150 
138 138 139 125 125 126 101 101 102 74 74 74 45 46 45 18 19 19 17 18 18 19 20 20 
20 20 20 20 21 21 22 22 22 22 23 23 24 25 25 25 25 25 26 26 27 27 28 28 
29 29 29 30 30 30 31 31 32 32 32 33 33 34 34 34 35 35 36 37 38 37 38 39 
38 39 40 41 41 42 41 42 43 44 44 45 44 44 45 46 47 48 47 47 48 49 50 51 
48 49 50 51 52 53 51 51 53 54 54 55 52 53 54 54 55 57 53 55 56 55 55 56 
54 54 55 53 55 56 53 54 55 52 53 53 51 52 54 51 52 53 116 117 117 215 216 216 
217 217 218 204 205 207 210 211 212 213 214 215 213 214 214 211 212 212 214 215 216 215 216 217 
214 214 215 212 213 214 206 207 207 206 206 207 201 202 202 203 204 204 195 196 197 199 200 200 
197 198 199 193 194 194 194 194 195 190 191 192 187 187 187 186 187 188 182 182 183 185 186 187 
180 180 180 176 178 178 172 173 173 173 174 174 171 172 172 172 173 174 165 165 166 169 169 169 
175 175 176 187 187 188 164 164 165 34 35 35 35 36 37 36 36 36 38 39 40 37 38 39 
39 39 41 37 38 40 39 40 40 37 38 38 38 39 39 36 36 37 37 37 37 35 35 36 
34 35 35 32 33 33 33 33 33 31 31 31 30 31 31 28 29 29 28 29 29 27 27 27 
24 24 25 24 24 25 23 23 23 23 23 23 21 21 21 22 22 22 19 19 19 20 20 20 
19 20 20 18 18 18 18 18 18 16 16 16 14 14 15 15 15 15 14 14 14 14 14 14 
12 12 12 13 13 13 22 22 22 34 34 34 33 33 33 32 32 32 31 31 31 32 32 32 
239 48 55 244 50 57 216 47 52 0 0 0 0 0 0 0 0 0 0 0 0 0 0 0 
0 0 0 0 0 0 
0 0 0 0 0 0 0 0 0 0 0 0 0 0 0 0 0 0 0 0 0 235 117 119 
245 123 125 219 114 114 29 29 29 29 29 29 29 29 29 28 28 28 29 29 29 10 10 10 
5 5 5 5 5 5 5 5 5 5 5 5 5 5 5 5 5 5 5 5 5 5 5 5 
5 5 5 5 5 5 6 6 6 5 5 5 7 7 7 5 5 5 7 7 7 7 7 7 
7 7 7 7 7 7 8 8 8 7 7 7 7 7 8 8 8 8 8 8 8 9 9 9 
8 8 8 7 7 7 9 9 9 8 8 8 8 9 9 9 9 9 7 8 8 144 144 144 
160 160 161 127 127 128 127 127 128 133 133 135 147 147 148 155 155 156 156 156 157 158 158 160 
160 160 161 157 157 158 139 140 141 120 121 121 91 91 92 50 50 50 14 14 14 13 13 14 
13 13 13 15 15 15 15 15 16 16 16 17 17 18 18 17 18 18 19 19 19 20 21 21 
21 21 21 22 23 23 23 23 23 23 23 24 25 25 26 27 27 28 28 29 29 28 28 29 
30 30 31 31 31 32 32 32 33 34 34 35 36 37 38 36 36 37 38 39 40 38 39 40 
41 42 43 43 43 43 44 44 45 44 44 46 48 48 48 48 49 50 49 50 51 51 51 52 
51 53 54 53 54 56 55 56 57 56 57 58 57 57 58 57 57 58 57 57 58 58 59 60 
54 55 57 57 58 59 55 56 56 55 56 57 52 53 55 76 77 77 212 213 214 221 222 223 
212 213 214 208 209 210 211 212 212 215 216 217 213 213 215 209 210 210 215 216 217 209 210 210 
213 214 214 213 214 215 209 210 211 207 208 208 206 207 207 204 204 205 195 196 197 200 200 201 
202 202 204 197 198 199 194 195 195 191 193 193 189 190 190 187 187 188 182 183 183 181 182 182 
181 181 183 176 176 176 179 179 180 177 178 178 174 175 176 173 173 173 172 172 174 173 173 173 
186 187 188 181 181 183 51 52 53 35 35 36 35 36 36 37 38 39 37 38 38 38 38 39 
37 38 38 38 38 39 36 36 37 37 37 38 36 37 37 36 37 38 35 35 36 33 34 35 
31 32 32 30 31 31 31 32 32 30 30 30 29 30 30 27 28 28 26 27 28 25 26 26 
24 24 25 22 23 23 23 23 23 20 21 21 20 20 20 19 19 19 19 20 20 19 19 19 
18 19 19 17 17 18 16 16 16 15 16 16 14 14 14 14 14 14 13 13 13 13 13 13 
12 12 12 11 11 12 10 10 11 32 32 32 33 33 33 32 32 32 31 31 31 31 31 31 
194 42 49 245 47 55 244 47 55 43 11 12 0 0 0 0 0 0 0 0 0 0 0 0 
0 0 0 0 0 0 
0 0 0 0 0 0 0 0 0 0 0 0 0 0 0 0 0 0 108 51 52 246 119 121 
246 120 122 139 73 75 28 28 28 29 29 29 29 29 29 29 29 29 24 24 24 6 6 6 
5 5 5 5 5 5 4 4 4 5 5 5 5 5 5 5 5 5 4 4 4 5 5 5 
6 6 6 6 6 6 6 6 6 6 6 6 5 5 5 5 5 5 5 5 5 7 7 7 
7 7 7 5 5 5 7 7 7 7 7 7 8 8 8 8 8 8 8 8 8 8 8 8 
7 7 7 7 7 7 8 8 8 8 8 8 8 8 8 8 8 8 67 68 68 163 163 164 
157 157 158 154 154 156 164 164 166 161 161 162 164 164 165 152 153 154 129 129 131 94 94 95 
46 46 46 11 11 11 12 12 12 12 12 12 13 13 13 13 13 13 14 14 14 13 13 13 
15 15 16 15 15 16 17 17 17 18 18 19 19 20 20 20 21 21 21 21 21 22 22 22 
22 23 23 23 24 24 25 26 26 27 27 28 28 28 29 29 30 30 29 30 30 31 31 32 
32 32 33 34 34 36 35 35 37 38 38 39 38 39 40 40 40 41 41 41 42 42 43 43 
44 45 47 46 47 47 48 48 49 49 49 50 51 52 52 52 53 54 55 56 57 54 54 56 
57 58 60 56 57 58 60 61 62 59 59 60 61 63 63 60 61 61 62 63 63 60 61 62 
60 62 63 58 60 61 59 60 61 56 57 58 57 58 60 199 199 199 224 225 226 223 224 225 
214 216 217 220 221 222 221 222 223 225 226 227 227 228 229 216 216 217 226 227 228 225 226 227 
220 221 222 211 211 212 218 219 221 218 219 220 212 214 215 213 214 215 206 206 207 203 204 204 
206 207 208 205 205 206 201 202 202 196 197 197 197 198 200 191 192 192 188 188 190 182 183 183 
190 190 192 183 184 184 188 189 190 186 187 188 180 181 182 178 178 180 175 176 176 191 192 193 
193 194 195 99 99 100 35 36 37 36 37 38 36 38 38 36 37 38 38 39 40 39 40 41 
38 38 39 38 39 40 37 37 38 38 39 39 36 37 37 37 37 38 34 35 36 32 33 33 
31 32 32 32 33 33 30 30 30 29 30 30 28 29 29 27 27 27 26 26 26 25 26 26 
24 24 25 22 23 23 21 21 21 20 20 20 21 21 21 19 19 19 18 19 19 17 18 18 
18 18 18 17 18 18 16 16 16 14 14 14 14 15 15 12 13 13 12 12 12 11 11 11 
11 12 12 10 10 10 11 11 11 26 26 26 31 32 32 32 32 32 31 31 31 32 32 32 
75 30 36 244 45 53 245 45 54 178 37 42 0 0 0 0 0 0 0 0 0 0 0 0 
0 0 0 0 0 0 
0 0 0 0 0 0 0 0 0 0 0 0 0 0 0 0 0 0 203 97 97 246 117 119 
240 115 116 33 31 31 31 31 31 30 30 30 31 31 31 30 30 30 18 18 18 8 8 8 
7 7 7 7 7 7 7 7 7 7 7 7 7 7 7 7 7 7 7 7 7 8 8 8 
8 8 8 8 8 8 9 9 9 8 8 8 9 9 9 8 8 8 8 8 8 9 9 9 
9 9 9 9 9 9 10 10 10 9 9 9 10 10 10 9 9 9 9 9 9 9 9 9 
9 9 9 10 10 10 10 10 10 10 11 11 10 10 10 10 10 10 140 140 140 158 158 160 
159 160 161 155 155 156 139 139 140 102 102 103 41 41 41 11 11 11 11 12 12 13 13 13 
13 13 13 14 14 14 14 14 14 14 14 14 15 15 15 16 16 16 16 16 17 17 17 17 
18 19 19 19 19 19 20 20 20 20 21 21 22 22 22 24 24 24 24 25 25 24 25 25 
27 27 27 27 28 28 29 29 30 30 31 31 32 32 33 33 33 34 33 34 34 36 36 37 
36 37 39 39 39 40 39 40 41 42 43 43 43 44 44 45 45 46 45 47 47 48 50 51 
49 50 50 53 53 54 51 52 54 55 56 58 55 56 57 58 58 60 59 60 61 61 62 63 
61 62 63 64 65 66 64 64 65 65 66 67 66 67 69 66 67 68 66 67 68 65 66 67 
65 66 67 62 63 64 63 64 65 58 59 61 164 165 166 217 218 218 216 217 218 214 215 216 
216 217 218 219 220 221 221 222 223 215 216 217 222 224 224 211 212 213 216 217 218 213 214 215 
213 214 215 213 213 214 211 211 212 210 211 212 204 205 206 200 200 201 200 201 202 192 193 194 
198 199 200 196 197 197 190 191 192 188 189 189 187 189 189 187 187 188 188 189 190 181 182 182 
183 185 185 178 178 179 181 181 182 174 175 176 176 177 177 170 170 171 178 179 179 191 191 191 
151 151 152 36 36 37 38 39 39 38 39 39 40 40 41 39 40 40 42 42 43 40 40 41 
41 41 42 40 40 41 40 40 41 39 40 40 39 39 40 37 37 37 36 37 38 34 35 35 
34 35 35 33 34 34 31 32 33 31 32 32 29 30 30 28 29 29 28 28 28 27 27 28 
25 26 26 25 25 26 23 23 24 23 23 23 22 22 22 22 22 22 20 20 20 20 21 21 
19 19 20 19 19 19 17 18 18 16 16 16 15 15 15 15 15 15 15 15 15 13 13 13 
13 13 14 13 13 13 12 12 12 16 16 16 33 33 34 33 33 33 33 33 33 34 34 34 
33 33 33 225 42 50 245 43 52 231 42 50 0 0 0 0 0 0 0 0 0 0 0 0 
0 0 0 0 0 0 
0 0 0 0 0 0 0 0 0 0 0 0 0 0 0 4 2 2 240 110 112 245 114 116 
202 98 99 30 30 30 28 28 28 29 29 29 29 29 29 27 27 27 5 5 5 4 4 4 
4 4 4 5 5 5 5 5 5 5 5 5 4 4 4 5 5 5 5 5 5 6 6 6 
6 6 6 6 6 6 7 7 7 6 6 6 6 6 6 6 6 6 7 7 7 6 6 6 
7 7 7 8 8 8 6 6 6 7 8 8 8 8 8 8 8 8 9 9 9 8 8 8 
8 8 8 8 8 8 9 9 9 9 9 9 8 8 8 55 55 55 155 156 156 131 131 131 
80 80 81 12 12 12 9 9 9 9 10 10 10 10 10 10 10 10 10 11 11 12 12 13 
12 12 12 13 13 13 13 13 13 14 14 14 15 15 15 15 15 15 16 16 16 17 17 17 
17 17 18 19 19 20 20 20 20 20 21 21 22 23 23 22 23 23 24 24 24 25 25 25 
26 27 27 27 28 28 28 29 30 30 30 31 32 33 34 33 34 34 35 35 35 35 35 35 
37 37 39 37 38 39 42 42 43 41 42 43 44 44 45 45 45 46 47 47 48 48 49 50 
50 51 51 52 52 53 52 53 54 55 56 58 58 59 59 60 61 62 60 61 62 62 63 64 
63 64 64 66 67 68 64 65 65 68 70 72 66 67 69 69 69 70 66 66 67 67 67 69 
64 65 66 64 66 67 61 62 63 123 124 126 219 220 221 218 219 219 212 213 214 215 216 217 
221 222 223 217 218 220 220 221 222 217 218 218 220 221 221 221 222 223 217 217 218 212 213 214 
218 218 219 209 209 210 209 210 211 206 206 208 208 209 210 203 203 204 196 197 197 201 201 202 
194 194 195 195 196 197 196 196 197 188 188 189 189 189 190 189 190 191 190 190 191 183 183 185 
183 183 184 177 177 178 176 177 177 177 177 178 174 174 175 177 178 179 189 190 191 182 182 183 
39 40 41 37 37 38 36 37 37 38 39 40 38 39 39 39 39 40 39 40 40 39 40 40 
38 39 40 37 38 39 37 38 38 37 37 37 36 36 37 34 35 36 34 35 35 30 31 31 
31 32 32 30 30 30 30 32 32 28 29 29 28 29 29 26 26 26 25 25 25 24 24 24 
22 23 23 21 21 21 21 21 21 20 20 20 20 20 20 19 20 20 17 18 18 17 17 17 
17 17 17 16 16 16 14 15 15 13 14 14 13 13 13 13 13 13 12 12 12 11 11 11 
10 10 10 11 11 11 10 10 10 9 10 10 29 29 29 31 31 31 31 31 32 30 30 30 
29 29 29 168 37 41 245 42 50 243 42 50 65 13 15 0 0 0 0 0 0 0 0 0 
0 0 0 0 0 0 
0 0 0 0 0 0 0 0 0 0 0 0 0 0 0 119 52 54 245 110 113 245 112 114 
120 64 65 28 28 28 29 29 29 29 29 29 29 29 29 24 24 24 5 5 5 6 6 6 
5 5 5 6 6 6 6 6 6 5 5 5 5 5 5 7 7 7 6 6 6 8 8 8 
7 7 7 6 6 6 6 6 6 7 7 7 6 6 6 6 6 6 7 7 7 7 7 7 
8 8 8 8 8 8 8 8 8 8 8 8 8 8 8 8 8 8 8 8 8 8 8 8 
9 9 9 9 9 9 9 10 10 10 10 10 10 10 10 27 28 28 12 12 12 9 9 10 
10 10 10 10 10 10 10 10 10 11 11 11 10 11 11 11 11 11 12 12 12 12 12 13 
13 13 13 14 15 15 15 15 15 16 16 16 17 17 17 17 17 18 18 18 18 18 18 18 
19 19 20 20 20 20 22 23 23 23 24 24 24 25 25 26 27 27 27 27 27 27 28 28 
29 29 29 30 31 31 31 31 33 34 34 34 34 35 35 36 37 37 36 36 37 38 39 40 
40 41 42 43 43 44 44 44 45 45 45 46 46 48 49 49 49 50 50 52 53 52 52 53 
54 55 56 54 55 56 57 58 60 58 59 61 63 64 64 63 63 64 65 66 67 65 65 67 
69 70 72 68 69 69 70 71 72 68 70 72 70 71 73 69 69 71 69 70 71 68 69 71 
67 68 68 66 66 68 86 87 87 203 203 204 210 210 211 200 201 202 193 194 194 205 205 207 
209 209 210 203 203 204 203 204 205 203 203 204 209 209 210 210 211 212 206 207 208 198 199 199 
206 206 207 200 201 201 195 196 196 194 194 195 191 192 192 190 190 191 182 182 182 189 189 190 
185 186 186 184 185 186 179 179 179 177 177 179 176 177 177 177 178 179 175 176 176 172 173 173 
167 167 168 164 164 164 164 164 165 168 168 168 164 164 165 181 182 182 184 184 185 76 76 77 
36 37 37 37 38 38 38 39 40 39 39 39 38 39 40 41 41 42 40 40 41 39 40 41 
38 38 39 38 38 39 36 37 37 37 37 38 36 36 37 36 36 37 34 35 35 33 34 34 
30 31 31 31 31 31 29 30 30 28 29 29 27 27 27 26 26 26 25 26 26 23 24 24 
23 23 23 22 22 23 21 22 22 20 20 20 20 20 21 19 19 19 18 19 19 17 17 18 
17 17 17 15 17 17 15 15 15 14 14 14 13 14 14 13 13 13 12 12 12 12 12 13 
11 11 11 10 10 10 10 10 10 10 11 11 21 21 21 31 31 31 32 32 32 32 32 32 
31 31 31 58 30 30 243 40 47 245 41 48 184 35 40 0 0 0 0 0 0 0 0 0 
0 0 0 0 0 0 
0 0 0 0 0 0 0 0 0 0 0 0 0 0 0 206 89 91 246 106 110 238 106 109 
30 30 30 30 30 30 30 30 30 29 29 29 29 29 29 13 13 13 6 6 6 7 7 7 
7 7 7 6 6 6 6 6 6 6 6 6 6 6 6 7 7 7 7 7 7 7 7 7 
7 7 7 8 8 8 7 7 7 8 8 8 7 7 7 8 8 8 8 8 8 8 8 8 
9 9 9 9 9 9 9 9 9 9 9 9 9 9 9 10 10 10 10 10 10 10 10 10 
9 9 9 11 11 11 10 10 11 11 11 11 9 9 9 10 10 10 10 10 10 10 10 11 
10 10 10 12 12 12 11 12 12 12 12 12 12 12 12 13 13 13 14 14 15 14 14 15 
15 15 16 17 17 17 17 17 17 18 18 18 19 19 19 18 18 18 20 20 20 20 20 21 
22 22 22 22 22 22 24 24 24 25 26 26 26 26 27 28 28 28 28 29 29 29 30 30 
30 30 30 31 32 33 34 35 35 35 35 36 37 38 38 38 38 39 40 40 40 40 41 42 
42 43 44 46 46 47 46 47 47 49 49 50 49 50 50 52 53 54 53 54 55 57 58 58 
57 57 58 59 60 61 60 61 63 64 64 65 64 64 65 67 68 69 68 68 70 69 70 72 
71 71 73 72 73 73 72 74 77 72 74 75 74 75 76 70 71 72 73 74 76 69 70 72 
69 70 71 67 68 70 206 207 209 226 227 228 214 215 216 218 220 221 220 221 222 218 219 220 
224 226 226 226 228 228 227 228 230 224 225 226 230 231 232 228 229 230 217 218 218 221 222 222 
212 213 213 216 216 217 216 217 218 213 214 215 206 207 209 210 211 212 198 199 199 203 205 206 
205 206 207 204 204 205 195 195 196 193 194 195 195 196 197 187 188 188 184 185 186 191 192 193 
187 188 189 188 189 189 177 177 178 185 186 187 195 196 197 199 199 200 131 131 132 37 38 39 
37 39 39 38 39 40 40 41 41 40 40 40 42 43 44 40 41 42 41 41 42 39 40 41 
40 41 42 39 40 40 38 38 39 38 38 38 36 37 38 34 35 35 34 35 35 33 34 34 
31 31 31 30 31 32 29 29 30 29 29 29 26 26 26 25 26 26 23 23 24 24 25 25 
23 24 24 22 22 23 22 22 22 21 21 21 19 19 19 20 20 21 19 20 19 18 18 19 
17 17 17 15 16 16 15 15 15 14 14 14 13 13 13 13 13 13 12 13 13 13 13 13 
12 12 12 11 11 11 10 10 10 11 11 11 12 13 13 32 32 32 31 31 31 32 32 32 
32 32 32 31 31 31 225 38 44 244 39 46 233 39 45 0 0 0 0 0 0 0 0 0 
0 0 0 0 0 0 
0 0 0 0 0 0 0 0 0 0 0 0 0 0 0 240 102 104 245 105 107 201 90 93 
29 29 29 29 29 29 30 30 30 29 29 29 29 29 29 6 6 6 6 6 6 6 6 6 
6 6 6 6 6 6 5 5 5 6 6 6 5 5 5 5 5 5 7 7 7 6 6 6 
7 7 7 7 7 7 6 6 6 7 7 7 6 6 6 8 8 8 8 8 8 8 8 8 
8 8 8 9 9 9 9 9 9 8 8 8 10 10 10 8 8 8 9 10 9 9 9 9 
10 10 10 9 9 10 10 10 10 9 9 9 10 10 10 10 10 10 10 10 10 11 11 11 
10 10 10 11 11 11 11 11 11 12 12 12 12 13 13 13 13 13 13 14 14 15 15 15 
15 15 15 17 17 17 17 17 17 19 19 19 18 18 19 19 19 20 20 21 21 22 22 23 
23 23 23 24 24 24 23 24 24 26 27 27 27 28 28 28 28 28 29 30 30 30 31 31 
33 33 34 33 33 35 35 36 37 36 36 37 38 38 38 38 39 40 40 41 42 41 42 43 
46 46 47 46 47 48 48 48 49 48 49 50 50 51 52 53 54 55 54 55 56 57 58 59 
58 58 59 61 62 62 62 62 64 65 65 66 65 67 68 69 69 71 67 69 71 73 74 75 
71 72 73 74 75 77 72 73 75 77 77 78 73 74 76 73 74 75 72 73 74 71 73 74 
69 69 70 167 169 169 216 217 218 214 215 216 209 210 211 211 212 213 210 211 212 213 214 215 
211 212 213 218 219 219 212 213 214 211 212 213 212 213 214 214 214 215 215 216 217 212 213 214 
207 208 209 207 208 209 202 203 204 207 208 209 198 198 199 196 197 198 192 193 193 194 195 195 
190 191 191 184 184 185 182 183 184 183 184 184 179 180 181 180 180 181 178 178 180 173 173 173 
173 174 175 176 177 178 173 174 175 176 177 178 192 194 194 167 167 168 36 37 37 39 39 40 
38 39 40 38 39 40 41 41 42 41 41 42 41 41 42 41 41 42 40 40 41 39 40 42 
39 40 41 38 39 39 38 39 40 36 36 36 35 36 37 32 33 33 34 35 35 32 33 33 
31 31 31 29 30 30 29 30 30 27 28 28 27 27 27 25 25 26 24 25 25 23 23 23 
22 23 23 21 21 21 21 21 21 19 20 20 19 19 19 18 19 19 17 18 18 17 17 17 
15 16 16 15 15 15 15 15 15 13 14 14 13 13 13 13 13 13 12 13 13 12 12 12 
10 10 11 12 12 12 10 10 10 11 11 11 9 9 9 28 28 28 32 32 32 31 32 32 
31 31 31 31 31 31 161 33 38 244 36 45 245 38 45 56 9 10 0 0 0 0 0 0 
0 0 0 0 0 0 
0 0 0 0 0 0 0 0 0 0 0 0 92 37 38 245 100 104 246 102 105 123 61 61 
30 30 30 30 30 30 30 30 30 29 29 29 24 24 24 6 6 6 5 5 5 7 7 7 
6 6 6 6 6 6 6 6 6 7 7 7 5 5 5 6 6 6 7 7 7 6 6 6 
8 8 8 7 7 7 7 7 7 7 7 7 8 8 8 8 8 8 8 8 8 7 7 7 
8 8 8 8 8 8 9 9 9 9 9 9 9 9 9 10 10 10 9 9 9 11 11 11 
9 10 10 10 10 10 10 10 10 10 10 10 11 11 11 10 10 10 11 11 11 11 11 11 
12 12 12 11 11 11 12 12 12 11 11 11 14 15 15 16 16 16 15 15 16 16 17 17 
17 17 17 17 17 18 18 18 18 19 20 20 20 20 20 20 21 21 21 21 22 23 23 24 
24 24 25 25 26 26 26 27 27 26 27 27 29 29 29 30 30 30 31 32 32 32 33 33 
32 33 34 36 36 37 36 37 38 38 39 39 39 39 40 40 41 42 41 42 43 44 45 46 
47 47 49 47 48 49 49 49 50 50 51 52 53 55 56 55 56 57 57 58 59 59 60 60 
62 63 64 62 63 64 66 67 68 67 68 69 70 71 71 69 69 71 71 72 75 72 73 75 
75 76 77 74 76 77 74 75 77 76 76 78 75 75 76 74 75 76 73 74 74 71 72 72 
127 128 129 219 221 221 222 224 225 217 218 219 218 219 220 223 224 225 222 223 224 220 221 222 
220 221 222 227 229 230 221 222 223 225 226 227 222 223 224 217 218 219 220 221 222 218 219 220 
215 216 217 207 208 209 212 213 214 206 207 207 203 203 204 200 201 202 205 205 207 199 200 201 
198 200 201 197 198 198 190 192 192 188 189 189 187 189 189 185 186 187 185 186 186 184 184 186 
185 186 187 176 177 178 180 181 181 193 193 194 189 189 190 56 56 56 38 38 39 40 41 42 
39 39 40 40 40 41 41 41 42 43 43 44 41 41 42 41 42 43 39 40 40 40 40 41 
38 39 39 39 39 40 37 37 38 37 37 39 34 35 36 34 35 35 32 33 33 31 31 31 
30 31 32 28 29 29 27 28 28 27 27 27 26 26 26 24 24 25 23 24 24 22 22 22 
23 23 23 21 21 21 21 21 21 19 19 19 20 20 20 19 19 19 18 18 19 17 17 17 
15 15 15 14 14 14 14 14 14 14 14 14 12 12 12 13 13 13 12 12 12 12 12 13 
12 12 12 11 11 11 11 11 11 11 12 12 10 10 11 21 21 21 32 32 32 32 32 32 
32 32 32 31 31 31 56 28 28 244 34 43 245 35 44 170 27 33 0 0 0 0 0 0 
0 0 0 0 0 0 
0 0 0 0 0 0 0 0 0 0 0 0 184 73 76 245 98 102 243 98 102 33 27 27 
29 29 29 30 30 30 30 30 30 29 29 29 14 14 14 5 5 5 5 5 5 5 5 5 
5 5 5 6 6 6 6 6 6 6 6 6 5 5 5 7 7 7 6 6 6 6 6 6 
6 6 6 6 6 6 7 7 7 7 7 7 8 8 8 8 8 8 7 7 7 7 7 7 
8 8 8 8 8 8 8 8 8 7 7 7 9 9 9 9 9 9 9 9 9 10 10 10 
9 9 9 10 10 10 9 9 9 10 10 10 10 10 10 11 11 11 12 12 12 12 12 12 
11 11 11 11 12 12 12 13 12 13 13 14 15 15 15 15 15 16 17 17 17 16 17 17 
18 18 18 19 19 19 19 19 20 19 19 20 21 21 21 20 21 21 22 22 23 23 23 23 
25 25 25 27 27 27 27 28 28 28 29 29 28 28 28 30 31 31 31 32 32 33 33 33 
34 34 36 36 36 37 37 37 38 39 40 41 40 40 41 43 44 44 42 43 44 46 46 48 
47 47 48 50 50 50 50 51 52 54 55 55 54 55 56 57 58 59 58 59 60 61 61 63 
62 62 64 63 64 66 67 68 69 68 68 70 70 71 73 70 71 73 73 73 75 73 73 74 
76 77 78 73 75 76 76 77 78 75 75 77 74 76 77 70 72 74 73 75 76 90 91 92 
211 212 213 217 217 219 209 210 211 211 212 213 212 213 214 213 214 215 220 222 222 219 220 222 
217 218 219 221 222 223 219 220 220 218 218 219 215 216 217 213 214 214 211 211 212 212 213 214 
208 209 210 202 202 203 205 206 206 202 203 203 201 201 202 198 199 200 193 193 194 195 196 196 
189 189 190 190 191 192 190 191 191 181 182 183 189 189 190 187 188 189 179 179 180 184 185 186 
184 185 185 177 179 179 190 191 192 193 193 194 104 104 104 38 38 39 40 40 41 39 40 41 
40 40 41 40 40 41 42 42 43 41 41 42 41 42 43 41 41 42 40 40 41 39 39 41 
38 39 39 38 38 39 37 37 37 36 36 37 33 34 34 33 34 34 31 32 32 30 30 30 
29 30 30 28 29 29 26 27 27 26 26 27 24 24 25 24 24 25 22 23 23 21 21 22 
22 22 22 21 21 21 20 20 21 19 19 19 18 19 19 17 17 18 16 16 16 15 15 15 
15 15 15 14 14 14 13 14 14 13 13 13 12 12 12 12 12 12 11 11 11 11 11 11 
11 11 11 10 10 11 10 10 10 8 8 8 10 10 10 10 10 10 31 31 31 30 30 30 
30 30 30 31 31 31 31 31 31 230 33 42 244 34 43 222 32 41 0 0 0 0 0 0 
0 0 0 0 0 0 
0 0 0 0 0 0 0 0 0 0 0 0 230 89 92 245 95 99 219 89 91 29 29 29 
31 31 31 30 30 30 30 30 30 30 30 30 7 7 7 7 7 7 7 7 7 6 6 6 
6 6 6 6 6 6 6 6 6 7 7 7 7 7 7 8 8 8 8 8 8 8 8 8 
7 7 7 8 8 8 8 8 8 8 8 8 9 9 9 8 8 8 9 9 9 8 8 8 
10 10 10 8 8 8 10 10 10 10 10 10 9 9 9 8 8 8 10 10 10 10 10 11 
11 11 11 9 9 9 11 11 11 10 10 10 11 11 11 12 12 13 13 13 13 14 14 14 
14 14 14 14 14 14 14 14 14 14 15 15 17 17 17 17 17 18 18 19 19 17 17 18 
19 19 20 20 20 20 21 21 21 21 21 22 22 22 22 22 23 23 23 24 24 25 25 25 
28 29 29 27 28 28 29 30 30 30 30 30 30 31 32 34 35 35 35 36 36 35 36 36 
37 37 38 39 39 40 41 42 42 41 41 42 43 44 45 44 45 46 47 47 49 49 49 50 
50 51 52 52 52 53 53 55 56 55 56 57 58 59 60 59 60 61 60 61 62 64 64 66 
62 63 65 68 69 69 69 69 70 71 72 74 69 70 72 73 75 77 74 75 77 76 78 79 
75 77 79 77 79 79 76 77 78 77 77 79 74 75 76 72 74 75 73 74 75 197 198 198 
218 218 219 213 214 214 212 213 214 209 210 211 214 215 216 214 215 216 213 214 215 220 221 222 
217 218 219 216 217 217 219 220 221 217 218 219 212 213 214 218 219 220 210 211 212 207 208 209 
202 202 203 202 203 203 202 203 204 204 205 206 200 200 201 198 198 200 197 197 198 194 195 196 
190 190 191 186 187 188 187 188 188 185 187 187 178 179 179 180 181 181 184 184 186 180 180 181 
177 177 179 186 186 186 194 194 194 151 151 152 39 39 40 40 40 41 40 41 41 40 42 43 
42 42 43 42 42 43 44 44 45 42 42 43 43 43 44 40 41 42 41 41 42 39 40 41 
39 39 40 38 38 39 37 37 39 34 35 35 35 35 35 33 34 34 32 33 33 31 31 32 
30 31 31 29 30 30 29 30 30 26 26 27 25 25 26 25 25 26 23 23 23 23 23 23 
22 22 22 21 21 21 20 20 20 20 20 20 18 18 18 18 18 19 17 17 17 16 16 16 
14 15 15 15 15 16 14 14 14 15 15 15 14 14 14 13 13 14 13 13 13 13 13 13 
13 13 13 11 11 11 11 12 12 10 10 10 10 10 10 11 11 11 31 31 31 32 32 32 
32 32 32 31 31 31 28 28 28 192 30 38 245 32 42 243 33 42 8 1 1 0 0 0 
0 0 0 0 0 0 
0 0 0 0 0 0 0 0 0 31 11 12 245 92 94 244 93 96 167 68 71 26 26 26 
30 30 30 30 30 30 29 29 29 25 25 25 5 5 5 5 5 5 6 6 6 5 5 5 
5 5 5 5 5 5 5 5 5 6 6 6 6 6 6 6 6 6 6 6 6 7 7 7 
7 7 7 6 6 6 6 6 6 7 7 7 7 7 7 7 7 7 7 7 7 7 7 7 
9 9 9 8 8 8 9 9 9 9 9 9 9 9 9 9 9 9 10 10 10 9 10 10 
10 10 10 10 10 10 11 11 11 10 10 10 10 10 10 11 11 11 11 11 11 12 12 12 
12 13 13 13 14 14 15 16 16 15 15 15 16 16 16 17 17 17 18 19 19 18 18 18 
19 19 19 21 21 21 20 20 21 22 22 22 22 23 23 24 24 24 25 25 25 25 25 26 
26 27 27 29 30 30 29 30 30 30 30 30 30 31 32 31 32 33 33 34 34 35 36 37 
37 37 38 38 39 39 40 40 40 41 41 42 42 43 44 44 45 46 47 47 48 48 48 49 
49 51 52 51 51 52 54 55 55 54 55 56 58 59 60 59 60 61 61 61 63 62 63 64 
66 67 68 67 68 69 69 69 70 70 71 72 71 72 74 74 75 77 74 75 77 75 77 79 
75 76 77 77 78 79 73 74 76 75 76 78 70 72 74 72 73 74 174 175 176 219 219 220 
213 214 216 209 210 211 222 223 224 214 215 216 222 223 224 220 221 222 221 223 223 223 224 225 
225 226 227 227 228 229 221 222 223 220 221 222 219 220 221 215 215 216 215 216 217 211 212 213 
208 209 210 210 211 212 206 207 208 202 203 204 204 204 205 198 199 200 199 200 200 196 197 197 
195 196 196 193 193 194 188 188 190 185 185 186 185 185 186 187 188 189 187 188 189 185 185 186 
183 184 184 199 199 200 182 183 183 43 43 44 38 39 40 40 41 42 40 41 42 41 42 42 
41 42 42 44 45 45 42 43 44 41 42 43 40 41 42 42 42 43 40 40 41 40 40 40 
38 38 39 37 37 38 35 36 37 33 34 35 33 34 34 30 31 31 30 31 31 29 30 30 
29 29 29 27 28 28 26 27 27 24 24 24 23 24 24 24 24 24 22 22 23 22 22 22 
21 22 22 19 19 20 20 20 20 18 19 19 18 18 18 17 17 17 16 16 16 14 14 14 
14 14 14 14 15 15 13 13 13 13 13 13 12 12 13 11 11 11 11 11 11 11 11 11 
11 11 11 10 10 10 10 10 10 9 9 9 9 9 9 9 9 9 23 23 23 30 30 30 
31 31 31 31 31 31 29 29 29 108 27 32 245 31 41 245 31 41 117 15 19 0 0 0 
0 0 0 0 0 0 
0 0 0 0 0 0 0 0 0 134 49 51 245 90 93 245 91 93 71 41 41 26 26 26 
29 29 29 29 29 29 30 30 30 19 19 19 6 6 6 6 6 6 6 6 6 6 6 6 
6 6 6 7 7 7 6 6 6 7 7 7 7 7 7 7 7 7 8 8 8 7 7 7 
7 7 7 8 8 8 7 7 7 8 8 8 8 8 8 8 8 8 8 8 8 9 9 9 
8 8 8 9 9 9 10 10 10 10 10 10 9 9 9 10 10 10 10 10 10 10 11 11 
11 11 11 12 12 12 12 12 12 13 13 13 12 12 12 12 12 13 13 13 13 13 14 14 
14 14 14 14 14 14 15 17 17 17 17 17 17 17 17 17 18 18 19 19 19 19 19 20 
20 20 20 20 20 20 21 22 22 22 22 22 23 23 23 26 26 26 27 27 27 27 28 28 
27 28 28 29 30 30 30 30 30 32 33 33 32 33 33 35 35 35 35 35 36 37 37 38 
38 39 39 41 42 42 41 41 43 43 44 45 44 44 45 47 47 49 48 48 49 50 51 52 
52 52 53 53 54 56 54 55 56 57 58 60 59 60 60 61 62 63 62 63 65 64 65 67 
68 69 70 69 69 70 71 71 73 71 72 74 74 75 78 74 74 76 76 78 79 73 75 77 
77 79 81 75 76 77 75 76 77 74 74 76 73 74 75 131 132 134 217 217 218 217 217 218 
211 212 213 208 208 209 211 213 214 217 218 219 220 221 223 214 214 215 221 222 223 219 220 221 
215 216 216 217 217 218 221 222 223 216 217 217 213 214 215 210 211 211 213 213 214 212 213 214 
206 207 208 204 204 205 203 204 205 196 196 197 197 197 199 196 196 197 194 194 196 193 193 194 
192 192 194 186 186 187 182 182 183 182 182 183 186 187 188 179 180 180 178 179 179 176 176 176 
193 194 194 195 195 195 80 81 81 40 40 40 41 42 43 41 42 42 42 43 44 43 43 44 
44 45 45 43 44 44 42 43 44 42 43 44 41 42 44 42 42 43 40 41 41 41 42 42 
38 38 39 37 38 39 35 35 36 35 36 36 31 32 32 31 32 32 30 31 31 30 31 31 
29 30 30 27 28 28 26 26 26 25 26 27 24 25 25 24 24 24 21 21 22 22 22 22 
22 22 22 20 20 20 19 20 20 19 19 19 19 19 20 17 17 17 16 16 16 15 15 15 
16 16 16 14 14 14 14 14 14 13 13 13 13 13 14 12 12 12 11 11 11 11 11 11 
11 11 11 10 11 11 10 10 11 11 11 11 10 10 10 9 9 9 14 14 14 32 32 32 
31 31 31 31 31 31 30 30 31 32 32 32 240 30 39 245 30 40 194 28 35 0 0 0 
0 0 0 0 0 0 
0 0 0 0 0 0 0 0 0 197 69 73 246 86 91 236 85 89 30 30 30 32 32 32 
32 32 32 31 31 31 31 31 31 9 9 9 8 8 8 9 9 9 8 8 8 9 9 9 
7 7 7 9 9 9 9 9 9 8 8 8 9 9 9 9 9 9 9 9 9 8 8 8 
8 8 8 8 8 8 10 10 10 10 10 10 9 9 9 9 9 9 10 10 10 10 10 10 
10 10 10 10 10 10 12 12 12 12 12 12 10 10 10 13 13 13 13 13 14 13 13 13 
12 12 12 14 14 15 14 14 14 14 14 14 13 13 13 14 14 14 15 15 15 15 16 16 
15 16 16 16 17 17 18 18 18 18 18 18 19 19 19 20 21 21 21 21 21 21 21 21 
22 22 22 22 22 23 23 23 23 24 25 25 26 26 27 26 26 27 29 29 29 29 29 29 
30 31 31 31 32 32 33 34 34 34 34 35 36 36 36 36 37 37 37 38 39 40 40 40 
41 42 42 43 43 44 44 44 44 45 46 48 46 47 48 49 50 50 52 52 53 53 54 55 
53 53 54 56 57 59 57 59 60 62 62 63 61 62 63 64 64 66 64 65 67 68 69 71 
69 69 70 72 72 74 71 72 74 75 75 77 74 76 78 76 77 78 77 78 79 76 77 79 
78 79 80 76 76 78 76 76 77 74 75 77 95 97 97 204 204 204 209 210 211 199 200 201 
200 201 203 206 207 207 207 208 209 207 207 208 216 217 217 208 209 210 213 214 214 205 206 207 
215 216 217 209 210 210 217 217 218 207 208 209 207 208 208 200 201 201 201 201 202 195 196 196 
199 200 201 197 198 199 190 191 192 187 188 188 192 194 194 188 188 189 180 181 181 184 184 185 
186 186 187 176 176 177 177 178 178 176 177 178 171 171 172 171 171 172 171 171 172 180 180 181 
194 194 195 130 131 131 40 40 41 41 41 42 42 43 45 43 43 43 44 45 45 45 45 45 
46 47 48 43 44 46 45 46 47 43 43 44 45 45 45 42 43 43 42 43 43 40 41 42 
40 40 41 37 37 39 37 38 38 35 36 37 34 35 35 33 33 33 31 31 32 31 32 32 
29 30 30 28 28 29 27 27 28 27 27 28 25 25 25 25 25 25 23 23 24 23 23 23 
22 22 23 23 23 23 21 22 22 21 21 21 19 20 20 18 19 19 18 18 18 17 18 17 
16 17 17 15 15 15 15 15 15 14 14 15 14 14 14 13 13 13 13 13 13 13 13 13 
13 13 13 13 13 13 12 12 12 11 11 11 11 11 11 11 11 11 10 10 10 33 33 33 
33 33 33 33 33 33 28 28 28 28 28 28 222 31 38 245 31 39 227 30 38 0 0 0 
0 0 0 0 0 0 
0 0 0 0 0 0 0 0 0 229 77 83 246 84 90 214 77 82 26 26 26 26 26 26 
31 31 31 30 30 30 29 29 29 6 6 6 7 7 7 7 7 7 8 8 8 7 7 7 
7 7 7 6 6 6 8 8 8 8 8 8 8 8 8 7 7 7 8 8 8 8 8 8 
8 8 8 8 8 8 8 8 8 8 8 8 9 9 9 9 9 9 9 9 9 9 9 9 
9 9 9 10 10 10 10 10 10 10 10 10 10 10 10 11 11 11 10 11 11 12 12 12 
12 12 12 12 12 12 13 13 13 14 14 14 14 14 14 14 14 14 14 15 14 15 15 15 
15 15 15 15 17 17 18 18 18 18 18 18 18 18 19 20 20 20 19 20 20 22 22 22 
21 22 22 22 23 23 23 23 23 24 25 25 25 25 26 27 27 28 27 28 28 29 30 30 
30 31 31 31 32 32 32 33 33 33 34 34 34 35 35 36 37 37 38 38 39 39 40 40 
42 42 42 41 42 43 44 44 46 44 44 45 47 47 49 49 50 51 50 51 52 51 52 53 
55 55 56 56 56 57 59 60 61 60 60 61 62 62 63 62 63 66 65 66 67 68 70 70 
68 70 71 70 71 73 72 73 74 75 75 77 74 74 75 76 76 78 73 75 76 76 76 79 
75 75 77 75 76 78 70 71 73 73 75 77 193 193 194 208 209 210 202 203 203 199 199 200 
202 203 203 204 205 206 208 209 210 202 204 204 214 215 215 213 213 214 210 210 211 211 212 213 
218 219 220 208 209 209 210 211 211 197 198 198 206 206 207 199 200 201 195 195 195 192 193 193 
201 202 202 193 193 194 191 191 192 188 188 189 188 188 189 184 184 186 182 182 182 180 180 181 
186 186 187 176 177 178 181 181 182 172 172 173 174 174 175 169 170 170 176 176 176 185 185 185 
168 169 170 39 40 41 39 40 41 43 43 43 43 43 44 44 45 45 43 44 45 44 45 46 
43 44 46 44 44 45 43 44 45 42 43 45 42 42 43 40 41 42 41 41 41 38 38 39 
38 39 40 35 36 37 36 36 36 33 34 34 32 34 34 30 31 31 30 31 31 29 29 29 
28 29 29 27 27 27 27 27 28 24 24 24 24 24 24 23 23 24 23 23 23 22 22 22 
20 20 21 20 20 20 19 19 19 18 18 19 17 17 17 16 17 17 15 16 16 15 15 15 
13 13 13 16 16 16 13 13 13 13 13 14 12 12 12 12 12 12 13 13 13 11 12 12 
11 12 12 10 10 10 11 11 11 9 9 9 10 10 10 9 9 9 9 9 9 27 27 27 
31 31 31 32 32 32 32 32 32 30 30 30 187 28 34 244 29 38 243 30 37 3 0 0 
0 0 0 0 0 0 
0 0 0 0 0 0 5 2 2 244 80 84 246 81 86 173 64 67 31 31 31 29 29 29 
30 30 30 29 29 29 26 26 26 7 7 7 6 6 6 6 6 6 6 6 6 7 7 7 
7 7 7 7 7 7 8 8 8 8 8 8 7 7 7 7 7 7 7 7 7 8 8 8 
8 8 8 9 9 9 8 8 8 9 9 9 8 8 8 9 9 9 8 8 8 9 9 9 
9 9 9 9 9 9 10 10 10 10 10 10 10 10 10 10 10 10 12 12 12 11 11 11 
12 12 12 12 12 12 12 12 12 13 13 13 13 13 13 14 14 14 16 16 16 15 16 16 
16 16 16 16 17 17 18 18 18 18 18 19 19 20 20 20 20 20 20 21 21 22 22 23 
22 22 22 23 23 23 24 24 24 25 25 26 26 26 26 27 27 27 28 29 29 29 30 30 
31 32 32 32 32 32 32 33 33 34 35 35 35 35 35 37 38 39 38 38 39 40 41 41 
40 41 41 43 43 44 44 45 46 46 46 47 47 47 49 50 50 51 50 51 52 53 53 54 
54 55 56 56 58 58 60 60 62 60 61 62 64 64 65 62 63 65 67 69 70 67 68 69 
71 71 72 69 70 71 73 74 76 73 74 74 76 76 77 73 75 77 76 77 79 73 74 76 
73 74 77 71 71 73 69 71 72 172 174 175 220 221 221 215 216 216 215 216 217 211 212 214 
209 210 210 219 220 222 215 216 217 217 218 219 221 222 223 220 221 222 228 229 230 224 225 226 
224 225 226 219 220 221 217 218 219 218 219 220 213 214 215 216 217 218 213 214 215 203 203 204 
206 206 208 208 209 211 202 203 204 201 201 203 200 201 202 196 196 198 199 199 200 187 188 189 
188 189 189 182 183 184 191 192 192 189 190 191 182 183 184 187 188 188 197 197 197 191 191 192 
61 61 62 41 41 41 41 42 42 43 43 45 43 44 44 43 44 45 44 44 44 46 47 47 
44 45 46 46 46 47 43 43 44 43 44 45 41 41 42 42 43 43 39 40 40 39 40 41 
36 37 38 35 35 35 33 34 34 34 35 35 31 32 32 31 32 32 29 30 30 28 29 29 
27 27 28 26 26 26 25 25 26 24 24 24 23 23 23 22 22 22 23 23 23 21 21 22 
21 21 21 19 19 19 19 19 19 18 18 18 16 16 16 16 16 16 16 16 16 14 15 15 
15 15 15 14 14 14 14 14 14 13 13 13 12 12 12 12 12 12 12 12 12 12 12 12 
11 11 11 10 10 10 10 10 10 10 10 10 10 10 10 10 10 10 9 9 9 24 24 24 
32 32 32 31 31 31 28 28 28 30 30 30 123 32 32 244 30 36 245 29 36 73 14 16 
0 0 0 0 0 0 
0 0 0 0 0 0 64 20 21 246 78 82 246 79 83 99 44 44 26 26 26 28 28 28 
30 30 30 30 30 30 20 20 20 7 7 7 6 6 6 6 6 6 5 5 5 6 6 6 
6 6 6 8 8 8 7 7 7 8 8 8 7 7 7 7 7 8 7 7 7 7 7 7 
7 7 7 8 8 8 7 7 7 8 8 8 8 8 8 9 9 9 9 9 9 9 9 9 
9 9 9 10 10 10 10 10 10 11 11 11 9 9 9 10 11 11 11 11 11 11 11 11 
11 11 11 12 12 12 12 12 13 12 12 12 13 13 13 14 14 14 14 14 14 15 15 15 
15 17 17 17 17 17 17 17 18 19 20 20 19 19 19 20 20 21 21 21 21 22 22 22 
22 22 23 23 23 23 23 24 24 24 24 25 27 27 27 28 29 29 28 29 29 30 30 30 
32 33 33 30 32 32 33 34 34 34 35 35 34 35 36 37 38 39 38 38 39 40 41 41 
42 42 43 43 44 45 44 45 46 47 47 48 47 48 49 50 51 52 50 51 52 53 54 55 
54 55 56 58 59 61 59 59 60 62 62 63 62 62 64 65 66 67 66 67 69 69 70 71 
70 70 72 71 72 73 71 72 75 73 74 76 73 74 75 74 75 76 74 76 77 72 73 74 
72 73 74 69 70 71 132 133 133 208 208 210 204 205 206 192 193 194 202 203 204 199 200 201 
204 205 206 206 207 208 206 206 207 206 207 207 207 207 208 208 209 209 216 217 218 214 215 216 
206 207 208 209 210 210 201 201 202 204 204 205 202 202 204 195 195 196 194 195 196 194 195 195 
200 202 202 193 194 195 189 190 190 190 191 192 186 187 187 187 187 188 182 182 183 175 175 176 
177 178 179 174 174 175 177 178 179 175 176 176 174 174 175 190 190 190 194 194 195 104 104 104 
40 41 42 42 42 43 43 43 43 43 43 45 44 45 46 43 44 45 45 46 46 44 45 46 
45 46 47 43 43 44 42 43 44 41 41 42 41 41 42 40 41 41 39 39 40 38 38 39 
36 37 37 34 35 35 32 33 34 32 33 33 30 31 31 30 31 31 29 29 29 28 29 29 
26 27 27 25 25 26 23 24 24 24 24 24 22 22 23 22 22 22 21 21 21 21 21 22 
19 19 19 19 20 20 18 18 19 18 18 18 16 17 17 15 16 16 14 14 14 14 14 14 
15 15 15 13 13 13 13 13 14 12 13 13 11 11 11 11 11 11 10 10 10 10 11 11 
10 10 10 10 10 10 9 9 9 9 10 9 9 9 9 9 9 9 8 8 8 14 14 14 
31 31 31 31 31 31 30 30 30 27 27 27 34 26 26 243 29 35 244 28 36 140 21 26 
0 0 0 0 0 0 
0 0 0 0 0 0 112 35 37 245 76 80 242 76 80 30 28 28 26 26 26 25 25 25 
29 29 29 30 30 30 10 10 10 6 6 6 5 5 5 5 5 5 6 6 6 6 6 6 
6 6 6 7 7 7 7 7 7 7 7 7 7 7 7 7 7 7 7 7 7 7 7 7 
7 7 7 7 7 7 8 8 8 8 8 8 7 7 7 8 8 8 8 8 8 8 8 8 
8 8 8 8 8 8 10 10 10 9 9 9 10 10 10 12 12 12 10 10 10 10 10 10 
11 11 11 12 12 12 12 12 12 13 13 13 14 14 14 13 14 14 14 14 14 15 15 15 
16 17 17 18 18 18 18 18 18 18 19 19 19 19 19 20 20 21 21 21 21 22 22 22 
22 22 22 22 22 22 23 23 24 25 25 26 27 28 28 27 28 28 28 29 29 30 31 31 
31 31 31 31 32 32 32 33 34 33 34 34 36 36 37 37 37 38 39 39 40 40 40 40 
42 42 42 43 43 44 45 46 47 45 46 46 49 50 51 50 51 51 52 52 53 53 54 55 
56 56 57 58 58 60 60 61 62 62 62 63 63 64 66 65 66 68 66 68 69 69 70 71 
69 70 71 71 72 74 70 71 73 73 74 75 71 72 72 73 74 76 71 71 72 73 73 75 
69 70 71 93 93 95 208 209 210 211 212 212 203 204 205 200 201 201 210 211 212 202 203 204 
206 207 208 208 209 210 212 213 213 217 218 219 212 213 214 215 216 217 215 216 217 212 213 213 
209 210 211 212 212 213 209 210 211 210 211 211 206 206 207 201 202 202 194 195 195 199 199 200 
197 198 199 192 192 193 189 190 191 192 192 193 191 191 192 189 189 190 184 184 185 179 179 179 
180 181 182 176 177 177 178 179 180 176 177 177 184 185 186 194 194 195 153 154 154 39 40 41 
40 41 41 43 43 45 43 43 45 44 45 45 44 45 46 44 45 45 44 44 46 44 45 46 
43 44 45 41 42 43 42 43 44 40 40 41 40 42 42 38 39 39 37 38 39 35 36 37 
35 36 36 33 34 34 33 34 34 30 30 31 30 31 31 28 29 29 28 29 29 27 28 28 
26 26 26 23 23 24 23 24 24 21 21 22 21 21 21 21 21 21 19 19 20 20 20 20 
17 18 18 18 19 19 17 17 17 16 16 16 14 15 15 15 15 15 13 13 13 13 13 13 
13 13 13 13 13 13 12 12 12 11 11 11 11 11 11 10 10 10 10 10 10 10 11 11 
9 9 9 8 8 8 9 9 9 8 8 8 9 9 9 8 8 8 8 8 8 8 8 8 
30 30 30 30 30 30 31 31 31 30 30 30 28 28 28 231 27 34 244 27 35 176 24 29 
0 0 0 0 0 0 
0 0 0 0 0 0 152 48 52 246 74 79 230 71 76 27 27 27 30 30 30 30 30 30 
30 30 30 29 29 29 6 6 6 6 6 6 6 6 6 7 7 7 7 7 7 7 7 7 
8 8 8 7 7 7 8 8 8 7 7 7 8 8 8 8 8 8 8 8 8 7 7 7 
8 8 8 8 8 8 8 8 8 9 9 9 9 9 9 8 8 8 9 9 9 9 9 9 
10 10 10 9 9 9 11 11 11 10 10 10 10 11 11 11 11 11 11 11 11 12 12 12 
12 12 12 13 13 13 12 12 12 13 13 13 14 14 14 15 15 15 14 15 15 15 17 17 
17 17 17 19 19 19 19 19 19 20 20 20 20 20 20 20 20 21 22 22 22 21 22 22 
24 24 24 24 25 25 24 24 25 26 26 26 28 29 29 29 29 29 30 30 30 32 33 33 
31 32 32 33 34 34 34 35 35 36 36 37 36 37 38 39 39 40 40 41 42 40 41 41 
43 43 44 44 45 46 47 47 49 48 49 49 50 52 52 52 53 53 53 53 54 54 55 56 
58 59 60 59 59 60 62 62 63 62 62 63 66 68 69 66 67 68 70 71 72 70 70 71 
71 71 73 70 71 73 73 74 76 72 73 75 72 74 75 72 73 75 71 71 72 69 71 72 
70 72 73 200 200 202 219 220 220 212 214 215 213 214 215 216 217 218 216 218 219 217 218 219 
221 223 223 222 223 224 228 229 230 228 229 231 223 224 225 224 225 226 223 224 225 224 226 226 
216 217 218 215 216 216 218 219 220 217 218 219 214 215 216 208 209 211 207 208 209 205 205 207 
210 211 212 204 205 205 199 200 201 199 200 201 198 199 200 194 195 196 194 195 195 193 193 195 
186 187 187 183 184 185 191 191 192 190 191 192 205 206 206 188 189 190 46 47 48 41 42 43 
43 43 44 45 46 46 44 45 46 46 47 48 45 45 46 46 47 47 44 45 46 47 47 48 
44 44 45 44 45 45 41 42 43 42 42 43 40 41 41 40 41 41 38 38 39 35 36 37 
35 36 36 33 34 34 31 32 32 32 33 33 30 31 32 29 30 30 28 29 29 26 26 27 
25 25 26 24 25 25 24 24 24 22 22 23 23 23 23 20 21 21 20 21 21 20 20 20 
18 19 19 18 18 19 18 18 18 15 16 16 15 15 15 15 15 15 14 14 14 14 14 14 
14 14 14 12 13 13 13 13 13 10 10 10 12 12 12 11 11 11 10 11 11 10 10 10 
11 11 11 10 10 10 9 10 10 10 10 10 8 8 8 9 9 9 8 8 8 8 8 8 
28 28 28 30 30 30 26 26 26 27 27 27 30 30 30 211 29 33 245 28 34 204 27 32 
0 0 0 0 0 0 
0 0 0 0 0 0 184 57 61 246 71 76 208 65 70 26 26 26 25 25 25 26 26 26 
29 29 29 28 28 28 6 6 6 5 5 5 5 5 5 5 5 5 5 5 5 7 7 7 
7 7 7 6 6 6 6 6 6 7 7 7 7 7 7 6 6 6 8 8 8 8 8 8 
8 8 8 8 8 8 8 8 8 8 8 8 8 8 8 8 8 8 8 8 8 9 9 9 
8 8 8 9 9 9 10 10 10 10 10 10 10 10 10 11 11 11 11 11 11 11 11 11 
12 12 12 11 11 12 13 13 13 14 14 14 13 14 14 14 14 14 15 15 15 15 16 16 
17 17 17 17 17 17 18 19 19 19 19 19 20 20 21 21 21 21 22 22 22 22 22 22 
23 23 23 23 23 24 24 25 25 27 27 27 28 28 28 29 30 30 30 31 31 31 31 31 
31 32 32 32 33 33 33 34 34 36 37 38 38 38 39 39 39 40 40 40 41 42 42 42 
43 43 44 44 45 46 46 46 47 49 50 51 50 50 51 52 53 54 52 53 54 56 57 59 
57 58 60 60 61 63 61 61 63 63 64 65 65 66 67 67 68 69 68 68 69 70 70 71 
70 71 73 70 70 71 73 73 75 70 71 72 72 73 75 71 71 72 71 72 73 66 67 69 
175 176 178 215 216 217 215 216 217 213 214 216 211 212 214 214 215 216 213 214 215 214 215 216 
219 220 221 222 223 224 223 224 225 222 224 224 224 225 226 226 227 228 221 223 223 220 221 222 
216 217 218 220 221 223 215 216 216 213 215 216 214 215 216 206 206 207 200 200 201 198 198 199 
203 203 204 203 204 205 205 205 206 193 193 195 197 197 198 195 196 198 194 195 195 191 192 193 
189 190 191 182 183 184 183 184 185 196 197 198 198 198 199 83 83 84 42 43 43 41 41 43 
43 44 45 45 45 46 44 45 46 44 46 47 45 46 47 45 45 46 45 46 47 43 44 46 
43 44 45 43 44 44 42 42 43 40 40 41 37 38 39 38 39 40 36 37 38 36 36 36 
33 34 34 32 33 33 31 31 31 30 31 31 29 30 30 29 29 29 27 28 28 26 26 27 
23 23 24 23 24 24 22 23 23 21 21 22 21 21 21 20 20 20 20 20 20 18 19 19 
18 18 18 17 18 18 16 17 17 15 16 16 14 15 15 14 15 15 14 14 14 13 13 13 
13 13 13 11 11 11 12 12 12 11 11 11 10 10 10 11 11 11 10 11 11 10 10 10 
9 9 9 9 9 9 9 9 9 9 9 9 8 8 8 8 8 8 8 8 8 8 8 8 
26 26 26 31 31 31 30 30 30 28 28 28 26 26 26 177 27 31 245 27 34 219 27 33 
0 0 0 0 0 0 
0 0 0 0 0 0 207 60 64 245 68 74 176 57 60 30 30 30 29 29 29 26 26 26 
28 28 28 23 23 23 6 6 6 6 6 6 6 6 6 5 5 5 5 5 5 6 6 6 
7 7 7 5 5 5 7 7 7 7 7 7 6 6 6 6 6 6 7 7 7 7 7 7 
7 7 7 8 8 8 7 7 7 8 8 8 8 8 8 8 8 8 9 9 9 8 8 8 
9 9 9 9 9 9 10 10 10 9 10 10 10 10 10 11 11 11 11 11 11 11 11 11 
11 11 11 13 13 13 13 13 13 13 13 13 13 13 13 14 15 15 14 15 15 16 16 16 
17 17 18 18 18 18 18 18 18 20 20 20 19 20 20 21 21 21 21 21 22 21 22 22 
23 24 24 23 23 24 26 26 26 27 28 28 27 28 28 28 29 29 30 31 31 31 32 32 
32 33 33 33 34 34 34 35 36 36 36 38 39 39 40 39 40 40 41 42 42 41 41 42 
42 43 44 44 45 46 48 48 49 49 50 51 51 51 52 52 53 54 54 55 56 57 58 59 
59 59 61 62 63 64 62 62 63 64 64 66 65 66 67 69 69 71 67 69 70 70 71 73 
67 68 71 71 73 74 70 71 72 71 72 74 68 70 71 71 71 72 66 67 68 131 131 132 
214 214 215 212 213 213 205 206 207 207 208 209 205 206 207 211 212 213 210 211 212 213 214 215 
215 216 217 220 221 221 209 210 210 215 216 216 218 219 219 221 222 222 215 216 217 215 216 217 
209 210 211 205 205 206 213 214 214 206 206 207 205 206 207 199 199 200 198 199 200 195 196 197 
199 200 200 195 195 197 196 197 197 192 193 194 191 192 192 188 190 190 188 188 189 187 188 189 
181 182 183 176 177 177 186 186 188 197 198 198 135 135 136 41 42 43 42 42 44 44 44 45 
44 45 45 45 47 48 45 46 47 45 46 47 47 47 47 45 46 46 45 46 47 43 43 45 
43 44 44 40 41 42 43 43 44 39 40 40 38 39 40 37 38 39 36 36 37 34 35 35 
33 35 35 30 31 31 31 31 31 28 29 29 28 29 29 27 28 28 26 27 27 25 26 26 
23 24 24 23 23 23 21 21 22 21 21 21 20 20 20 20 21 21 19 19 19 18 19 19 
17 17 17 17 17 17 15 16 16 15 15 15 13 13 13 14 15 15 14 14 14 12 12 12 
12 12 13 11 11 11 11 11 11 10 10 10 11 11 11 10 11 11 10 10 10 9 9 9 
9 9 9 8 8 8 10 10 10 8 8 8 9 9 9 8 8 8 7 7 7 7 7 7 
20 20 20 30 30 30 28 28 28 29 29 29 29 29 29 123 28 28 244 26 33 224 24 32 
45 7 8 0 0 0 
0 0 0 35 9 10 212 61 65 246 68 71 123 45 46 26 26 26 29 29 29 30 30 30 
31 31 31 19 19 19 7 7 7 7 7 7 7 7 7 7 7 7 6 6 6 7 7 7 
8 8 8 8 8 8 8 8 8 9 9 9 7 7 7 8 8 8 8 8 8 8 8 8 
8 8 8 8 8 8 9 9 9 9 9 9 9 9 9 9 9 9 11 11 11 9 9 9 
9 9 9 10 10 10 10 10 10 12 12 12 11 11 11 12 12 12 13 13 13 13 13 13 
12 12 13 13 13 13 13 13 13 13 14 14 15 15 15 15 15 15 16 17 17 18 18 18 
18 18 19 18 19 19 20 20 20 21 21 21 22 22 22 23 23 23 22 22 22 23 23 23 
24 24 25 25 25 26 26 27 27 27 28 28 29 29 29 29 30 30 31 32 32 34 35 35 
33 34 34 34 35 35 36 37 37 38 38 39 39 39 40 42 43 43 43 43 44 43 43 45 
44 45 46 46 46 47 51 51 52 50 51 53 54 54 55 53 54 55 55 57 58 57 58 59 
60 61 62 61 62 63 64 65 66 64 64 65 67 67 69 67 68 69 68 70 71 70 71 72 
70 71 74 70 72 73 71 72 72 69 71 73 68 69 70 69 70 71 95 95 96 208 209 210 
208 208 209 199 200 200 197 197 198 203 204 205 206 207 208 209 210 210 212 213 214 212 213 214 
209 210 211 215 216 217 223 224 225 218 218 219 216 217 218 218 219 220 216 217 218 209 210 211 
205 206 207 202 203 203 204 205 206 206 206 207 200 201 202 199 200 201 196 197 197 197 198 199 
196 197 198 193 193 194 192 192 193 191 191 192 189 189 191 182 182 183 178 178 179 187 187 188 
182 182 184 179 180 180 192 193 194 173 173 173 42 43 43 44 45 45 44 45 45 46 47 48 
45 45 46 47 48 48 45 46 47 47 48 49 46 47 48 47 47 48 45 46 47 44 45 47 
42 43 44 43 43 44 42 43 43 41 41 42 39 39 40 37 38 39 36 37 37 34 35 35 
34 35 35 31 32 32 30 31 31 30 30 30 29 29 29 27 28 28 27 27 27 24 24 24 
24 25 25 24 24 24 23 23 23 23 23 23 21 22 22 20 20 20 21 21 21 19 19 19 
19 19 20 18 18 19 15 16 16 15 15 15 14 14 15 14 15 14 13 13 13 13 13 13 
12 12 12 13 13 13 12 12 12 11 11 12 12 12 12 11 12 12 10 11 11 10 10 10 
11 11 11 10 10 10 9 9 9 9 9 9 9 9 9 9 9 9 8 8 8 9 9 9 
14 14 14 32 32 32 29 29 29 27 27 27 28 28 28 51 30 30 246 27 33 223 26 33 
96 16 18 0 0 0 
0 0 0 72 18 20 213 59 64 246 65 69 62 35 35 29 29 29 27 27 27 26 26 26 
32 32 32 14 14 14 8 8 8 7 7 7 7 7 7 8 8 8 7 7 7 8 8 8 
8 8 8 8 8 8 9 9 9 8 8 8 8 8 8 8 8 8 9 9 9 9 9 9 
9 9 9 9 9 9 9 9 9 10 10 10 10 10 10 10 10 10 10 10 10 11 11 11 
12 12 12 11 11 11 11 12 12 12 12 12 12 12 12 13 13 13 12 12 12 14 14 14 
14 14 14 15 15 15 15 15 15 15 15 15 16 16 16 15 16 16 17 17 17 18 19 19 
20 20 20 20 20 20 22 22 22 22 22 22 23 23 23 23 23 24 23 23 23 24 25 25 
25 25 26 26 26 27 28 28 28 29 30 30 30 31 31 31 32 32 32 33 33 33 34 34 
35 36 36 36 36 37 37 37 39 40 40 41 40 40 41 42 43 43 43 44 45 46 47 48 
45 46 47 49 49 50 50 51 51 53 53 54 53 54 55 56 57 58 56 58 59 59 60 61 
61 62 63 62 63 64 65 66 67 66 66 68 68 68 70 68 69 70 70 71 73 70 70 72 
72 73 75 69 70 72 71 73 73 68 69 71 69 70 71 70 71 73 198 198 199 213 213 214 
206 207 208 201 202 203 205 206 206 208 209 210 206 207 208 208 209 209 216 217 218 217 218 219 
221 222 223 220 221 222 222 223 224 217 218 219 216 217 218 223 224 225 215 216 217 214 215 216 
213 214 214 208 209 209 206 207 207 204 204 205 206 207 208 204 205 205 193 194 194 196 197 198 
194 194 196 191 191 192 190 191 192 191 192 193 190 192 192 188 188 189 180 181 182 178 179 179 
180 181 182 195 195 196 188 189 190 64 64 65 43 43 45 44 44 45 46 47 48 45 46 47 
47 48 49 47 49 50 46 47 48 47 48 49 47 48 49 46 47 48 46 46 47 45 46 47 
42 43 43 43 43 44 40 41 41 42 42 42 39 39 39 37 38 39 35 35 35 35 36 36 
33 34 34 33 34 34 30 31 31 30 31 31 29 29 30 28 28 28 26 26 27 26 26 27 
24 24 24 23 24 24 23 23 23 22 22 22 21 21 22 20 20 20 20 21 21 19 19 19 
20 20 20 17 18 18 16 16 16 15 15 15 15 16 16 14 14 14 15 15 15 13 13 13 
13 13 13 13 13 13 14 14 14 13 13 13 13 13 13 11 11 11 12 12 12 11 11 11 
10 10 10 11 11 11 10 10 10 10 10 10 10 10 10 10 10 10 8 8 8 10 10 10 
9 9 9 32 32 32 32 32 32 32 32 32 28 28 28 26 26 26 238 25 32 225 25 33 
128 19 23 0 0 0 
0 0 0 101 24 27 212 55 61 241 60 68 25 25 25 28 28 28 30 30 30 28 28 28 
28 28 28 6 6 6 6 6 6 5 5 5 6 6 6 7 7 7 7 7 7 7 7 7 
6 6 6 7 7 7 7 7 7 8 8 8 7 7 7 8 8 8 7 7 7 7 7 7 
7 7 7 7 7 7 8 8 8 8 8 8 8 8 8 9 9 9 9 9 9 9 9 9 
10 10 10 9 9 9 11 11 11 10 10 10 11 11 11 10 10 10 11 11 11 12 12 12 
13 13 13 14 14 14 13 13 13 15 15 15 13 14 14 15 16 16 16 16 16 17 17 17 
18 19 19 19 19 19 19 20 20 20 20 20 21 21 21 21 21 21 23 23 23 24 24 25 
25 25 26 25 25 25 27 28 28 28 29 29 29 30 30 30 30 30 31 32 32 32 33 33 
34 35 35 35 35 36 37 37 38 39 39 40 40 41 41 41 41 42 42 43 44 43 44 45 
46 46 48 49 50 50 50 51 52 52 52 53 53 53 54 55 56 57 56 57 58 59 60 61 
60 61 62 62 63 64 63 64 65 67 67 69 66 66 68 68 69 71 66 68 69 68 70 72 
68 69 70 68 69 70 67 69 71 66 67 68 64 65 66 173 174 174 209 209 209 205 207 208 
203 204 205 203 204 205 206 207 208 216 217 218 212 213 214 215 216 217 217 218 219 215 216 217 
221 222 223 225 226 228 222 223 224 220 221 222 219 220 220 219 220 220 207 208 208 213 214 215 
212 213 214 204 205 206 203 203 204 205 206 207 199 200 200 197 198 198 195 196 197 192 193 193 
195 195 196 188 188 189 193 194 195 187 187 188 181 182 182 183 184 185 181 182 182 184 184 186 
193 193 194 196 197 197 111 111 112 43 44 44 43 44 44 44 45 46 46 47 47 46 47 47 
47 48 48 46 47 48 47 47 48 46 46 47 47 48 49 45 45 46 44 45 46 42 43 44 
43 44 44 40 40 40 41 41 42 38 38 39 37 38 39 35 36 36 33 34 34 31 33 33 
31 31 31 30 31 31 28 29 29 27 28 28 27 27 27 26 26 26 24 24 25 23 24 24 
22 22 22 22 22 23 22 22 22 21 21 21 19 19 20 19 20 20 18 18 18 17 17 18 
17 17 17 15 15 15 14 14 14 14 14 14 13 13 13 13 13 13 12 13 12 12 12 12 
11 11 11 12 12 12 11 11 11 10 10 10 10 10 10 9 9 9 10 10 10 9 9 9 
9 9 9 8 8 8 9 9 9 8 8 8 8 8 8 7 7 7 7 7 7 8 8 8 
8 8 8 29 29 29 26 26 26 28 28 28 30 30 31 29 29 29 230 25 32 225 25 32 
150 20 25 0 0 0 
0 0 0 133 35 38 213 54 61 232 57 65 28 28 28 26 26 26 26 26 26 29 29 29 
31 31 31 6 6 6 7 7 7 6 6 6 7 7 7 7 7 7 7 7 7 7 7 7 
7 7 7 7 7 7 6 6 6 7 7 7 7 7 7 9 9 9 9 9 9 9 9 9 
9 9 9 9 9 9 10 10 10 9 9 9 9 9 9 10 10 10 10 10 10 11 11 11 
12 12 12 11 12 12 11 11 11 11 11 11 12 12 12 12 12 12 12 12 12 14 14 14 
13 14 14 14 14 14 14 15 15 15 16 16 15 16 16 17 18 18 17 18 18 19 19 19 
19 19 19 20 20 20 21 21 22 22 22 22 23 23 24 23 23 23 23 24 24 24 24 25 
25 25 25 28 28 28 27 29 29 28 29 30 30 31 31 32 32 32 31 32 32 34 35 35 
35 37 37 37 37 39 40 40 41 40 40 41 42 42 42 44 44 45 44 45 46 45 46 47 
49 50 51 50 50 51 53 53 54 51 52 53 55 55 56 56 57 58 60 60 61 60 61 62 
63 63 65 63 64 65 65 66 68 66 66 68 67 68 70 68 69 71 66 67 70 69 69 71 
69 70 71 68 70 71 66 67 69 66 67 69 131 131 132 205 205 206 200 201 201 191 191 192 
192 193 193 193 194 195 200 201 201 203 204 204 209 210 210 202 203 204 212 212 213 211 212 213 
213 214 215 209 210 210 207 208 208 211 212 213 207 207 208 206 207 209 204 205 205 208 210 211 
198 199 200 201 202 202 198 198 199 191 191 192 190 190 190 192 193 194 190 190 191 185 186 186 
186 187 187 186 186 187 179 180 180 184 184 186 176 176 177 177 177 178 171 171 172 179 180 180 
190 190 191 155 155 155 43 43 44 45 46 46 45 45 46 48 49 50 47 48 49 49 50 51 
48 48 49 48 49 50 47 47 48 48 49 50 47 47 48 45 46 47 44 44 45 44 44 44 
42 42 43 41 42 42 41 41 42 38 39 39 36 37 38 34 35 35 34 35 35 31 32 32 
32 33 33 30 30 30 29 30 30 29 29 29 28 28 29 25 25 26 24 25 25 24 24 24 
23 23 23 21 21 21 22 22 22 20 20 21 20 20 20 20 20 21 18 18 19 18 18 18 
17 18 18 16 16 16 15 15 15 14 15 15 13 13 13 14 14 14 13 13 13 13 13 13 
11 11 11 12 12 12 11 11 11 11 11 11 11 11 11 9 9 9 10 10 10 9 9 9 
9 9 9 9 9 9 9 9 9 9 9 9 9 9 9 8 8 8 9 9 9 8 8 8 
8 8 8 29 29 29 30 30 30 26 26 26 25 25 25 27 27 27 216 26 31 224 25 32 
172 23 28 0 0 0 
0 0 0 156 38 42 210 52 57 221 53 59 28 28 28 29 29 29 26 26 26 23 23 23 
26 26 26 5 5 5 4 4 4 4 4 4 5 5 5 6 6 6 6 6 6 6 6 6 
5 5 5 4 4 4 5 5 5 6 6 6 5 5 5 7 7 7 6 6 6 6 6 6 
7 7 7 6 6 6 7 7 7 8 8 8 8 8 8 9 9 9 8 8 8 9 9 9 
9 9 9 9 9 9 9 9 9 9 9 9 9 9 9 9 9 10 10 10 11 11 11 11 
12 12 12 12 13 13 13 13 13 13 13 13 15 16 16 15 15 15 16 16 17 17 18 18 
17 17 17 18 18 19 20 20 20 19 19 19 19 19 20 22 22 22 22 22 22 23 23 24 
25 25 25 26 26 27 26 27 27 28 29 29 29 29 30 29 31 31 31 32 32 34 35 35 
34 35 35 36 36 37 37 37 38 39 40 40 40 40 40 42 42 44 42 43 44 46 46 47 
47 47 48 48 49 50 51 51 52 51 52 53 53 54 55 55 56 57 58 59 60 60 60 61 
61 62 63 61 62 64 65 67 68 64 65 66 67 68 69 64 65 67 67 68 71 65 66 68 
68 69 69 63 65 67 66 66 68 91 92 94 202 202 203 207 207 208 192 192 193 195 195 196 
196 198 198 197 199 200 201 201 202 203 204 206 206 207 208 204 205 205 212 213 214 214 215 216 
208 209 209 214 215 216 212 212 213 207 208 209 209 210 211 207 207 208 203 204 205 205 206 207 
202 203 203 201 202 203 193 194 194 194 195 195 190 190 191 193 193 194 189 190 190 188 189 190 
186 186 187 182 183 184 178 178 178 176 178 178 180 180 181 178 178 178 177 177 177 193 193 193 
181 182 182 47 47 48 44 45 45 43 44 45 44 45 46 45 46 47 47 47 47 46 47 48 
46 47 48 46 47 47 46 46 46 46 46 47 45 45 46 44 44 45 41 42 43 42 42 44 
39 40 40 40 40 41 37 38 39 36 36 38 32 33 34 33 34 34 30 31 31 30 31 31 
29 30 30 28 29 29 26 27 27 26 27 27 25 25 25 24 24 25 22 23 23 21 21 21 
21 21 22 20 20 20 20 20 20 18 18 18 17 17 17 17 17 17 16 16 17 15 16 16 
14 15 15 13 13 13 13 13 13 13 13 13 11 11 11 12 12 12 11 11 11 10 10 10 
9 9 9 9 9 10 10 10 10 9 9 9 9 9 9 9 9 9 8 8 8 8 8 8 
8 8 8 7 7 7 8 8 8 7 7 7 6 6 6 6 6 6 6 6 6 6 6 6 
6 6 6 24 24 24 28 28 28 29 29 29 28 28 28 25 25 25 197 25 31 225 25 32 
190 24 30 0 0 0 
0 0 0 179 44 47 210 51 55 205 50 56 23 23 23 24 24 24 27 27 27 28 28 28 
24 24 24 3 3 3 3 3 3 4 4 4 4 4 4 5 5 5 5 5 5 5 5 5 
5 5 5 4 4 4 4 4 4 6 6 6 5 5 5 5 5 5 6 6 6 5 5 5 
6 6 6 6 6 6 7 7 7 8 8 8 8 8 8 8 8 8 8 8 8 9 9 9 
8 9 9 8 8 8 8 8 8 10 10 10 10 10 10 10 10 10 11 11 11 10 10 10 
11 11 11 12 13 13 12 13 13 13 14 14 14 14 14 15 15 15 16 16 16 16 17 17 
18 18 18 19 19 19 20 20 20 20 20 21 20 20 20 21 21 21 23 23 23 24 24 24 
25 25 25 25 26 26 27 28 28 28 29 30 29 29 29 29 30 30 31 32 32 32 33 33 
33 34 35 36 36 37 37 37 38 38 39 40 40 40 41 41 42 43 42 43 44 46 47 47 
47 47 48 49 49 50 50 51 52 53 54 55 53 54 55 56 57 58 56 57 58 60 61 63 
60 61 62 63 64 65 64 64 66 65 65 67 64 65 66 65 65 67 66 66 68 66 68 68 
64 65 67 63 64 66 67 67 69 199 200 201 213 213 214 204 205 205 205 206 207 209 210 211 
205 206 207 212 213 215 214 215 216 210 211 212 216 217 217 214 215 216 214 215 217 226 227 228 
217 218 219 220 220 221 229 230 231 216 217 217 221 223 224 215 216 217 215 216 218 208 209 210 
205 206 207 210 210 211 205 207 207 200 201 202 201 202 203 199 200 201 193 194 194 192 193 193 
193 194 194 190 190 191 189 189 191 190 191 191 187 188 189 182 183 183 198 199 200 198 199 200 
86 86 87 42 42 44 44 45 46 44 45 45 47 47 48 45 46 47 48 48 50 45 47 47 
47 48 49 45 46 47 45 46 47 45 46 47 44 45 46 41 42 42 41 41 42 39 39 40 
39 40 40 37 37 37 37 37 37 33 34 36 32 33 33 32 33 33 30 30 30 29 30 30 
27 28 28 27 28 28 24 25 25 26 26 26 23 23 24 23 23 23 21 21 21 21 21 22 
19 19 19 19 19 19 18 18 19 18 18 18 16 16 16 16 16 16 15 15 15 14 14 14 
13 13 13 12 13 12 11 12 12 12 13 12 10 10 10 10 10 11 10 10 10 8 8 9 
10 10 10 8 8 8 10 10 10 8 8 8 8 8 8 7 7 7 7 8 7 7 7 7 
6 6 6 6 6 6 7 7 7 6 6 6 5 5 5 6 6 6 6 6 6 5 5 5 
5 5 5 20 20 20 24 24 24 24 24 24 26 26 26 28 28 28 172 27 30 223 25 32 
203 23 30 0 0 0 
0 0 0 191 44 49 211 49 54 187 47 51 28 28 28 26 26 26 24 24 24 27 27 27 
23 23 23 5 5 5 6 6 6 5 5 5 6 6 6 6 6 6 6 6 6 8 8 8 
7 7 7 6 6 6 7 7 7 7 7 7 7 7 7 7 7 7 7 7 7 8 8 8 
8 8 8 8 8 8 7 7 7 8 8 8 9 9 9 8 8 8 10 10 10 9 9 9 
10 10 10 11 11 11 10 10 10 11 11 11 11 11 11 12 12 13 12 12 12 13 13 13 
13 14 14 14 14 14 14 14 14 15 16 16 17 17 17 16 17 17 18 18 18 18 18 18 
18 18 19 20 20 20 20 20 20 21 21 22 23 23 23 23 24 24 25 25 25 27 27 27 
26 27 27 27 28 28 28 30 30 31 31 31 30 32 32 32 33 33 34 35 35 35 35 35 
37 37 38 38 38 39 40 41 41 40 40 41 42 43 44 43 44 44 47 48 49 46 47 48 
49 50 51 51 51 52 52 54 55 53 54 55 56 56 58 58 59 60 60 61 62 62 63 64 
62 62 64 64 65 66 63 64 66 65 66 67 65 66 66 67 67 69 63 64 66 66 67 68 
63 64 66 63 64 65 176 176 176 217 218 218 208 208 210 204 205 206 205 206 206 209 210 210 
211 212 213 214 215 216 218 219 221 218 219 220 218 219 221 221 222 223 224 225 226 228 229 230 
221 222 223 223 224 225 226 227 228 220 221 222 225 227 228 213 214 215 211 212 212 215 216 217 
207 207 208 208 208 209 208 209 209 203 204 205 200 201 202 201 202 203 199 199 201 198 199 200 
197 198 200 196 196 197 194 196 196 195 196 197 192 193 194 199 199 200 203 205 206 141 141 142 
43 44 45 45 46 46 45 47 47 48 48 48 47 48 48 49 50 51 48 49 50 48 49 50 
48 49 49 47 48 49 46 47 49 45 46 47 44 44 46 43 43 44 41 41 42 40 40 40 
41 41 41 38 38 39 36 37 38 34 35 35 35 36 36 32 33 33 31 33 33 30 30 30 
29 30 30 28 29 29 27 27 28 25 25 25 25 25 26 24 25 25 22 22 23 21 21 21 
21 21 21 20 21 21 19 19 19 17 17 17 17 17 17 17 17 18 16 17 17 16 17 17 
13 14 14 13 14 14 13 13 13 13 13 13 12 13 13 13 13 13 12 12 12 10 10 10 
11 11 11 10 10 10 10 11 11 10 10 10 10 10 10 8 8 8 9 9 9 8 8 8 
8 8 8 8 8 8 8 8 8 8 8 8 7 7 7 7 7 7 7 7 7 6 6 6 
6 6 6 19 19 19 30 30 30 28 28 28 26 26 26 25 25 25 134 27 30 223 25 32 
208 24 30 7 1 1 
0 0 0 200 45 49 213 48 52 168 43 46 28 28 28 30 30 30 30 30 30 26 26 26 
22 22 22 6 6 6 7 7 7 6 6 6 7 7 7 7 7 7 7 7 7 7 7 7 
7 7 7 7 7 7 7 7 7 8 8 8 8 8 8 8 8 8 8 8 8 8 8 8 
8 8 8 9 9 9 9 9 9 9 9 9 9 9 9 9 9 9 10 10 10 11 11 11 
11 11 11 12 12 12 11 11 11 13 13 13 11 12 12 13 13 13 12 13 12 13 13 13 
14 15 15 14 15 15 16 16 16 16 17 17 17 17 17 19 19 19 18 19 19 20 20 20 
21 21 21 22 22 22 22 22 22 23 23 23 23 24 24 24 25 25 25 25 25 28 28 28 
28 29 29 29 29 29 30 31 31 31 32 32 32 33 33 34 35 35 35 36 36 37 38 39 
37 37 38 40 41 41 41 42 42 42 42 43 43 44 45 45 45 47 47 48 49 49 49 50 
52 52 53 52 53 53 54 55 56 54 56 56 59 60 61 58 60 61 62 62 63 62 63 64 
65 66 67 63 64 66 66 67 69 64 65 66 68 69 69 66 66 68 66 67 67 64 65 66 
63 63 65 131 132 133 204 205 206 204 205 205 190 190 191 190 191 192 197 197 198 197 198 200 
202 203 204 202 203 203 207 208 208 205 205 206 200 201 201 210 211 212 217 218 219 214 215 216 
210 211 211 212 213 214 207 208 208 211 211 212 209 210 210 198 198 199 204 205 206 204 205 206 
196 196 197 201 202 204 189 190 191 189 189 190 193 195 195 188 189 189 190 190 191 189 190 191 
185 186 186 182 182 183 181 182 182 180 180 182 184 184 185 193 193 194 176 176 177 43 44 44 
46 46 47 46 47 48 47 47 49 49 49 50 49 49 50 50 50 52 49 49 50 49 50 51 
47 48 49 49 50 51 47 48 49 46 47 49 45 45 47 44 44 45 40 40 41 42 42 43 
40 40 40 39 39 40 36 36 37 34 35 35 34 35 35 33 34 34 31 31 32 30 30 30 
29 31 31 27 28 28 27 27 27 25 25 26 24 24 25 23 24 24 24 24 24 22 22 22 
22 22 22 20 20 21 20 20 21 19 19 19 18 18 18 18 18 18 16 17 17 15 15 15 
14 15 15 13 14 14 14 14 14 13 13 13 12 13 13 13 13 13 11 11 11 11 11 11 
12 12 12 10 10 10 10 10 10 10 10 10 9 9 9 10 10 10 9 9 9 9 9 9 
9 9 9 9 9 9 8 8 8 9 9 9 9 9 9 9 9 9 9 9 9 7 7 7 
7 7 7 17 17 17 27 27 27 28 28 28 30 30 30 29 29 29 106 26 28 224 25 32 
206 22 30 21 2 3 
0 0 0 209 43 50 212 45 51 148 40 42 25 25 25 25 25 25 28 28 28 30 30 30 
20 20 20 6 6 6 5 5 5 6 6 6 6 6 6 7 7 7 6 6 6 7 7 7 
7 7 7 8 8 8 8 8 8 8 8 8 9 9 9 8 8 8 9 9 9 8 8 8 
8 8 8 9 9 9 9 9 9 10 10 10 8 9 9 10 10 10 10 10 10 10 10 11 
11 11 11 10 10 10 11 11 11 12 12 12 12 12 13 12 12 12 14 14 14 14 14 14 
14 14 14 14 15 15 15 17 17 17 17 17 16 16 17 18 19 19 19 19 19 20 20 21 
21 21 21 21 21 21 22 22 23 23 23 23 23 23 23 24 24 25 27 27 27 25 26 26 
28 29 29 30 30 30 31 32 32 31 31 31 32 33 33 34 35 35 35 36 36 38 38 38 
38 39 40 40 41 41 41 41 42 42 43 44 43 44 44 45 46 47 47 48 49 50 51 52 
51 51 52 54 55 55 54 55 56 56 58 59 58 59 60 61 61 62 60 61 63 62 63 65 
64 64 65 63 64 65 65 65 67 64 65 67 66 67 69 65 66 66 65 66 67 62 63 64 
94 95 96 209 209 210 219 219 220 209 210 212 211 212 213 206 207 208 211 212 213 214 215 216 
222 223 224 217 219 220 219 220 221 216 217 218 221 223 223 224 225 226 226 227 228 225 226 227 
227 228 229 219 220 220 222 223 224 217 218 220 220 221 222 216 218 219 216 217 218 216 217 218 
208 209 210 205 206 207 202 203 204 203 204 204 211 212 213 203 204 206 196 196 197 191 192 193 
192 193 194 193 194 195 188 189 189 188 189 190 206 206 207 199 200 200 67 68 69 45 46 46 
47 48 49 47 47 48 48 49 50 49 49 50 50 51 52 48 49 51 49 50 51 47 48 49 
48 49 50 47 48 49 47 47 48 45 45 47 44 45 46 43 43 43 42 42 43 40 41 42 
39 39 41 38 38 39 35 36 36 34 35 35 32 33 33 32 33 33 30 30 30 30 31 31 
28 29 29 27 28 28 26 26 26 25 25 26 23 23 23 23 23 23 21 21 22 22 22 22 
21 21 21 20 20 20 19 20 20 19 19 19 17 17 18 17 17 17 15 16 16 14 15 15 
15 15 15 13 13 13 13 13 13 13 13 13 12 12 13 12 12 12 10 10 10 11 11 11 
11 11 11 10 11 11 9 9 9 10 10 10 10 10 10 9 9 9 9 9 9 9 9 9 
8 8 8 9 9 9 8 8 8 8 8 8 8 8 8 8 8 8 7 7 7 6 6 6 
7 7 7 14 14 14 29 29 29 25 25 25 25 25 25 29 29 29 79 30 30 224 27 33 
207 24 30 30 3 4 
8 1 2 208 41 49 210 43 50 124 35 39 29 29 29 28 28 28 25 25 25 24 24 24 
17 17 17 5 5 5 5 5 5 6 6 6 5 5 5 6 6 6 6 6 6 6 6 6 
6 6 6 7 7 7 7 7 7 6 6 6 7 7 7 6 6 6 6 6 6 8 8 8 
8 8 8 8 8 8 9 9 9 8 8 8 8 9 8 9 9 9 9 9 9 9 9 9 
9 9 9 9 9 9 11 11 11 10 10 10 12 12 12 12 12 12 12 12 12 13 13 13 
13 14 14 15 15 15 15 15 16 16 16 16 17 17 17 17 18 18 18 18 18 19 19 20 
20 20 20 20 21 21 21 21 21 22 22 22 23 24 24 24 24 25 27 27 27 26 27 27 
28 29 29 29 30 30 31 31 31 30 31 32 32 33 33 34 34 34 36 36 37 37 37 38 
38 39 39 40 40 40 42 42 42 42 43 44 44 44 46 46 46 47 49 50 50 50 51 52 
51 52 53 53 54 54 54 56 57 58 58 60 59 59 60 60 60 61 60 60 61 63 64 66 
61 62 63 64 65 66 63 63 65 65 66 66 62 63 65 63 64 65 60 62 62 66 66 68 
202 204 204 216 216 218 212 213 214 206 207 208 216 217 218 219 220 221 217 219 220 214 215 216 
219 220 221 224 225 227 223 224 225 225 226 227 230 232 233 228 230 231 227 229 230 229 231 232 
229 231 232 225 226 227 227 228 229 227 228 229 219 220 220 221 222 223 216 216 217 215 216 217 
219 220 222 214 215 217 212 212 213 207 209 210 212 213 214 207 209 209 199 200 201 201 203 204 
193 194 194 190 191 192 190 191 191 201 202 203 208 209 209 116 117 118 45 45 46 47 48 48 
47 47 49 47 48 49 49 49 50 49 50 51 50 50 51 50 51 51 48 49 49 47 48 49 
48 49 49 46 47 48 45 46 47 43 43 45 42 42 43 39 39 40 41 42 42 39 39 39 
38 39 40 35 36 37 34 36 36 31 32 32 32 33 33 30 30 30 30 31 31 28 29 29 
27 28 28 27 27 27 25 25 25 23 23 24 22 22 22 21 21 21 20 20 20 20 21 21 
19 19 20 19 19 19 18 19 19 17 17 17 16 16 16 16 16 16 14 15 15 14 15 15 
13 13 13 12 12 12 13 13 13 12 12 12 11 11 11 11 11 11 10 10 10 10 10 10 
9 9 9 9 9 9 10 10 10 8 8 8 9 9 9 8 8 8 8 8 8 8 8 8 
8 8 8 7 7 7 7 7 7 6 6 6 6 6 6 7 7 7 5 5 5 7 7 7 
6 6 6 9 9 9 29 29 29 29 29 29 26 26 26 24 24 24 41 24 24 224 27 33 
207 25 31 43 6 8 
16 3 3 209 41 47 211 42 49 94 30 35 26 26 26 29 29 29 31 31 31 29 29 29 
14 14 14 7 7 7 8 8 8 8 8 8 8 8 8 7 7 7 7 7 7 8 8 8 
8 8 8 8 8 8 8 8 8 8 8 8 8 8 8 8 8 8 9 9 9 9 9 9 
9 9 9 9 9 9 10 10 10 9 10 10 11 11 11 10 10 11 10 11 11 12 12 12 
10 10 11 11 11 11 12 12 12 13 13 13 13 14 14 14 14 14 14 14 14 14 14 14 
15 16 16 15 17 17 17 17 17 19 19 20 19 19 20 20 20 20 20 20 20 21 21 21 
21 22 22 22 22 23 23 23 23 23 24 24 25 25 26 27 27 27 28 29 29 29 29 29 
29 30 30 31 32 32 31 32 32 33 34 34 33 34 35 35 36 37 37 38 39 39 39 40 
40 41 41 41 42 43 43 43 44 45 46 47 47 47 48 48 49 50 50 51 52 51 52 53 
54 55 55 54 55 56 59 60 61 58 58 60 62 62 63 60 61 63 63 64 65 62 64 65 
65 65 66 65 65 66 65 65 66 64 64 66 65 66 67 64 64 65 61 63 63 176 176 177 
212 213 214 206 206 207 201 203 204 208 209 210 205 206 208 206 207 208 215 216 217 212 212 213 
214 215 216 217 218 219 222 224 225 227 228 229 224 225 226 223 224 225 222 223 224 223 224 225 
220 221 222 221 222 222 218 219 220 212 212 213 212 213 214 213 213 214 211 211 213 208 208 209 
209 210 211 205 206 207 196 197 197 198 198 199 198 199 200 195 196 197 189 189 191 194 195 196 
187 188 189 191 191 192 196 196 197 203 203 203 165 166 167 45 46 47 46 46 48 49 50 51 
49 50 51 50 50 52 51 51 52 52 53 53 49 50 52 51 51 53 49 50 50 50 51 52 
48 49 50 50 50 51 45 46 47 44 45 46 42 42 43 43 43 44 41 42 42 40 40 41 
38 38 39 36 37 37 35 36 36 34 35 35 33 34 34 30 31 32 30 31 31 29 30 30 
28 29 29 27 27 27 26 26 27 24 25 25 24 24 24 22 22 23 23 23 23 20 20 20 
21 22 22 20 20 20 19 20 20 18 18 19 18 19 19 17 18 18 15 16 16 15 16 16 
14 14 14 14 14 14 13 13 13 13 13 14 13 13 13 12 12 12 12 12 12 11 11 11 
10 11 11 11 12 12 11 11 11 10 10 10 10 10 10 9 9 9 9 9 9 9 9 9 
9 9 9 8 8 8 8 8 8 9 9 9 9 9 9 8 8 8 7 7 7 8 8 8 
8 8 8 8 8 8 26 26 26 27 27 27 29 29 29 30 30 30 29 29 29 219 28 34 
208 27 32 56 10 11 
17 3 3 207 40 47 213 41 48 71 33 35 28 28 28 26 26 26 27 27 27 30 30 30 
13 13 13 8 8 8 8 8 8 8 8 8 9 9 9 8 8 8 8 8 8 9 9 9 
9 9 9 9 9 9 8 8 8 9 9 9 9 9 9 9 9 9 9 10 10 10 10 10 
10 10 10 10 10 10 11 11 11 11 11 11 12 12 12 11 11 11 13 13 13 12 12 12 
12 12 12 12 12 12 13 13 13 14 14 14 14 14 14 15 15 15 15 16 16 15 16 16 
16 16 16 17 18 18 19 19 19 19 20 20 19 20 20 21 21 21 22 22 23 23 23 23 
23 23 23 24 24 24 26 26 26 25 25 26 27 27 28 28 28 28 29 30 30 31 31 31 
31 31 31 32 33 33 34 35 35 33 34 34 36 37 37 38 38 40 40 40 40 42 42 43 
42 43 43 43 43 44 44 44 46 47 47 49 48 49 50 50 51 52 51 52 53 53 54 55 
55 56 57 57 58 58 58 59 61 60 61 62 63 63 63 62 63 65 63 64 66 64 65 66 
65 66 66 64 65 66 66 66 68 63 64 66 65 66 67 60 61 62 133 134 135 207 208 208 
200 200 200 196 196 197 201 201 203 197 197 198 197 198 198 204 204 205 201 202 203 202 203 203 
205 206 207 212 213 214 212 213 213 211 211 212 212 213 214 216 217 218 212 213 213 218 219 220 
210 211 212 207 208 209 210 211 211 202 202 203 204 205 205 206 206 207 202 203 203 192 193 193 
193 194 195 190 190 191 188 188 189 191 192 193 184 185 186 185 185 185 181 182 183 183 184 184 
178 179 180 181 181 182 194 195 195 185 185 187 54 55 56 48 48 48 49 50 51 49 50 51 
51 52 53 52 52 54 53 53 55 53 53 54 52 53 55 52 52 53 51 52 53 49 50 52 
49 50 50 49 50 51 46 47 49 44 45 46 42 43 44 42 43 43 41 42 42 41 42 42 
38 39 39 36 37 38 35 35 35 35 36 36 32 32 33 32 33 33 30 31 31 29 30 30 
29 29 29 28 28 28 26 26 26 26 27 27 25 25 25 23 23 24 24 24 24 21 21 22 
22 22 22 19 20 20 21 21 21 19 19 19 19 19 19 16 17 17 16 16 16 14 15 15 
15 16 15 15 15 15 14 14 14 14 14 14 14 14 14 12 12 12 12 12 13 13 13 13 
12 13 13 11 11 12 12 12 12 10 10 10 11 11 11 10 10 10 10 10 10 10 10 10 
9 9 9 9 9 9 9 9 9 10 10 10 10 10 10 10 10 10 8 8 8 9 9 9 
8 8 8 9 9 9 31 31 31 29 29 29 26 26 26 26 26 26 30 30 30 213 30 36 
208 29 35 58 10 12 
22 4 4 208 38 44 211 39 45 59 27 30 30 30 30 30 30 30 27 27 27 25 25 25 
10 10 10 7 7 7 7 7 7 7 7 7 7 7 7 7 7 7 7 7 7 7 7 7 
7 7 7 7 7 7 8 8 8 8 8 8 8 8 8 8 8 8 8 8 8 9 9 9 
9 9 9 9 9 9 9 9 9 9 9 9 11 11 11 10 11 11 11 11 11 10 10 10 
11 11 11 12 12 12 12 13 13 13 13 13 13 14 14 14 14 14 14 14 14 14 15 15 
15 16 16 16 16 16 17 18 18 19 19 19 19 19 19 20 20 20 20 20 20 22 22 22 
22 22 23 23 24 24 23 24 24 25 25 25 26 26 26 27 28 28 28 29 29 29 30 30 
30 31 31 31 32 32 33 34 34 34 34 34 36 36 36 37 38 39 39 39 40 40 40 40 
41 42 43 43 43 43 44 45 46 47 47 49 47 48 49 50 50 52 51 52 53 52 53 54 
53 54 55 57 58 59 57 57 59 60 61 62 60 60 61 62 63 63 62 62 63 63 64 65 
61 63 64 64 64 65 62 62 64 62 63 64 61 62 62 91 92 93 199 200 200 206 207 207 
187 187 188 191 192 193 193 194 194 196 197 198 197 198 199 197 198 198 203 204 204 205 206 207 
209 210 211 212 213 214 216 216 217 212 213 215 213 214 214 209 209 210 212 213 214 216 217 218 
209 210 211 206 207 208 206 207 207 206 206 207 199 200 200 196 197 198 195 195 196 195 197 197 
187 189 189 184 184 184 190 191 192 190 190 191 183 184 184 178 178 178 182 182 183 175 176 177 
175 175 176 191 191 192 193 193 194 88 89 90 47 47 49 50 50 51 49 50 50 50 51 51 
51 52 53 52 52 53 53 53 54 51 51 53 52 52 52 50 50 51 51 52 52 49 49 50 
49 49 50 46 46 47 44 45 46 43 44 44 42 42 44 40 41 41 40 41 42 38 39 40 
36 37 38 34 35 35 33 34 34 31 32 32 32 32 32 30 31 32 29 30 30 27 28 28 
27 27 27 25 25 26 24 24 24 23 24 24 22 22 23 22 22 23 20 20 20 21 21 22 
19 19 19 19 19 19 18 18 19 17 18 18 15 16 16 16 16 16 14 14 14 14 14 14 
14 14 14 14 14 14 13 13 13 13 13 13 12 12 12 11 11 11 10 11 11 10 11 11 
10 10 10 10 10 10 9 9 9 9 9 9 10 10 10 8 8 8 9 9 9 9 9 9 
8 8 8 8 8 8 8 8 8 8 8 8 9 9 9 6 6 6 7 7 7 7 7 7 
7 8 8 8 8 8 26 26 26 30 30 30 30 30 30 28 28 28 25 25 25 212 30 37 
209 29 36 65 11 12 
24 4 4 209 37 42 211 38 44 52 26 26 26 26 26 26 26 26 30 30 30 31 31 31 
11 11 11 8 8 8 8 8 8 7 7 7 8 8 8 8 8 9 8 8 8 8 8 8 
8 8 8 9 9 9 9 9 9 9 9 9 9 9 9 9 9 9 9 9 9 10 10 10 
10 10 10 10 10 10 10 10 10 11 11 11 10 10 10 12 12 12 12 12 12 13 13 13 
11 11 11 12 12 12 14 14 14 14 14 14 15 15 15 14 15 15 15 15 15 16 16 16 
16 17 18 18 18 18 19 19 19 19 20 20 20 20 20 20 20 21 22 22 22 23 23 23 
23 23 23 24 24 24 24 24 25 26 26 27 26 26 27 28 29 29 30 31 31 30 31 31 
31 32 32 32 32 32 34 35 35 34 35 36 36 37 38 39 39 40 41 41 41 41 42 42 
43 43 44 43 43 45 46 47 48 47 48 49 50 51 52 51 51 52 54 54 55 52 53 54 
56 57 58 57 58 58 59 60 61 61 61 62 62 62 63 61 62 63 63 63 65 64 64 65 
62 63 65 63 64 65 61 63 65 61 62 63 67 68 68 199 200 201 214 214 215 205 207 208 
205 205 206 205 206 208 210 211 212 209 209 211 212 213 214 212 213 214 218 219 220 220 222 223 
223 224 225 221 222 224 224 225 226 225 226 227 227 228 229 228 230 230 224 225 225 219 220 220 
222 223 224 220 221 223 217 218 219 220 220 222 210 211 212 214 215 216 213 214 215 206 207 208 
208 209 209 207 208 208 205 206 207 202 202 204 196 196 197 194 195 196 195 196 196 194 194 196 
202 203 204 203 204 205 144 145 146 46 47 48 48 48 49 51 51 51 49 51 52 51 53 54 
51 51 53 52 53 54 52 52 53 52 53 54 50 51 52 52 52 53 49 50 52 50 50 51 
48 49 49 46 46 47 43 44 45 43 43 44 43 43 43 40 41 41 40 40 40 37 38 39 
35 36 36 34 35 35 33 34 35 32 32 32 32 33 33 30 30 30 29 29 29 28 28 28 
27 27 27 25 25 26 24 24 25 24 24 24 23 23 24 22 22 22 21 21 21 20 21 21 
20 20 20 18 18 18 19 19 19 17 17 17 16 17 17 16 16 16 15 15 15 16 16 16 
13 13 13 14 14 14 13 13 13 11 12 12 12 12 12 12 12 12 12 12 12 11 12 12 
11 11 11 11 11 11 10 10 10 9 10 9 10 10 10 9 9 9 9 9 9 8 8 8 
9 9 9 8 8 8 9 9 9 9 9 9 8 8 8 8 8 8 8 8 8 8 8 8 
8 8 8 8 8 8 26 26 26 26 26 26 26 26 26 29 29 29 31 31 31 211 31 38 
208 30 37 66 11 13 
28 4 5 208 35 41 211 36 42 31 31 31 31 31 31 27 27 27 27 27 27 28 28 28 
10 10 10 8 8 8 8 8 8 9 9 9 8 8 8 9 9 9 8 8 8 9 9 9 
8 8 8 9 9 9 8 8 8 10 10 10 10 10 10 10 10 10 9 9 9 10 10 10 
11 11 11 10 10 10 12 12 12 11 11 11 11 12 12 11 11 11 12 12 12 13 13 13 
13 13 13 13 13 14 14 14 14 14 14 14 15 15 15 15 15 15 16 16 16 16 16 17 
18 18 18 19 19 19 19 19 20 20 20 20 21 21 21 21 21 21 22 23 23 23 24 24 
23 23 23 25 26 26 26 26 26 27 27 27 27 28 28 29 30 30 30 31 31 31 32 32 
32 33 33 34 35 36 34 35 35 36 36 37 37 37 39 40 40 41 40 40 41 42 42 42 
42 42 43 44 45 46 46 47 49 50 50 51 51 52 53 53 53 55 54 54 54 54 54 55 
57 58 59 58 59 60 61 62 62 60 61 62 62 63 64 62 63 64 64 64 66 62 63 64 
63 64 66 61 62 64 63 63 65 58 59 60 170 171 171 203 203 204 198 199 199 195 196 197 
191 191 192 196 197 198 195 196 196 196 197 197 203 204 205 203 204 205 209 209 210 207 208 208 
214 215 215 215 216 217 216 217 217 216 217 218 216 217 218 214 214 215 208 209 210 207 208 209 
209 209 210 205 205 206 203 204 204 200 201 201 199 200 200 199 199 200 191 191 193 196 196 197 
194 195 195 190 192 192 191 192 192 188 190 190 190 191 191 183 185 185 185 186 186 184 185 185 
200 201 202 177 177 178 49 49 50 47 47 49 51 51 53 51 51 52 52 53 55 52 52 54 
53 54 56 53 54 55 53 53 55 53 53 54 51 52 52 53 53 53 50 51 53 49 49 50 
47 47 49 46 47 48 44 44 45 43 43 45 41 42 42 42 42 42 39 39 39 37 38 39 
35 36 36 35 35 35 33 34 34 33 33 33 31 32 32 29 30 30 29 30 30 27 28 28 
27 27 27 25 26 26 25 25 25 23 23 24 23 23 23 22 22 22 21 21 22 20 20 20 
18 19 19 19 19 19 19 19 19 18 18 18 16 16 16 15 16 16 15 16 16 14 14 14 
14 14 14 14 14 14 13 13 13 12 12 12 12 12 12 12 12 12 12 13 13 12 12 12 
11 11 11 10 10 10 11 11 11 10 10 10 9 9 9 10 10 10 10 10 10 10 10 10 
8 8 8 9 9 9 8 8 8 9 9 9 8 8 8 9 9 9 8 8 8 9 9 9 
8 8 8 9 9 9 27 27 27 30 30 30 27 27 27 26 26 26 27 27 27 205 31 39 
208 31 39 72 12 15 
29 4 5 206 33 40 211 34 41 26 26 26 28 28 28 30 30 30 29 29 29 26 26 26 
8 8 8 8 8 8 8 8 8 8 8 8 8 8 8 8 8 8 7 7 7 8 8 8 
9 9 9 8 8 8 8 8 8 8 8 8 9 9 9 9 9 9 9 9 9 10 10 10 
10 10 10 10 10 10 11 11 11 10 10 10 11 11 11 11 11 11 12 12 12 12 12 12 
13 13 13 13 13 13 13 13 13 14 14 14 13 14 14 16 16 16 16 16 16 15 16 16 
18 18 18 19 19 20 19 20 20 20 20 20 21 21 21 22 22 22 22 22 22 23 23 23 
23 23 23 24 24 25 26 26 27 28 28 28 28 29 29 29 29 29 30 31 31 32 32 32 
32 33 33 33 34 34 34 35 35 36 36 37 38 38 39 38 39 40 41 42 42 42 42 44 
43 43 44 45 46 47 47 47 48 49 49 50 51 51 52 54 55 55 51 53 54 55 57 57 
57 58 58 59 60 61 58 60 60 61 62 63 60 61 62 63 63 64 62 62 63 61 62 63 
60 62 63 61 61 62 59 60 61 130 130 131 202 203 203 198 199 200 188 189 190 188 189 189 
186 187 187 193 194 194 195 195 197 192 193 194 197 198 198 199 200 200 206 206 207 204 205 205 
212 213 214 212 213 213 211 211 212 221 222 222 210 211 212 207 208 208 206 207 207 206 207 208 
208 209 210 202 202 203 204 206 206 201 202 202 195 195 196 190 191 191 193 193 194 188 188 189 
188 188 189 189 189 190 185 185 186 188 188 189 181 181 182 182 183 183 179 180 181 195 195 195 
186 186 187 71 71 73 48 49 50 49 50 51 52 52 54 52 53 54 53 53 54 52 53 55 
55 56 56 52 53 54 54 54 55 49 51 52 51 52 52 49 49 50 50 50 51 47 47 48 
46 47 48 45 46 46 43 43 44 40 41 42 40 40 42 39 40 41 37 38 39 35 36 37 
33 34 34 33 33 33 32 32 32 32 33 33 30 30 30 29 29 29 27 27 27 26 26 26 
24 24 25 24 25 25 23 23 23 23 23 23 21 22 22 22 22 22 19 19 20 20 20 20 
19 19 19 19 19 20 18 18 18 16 16 17 15 15 15 14 15 15 15 15 15 14 14 14 
13 13 13 13 13 13 12 12 12 12 12 12 11 11 11 11 11 11 10 10 10 11 11 11 
10 10 10 9 9 9 9 9 9 9 9 9 9 9 9 9 9 9 9 9 9 8 8 8 
8 8 8 9 9 9 8 8 8 8 8 8 8 8 8 7 7 7 7 7 7 7 7 7 
7 7 7 7 7 7 25 25 25 28 28 28 30 30 30 30 30 30 27 27 27 205 33 40 
208 32 39 75 13 15 
29 4 5 207 32 39 213 33 41 27 27 27 25 25 25 24 24 24 26 26 26 28 28 28 
6 6 6 6 6 6 6 6 6 6 6 6 5 5 5 6 6 6 7 7 7 7 7 7 
7 7 7 7 7 7 7 7 7 8 8 8 8 8 8 8 8 8 8 8 8 8 8 8 
9 10 9 9 9 9 10 10 10 9 10 10 10 10 10 10 10 10 11 11 11 12 12 12 
10 11 11 12 12 12 12 12 12 13 13 13 14 14 14 14 15 15 14 14 14 16 16 16 
16 16 17 17 18 18 18 18 18 19 19 19 19 19 19 20 21 21 20 20 21 22 22 22 
22 23 23 23 23 24 24 24 24 27 27 27 27 28 28 28 29 29 29 30 30 30 31 31 
32 33 33 33 34 34 35 35 36 35 35 37 38 38 39 39 39 40 41 42 42 40 41 42 
42 43 44 43 44 44 48 49 49 48 48 49 51 52 53 50 51 51 53 53 54 53 54 54 
56 57 58 58 58 59 58 58 59 59 60 60 60 61 62 61 61 62 59 61 61 59 61 63 
58 58 61 60 60 62 89 90 90 193 194 194 201 203 203 190 190 191 186 187 188 186 187 187 
191 192 193 196 197 198 191 191 191 201 202 202 191 192 193 192 193 193 206 207 208 203 204 205 
210 210 211 209 210 211 215 216 217 210 211 211 206 207 207 207 208 209 206 206 207 203 204 204 
204 204 205 196 197 197 197 197 198 194 194 195 192 192 193 187 188 188 183 183 184 186 187 187 
186 187 188 183 184 184 184 184 186 181 182 182 179 180 180 174 175 175 190 191 192 191 191 192 
115 116 116 48 49 50 48 49 50 51 51 52 50 51 53 52 53 54 51 52 52 53 54 55 
52 52 53 54 54 54 52 52 53 49 51 52 50 50 51 48 50 50 48 48 49 45 46 47 
44 44 45 42 42 43 41 41 42 39 40 40 40 40 41 37 37 38 36 36 37 33 34 34 
33 34 34 30 31 31 31 31 31 30 30 30 28 29 29 25 26 26 26 26 26 25 25 25 
24 24 25 22 23 23 22 22 22 21 21 21 20 20 20 20 20 21 18 18 18 18 19 19 
17 17 18 17 17 17 15 16 16 15 15 15 13 13 13 13 14 14 13 13 13 12 12 12 
11 11 11 11 11 11 10 10 10 10 10 10 10 10 11 9 9 9 9 9 9 9 9 9 
9 9 9 8 8 8 9 9 9 8 8 8 8 8 8 8 8 8 6 6 6 7 7 7 
7 7 7 7 7 7 7 7 7 5 5 5 6 6 6 6 6 6 6 6 6 6 6 6 
5 5 5 7 7 7 25 25 25 25 25 25 24 24 24 25 25 25 28 28 28 206 34 41 
208 33 40 73 13 15 
27 3 4 207 30 38 211 31 39 29 29 29 30 30 30 29 29 29 25 25 25 25 25 25 
9 9 9 7 7 7 7 7 7 6 6 7 7 7 7 7 7 7 8 8 8 8 8 8 
8 8 8 7 7 7 7 7 7 8 8 8 8 8 8 9 9 9 9 9 9 9 9 9 
9 9 9 10 10 10 9 9 9 10 11 10 11 11 11 11 11 11 11 11 11 12 12 12 
12 12 13 12 12 12 13 13 13 13 14 14 14 14 14 15 15 15 16 16 16 17 17 17 
17 17 18 18 18 19 19 19 19 20 20 21 21 21 21 21 22 22 21 21 22 23 23 23 
24 24 25 25 25 26 26 26 26 28 28 28 29 29 29 30 31 31 30 31 31 32 33 33 
32 33 33 35 36 36 35 35 36 38 38 39 39 39 40 40 41 41 41 42 42 43 44 44 
43 44 45 46 46 48 48 49 49 50 51 52 52 52 52 52 53 53 54 55 56 55 57 58 
57 58 59 58 58 59 59 60 61 59 60 62 62 62 64 59 59 60 61 62 63 58 59 59 
59 59 62 65 65 66 195 196 197 213 214 214 204 205 206 201 202 203 207 208 209 198 199 200 
206 207 207 207 208 210 208 209 211 215 216 217 212 213 214 217 218 218 222 223 224 223 224 225 
224 225 226 223 224 225 225 226 227 226 228 229 229 231 232 221 222 223 221 223 223 220 221 222 
216 217 218 212 213 214 214 214 215 210 212 213 208 209 210 203 204 205 203 204 205 202 203 204 
201 202 202 199 200 201 197 197 198 195 196 197 191 192 193 194 194 196 206 206 207 166 166 168 
48 48 49 48 49 50 51 52 52 51 51 52 53 54 54 53 54 54 53 53 54 54 55 56 
53 54 55 52 54 55 50 50 51 51 52 53 49 49 51 50 50 51 47 47 48 46 47 48 
44 45 46 43 44 45 41 42 42 41 41 42 39 39 40 37 37 39 35 36 36 33 34 34 
32 33 33 31 32 32 30 31 31 28 29 29 28 29 29 26 26 26 27 27 27 24 24 25 
24 25 25 22 22 22 23 23 23 21 21 21 21 21 21 19 19 19 19 19 19 18 18 18 
18 19 19 16 17 17 15 16 16 15 15 15 15 15 15 14 14 14 14 14 14 13 14 14 
12 12 12 12 12 12 11 11 11 11 11 11 11 11 11 10 10 10 10 10 10 10 10 10 
9 9 9 10 10 10 9 9 9 8 8 8 8 8 8 8 8 8 7 7 7 7 7 7 
7 7 7 8 8 8 7 7 7 7 7 7 8 8 8 8 8 8 8 8 8 7 7 7 
7 7 7 7 7 7 24 24 24 30 30 30 30 30 30 25 25 25 25 25 25 206 35 41 
209 35 41 73 13 16 
24 3 4 209 31 38 210 31 38 48 25 25 25 25 25 29 29 29 31 31 31 29 29 29 
11 11 11 8 8 8 7 7 7 7 7 7 7 7 7 7 7 7 9 9 9 8 8 8 
8 8 8 9 9 9 9 9 9 9 9 9 9 9 9 9 9 9 9 9 9 10 10 10 
10 10 10 10 10 10 10 11 11 11 11 11 11 11 12 11 11 11 12 12 12 12 12 12 
13 13 13 13 13 13 14 14 14 13 14 14 14 15 15 15 16 16 16 16 16 17 17 18 
18 18 18 19 19 19 20 20 20 21 21 21 23 23 23 21 21 22 23 23 23 23 24 24 
24 24 25 26 26 26 28 28 28 28 29 29 30 30 31 30 31 31 31 32 32 33 34 34 
32 33 33 34 36 36 37 37 38 38 38 39 40 40 41 41 42 42 42 43 44 44 45 46 
45 45 47 48 49 49 49 49 50 54 54 55 52 53 53 54 55 56 53 55 56 56 57 58 
57 58 59 59 60 62 58 59 60 60 61 62 59 60 62 58 59 61 58 59 61 57 58 59 
57 57 59 174 175 175 203 204 205 196 198 198 191 191 192 194 195 196 195 196 196 198 199 200 
199 200 201 199 200 201 200 201 201 207 208 209 202 203 204 205 205 207 211 212 212 220 221 222 
219 220 220 217 218 219 220 221 222 217 218 219 217 218 218 211 212 213 216 217 218 211 211 212 
206 207 208 202 202 203 202 202 203 202 203 204 195 196 196 195 196 197 196 197 197 196 197 198 
187 188 188 192 193 194 183 184 184 182 183 184 185 185 186 197 198 198 186 187 188 57 58 58 
49 50 51 50 51 52 53 54 55 54 54 54 55 56 57 55 55 56 57 57 58 54 55 57 
55 56 57 52 54 54 52 53 54 51 52 53 50 51 52 48 48 49 46 47 49 46 47 48 
44 44 46 42 42 43 40 41 41 40 40 42 37 38 39 36 37 39 34 35 35 34 35 35 
31 32 32 31 32 32 30 31 31 29 30 30 28 29 29 28 28 28 25 25 26 25 26 26 
23 23 23 24 24 24 22 22 22 22 22 22 20 20 21 20 20 20 19 20 20 19 19 20 
17 17 17 17 17 17 16 16 16 15 15 15 15 16 16 13 13 13 14 14 14 12 12 13 
12 12 12 13 13 13 11 11 11 11 11 11 11 11 11 12 12 12 10 10 10 10 10 10 
9 9 9 9 9 9 9 9 9 9 9 9 9 9 9 9 9 9 8 8 8 8 8 8 
8 8 8 9 9 9 8 8 8 6 6 6 8 8 8 7 7 7 8 8 8 8 8 8 
8 8 8 7 7 7 26 26 26 25 25 25 29 29 29 31 31 31 30 30 30 209 38 43 
208 36 42 66 13 15 
24 3 4 209 30 36 212 30 37 61 30 30 26 26 26 24 24 24 24 24 24 28 28 28 
9 9 9 6 6 6 6 6 6 7 7 7 6 6 6 7 7 7 7 7 7 7 7 7 
7 7 7 8 8 8 7 7 7 8 8 8 8 8 8 8 8 8 9 9 9 10 10 10 
9 9 9 9 9 9 10 10 10 10 10 10 10 10 10 11 11 11 12 12 12 11 11 12 
12 12 12 13 13 13 13 13 13 14 14 14 14 15 15 15 16 16 17 17 17 16 17 17 
18 18 18 19 19 19 19 19 19 21 21 21 20 20 20 21 22 22 23 23 24 22 23 23 
24 24 25 26 26 26 27 27 27 27 28 29 29 30 30 30 30 30 32 33 33 32 33 33 
33 34 34 34 35 36 37 38 39 38 38 39 41 42 42 40 40 41 42 43 44 43 44 46 
46 46 48 47 47 48 50 50 51 50 51 52 51 52 53 52 54 55 56 56 57 56 57 58 
57 58 58 58 59 60 57 58 59 61 62 62 58 59 60 59 59 61 57 58 59 58 59 60 
132 134 134 206 207 208 201 202 202 192 193 194 196 197 198 199 200 201 200 201 201 206 207 207 
203 205 205 208 209 210 212 213 214 210 211 213 211 211 212 216 217 218 219 221 221 216 217 217 
226 227 228 226 227 228 219 220 220 218 219 220 221 222 223 222 223 224 215 216 217 210 211 212 
210 210 211 209 209 210 204 205 207 205 205 206 203 204 205 199 199 201 196 197 198 198 199 200 
193 193 194 189 190 191 188 189 190 186 187 187 203 204 205 199 200 201 93 94 94 49 49 51 
48 49 50 52 53 53 52 53 55 54 55 55 53 53 55 54 54 56 53 54 55 54 55 55 
53 54 55 52 52 53 51 52 52 50 50 51 49 51 52 46 46 47 47 47 49 43 44 46 
42 42 43 40 41 41 40 40 41 38 39 40 37 37 39 34 34 35 34 35 35 32 33 33 
31 32 33 30 30 30 29 30 30 27 28 28 26 27 27 26 26 26 25 25 26 22 23 23 
22 22 22 21 21 22 21 21 21 21 22 22 19 20 20 19 19 19 18 18 18 17 17 18 
16 16 16 15 16 16 14 14 14 14 14 14 13 13 13 13 13 13 12 12 12 11 11 11 
11 12 12 11 11 11 11 11 11 11 11 11 9 10 10 10 10 10 10 10 10 8 8 8 
9 9 9 9 9 9 8 8 8 8 8 8 9 9 9 7 7 7 7 7 7 8 8 8 
7 7 7 7 7 7 6 6 6 7 7 7 7 7 7 7 7 7 6 6 6 6 6 6 
6 6 6 5 5 5 27 27 27 28 28 28 26 26 26 25 25 25 26 26 26 212 40 45 
208 38 43 65 14 16 
18 2 3 208 29 35 210 29 35 63 26 26 28 28 28 30 30 30 26 26 26 24 24 24 
12 12 12 6 6 6 7 7 7 6 6 6 6 6 6 7 7 7 6 6 6 7 7 7 
7 7 7 7 7 7 8 8 8 8 8 8 8 8 8 9 9 9 8 8 8 9 9 9 
9 9 9 9 9 9 10 10 10 9 9 9 10 10 10 11 11 11 10 10 10 12 12 12 
11 11 11 13 13 13 13 14 14 13 13 13 15 16 16 16 16 16 17 17 17 18 18 18 
18 19 19 19 19 19 20 20 20 21 21 21 21 21 22 22 22 22 23 24 24 23 23 24 
24 24 25 27 27 27 27 28 28 29 29 29 29 29 29 31 31 31 31 32 32 33 34 35 
33 34 35 35 36 37 37 37 38 39 40 41 40 41 41 41 41 42 43 44 44 44 45 46 
47 47 48 49 49 50 49 50 51 50 51 51 53 54 54 53 55 56 56 57 58 55 56 57 
59 59 61 56 57 58 59 59 61 59 59 60 58 59 61 56 57 58 56 57 58 92 92 94 
204 204 205 207 208 209 193 194 195 192 193 194 196 197 198 196 197 197 199 200 202 200 201 202 
202 203 204 205 206 207 207 208 209 206 207 208 215 216 217 219 220 220 215 216 216 220 221 222 
222 223 224 218 219 219 217 218 219 219 220 221 215 216 216 213 214 215 214 216 217 209 210 210 
212 212 213 210 211 212 205 206 207 204 205 205 207 207 208 198 199 199 194 194 195 186 187 187 
189 190 191 192 193 193 190 191 192 194 195 195 205 205 206 146 146 147 47 48 49 49 50 51 
50 50 52 52 53 53 53 53 55 53 55 56 53 53 54 55 55 56 52 53 54 54 54 55 
51 52 53 52 53 54 50 50 51 50 51 52 46 47 48 46 47 48 43 44 46 43 43 45 
41 41 42 41 41 42 39 39 40 38 38 38 35 36 37 34 35 35 32 32 32 31 32 32 
31 31 32 29 30 30 29 29 29 27 28 28 26 27 27 24 24 25 23 24 24 23 23 23 
23 23 23 21 21 21 22 22 22 19 19 20 18 18 18 18 19 19 18 18 18 18 18 18 
16 16 17 14 14 14 14 14 14 14 14 14 12 13 12 12 12 12 11 11 12 11 11 11 
11 11 11 10 10 10 11 11 11 11 11 11 9 9 9 10 10 10 8 8 8 9 9 9 
8 8 8 8 8 8 8 8 8 8 8 8 7 7 7 8 8 8 7 7 7 8 8 8 
8 8 8 8 8 8 6 6 6 6 6 6 7 7 7 6 6 6 6 6 6 7 7 7 
5 5 5 6 6 6 25 25 25 28 28 28 29 29 29 28 28 28 25 25 25 213 40 47 
207 38 44 59 12 14 
16 2 2 209 28 33 212 28 34 93 27 29 24 24 24 25 25 25 29 29 29 30 30 30 
14 14 14 7 7 7 6 6 6 7 7 7 7 7 7 7 7 7 7 7 7 7 7 7 
8 8 8 8 8 8 8 8 8 8 8 8 8 8 8 9 9 9 8 8 8 10 10 10 
10 10 10 10 10 10 10 10 10 10 10 10 11 11 11 11 11 11 12 12 12 13 13 13 
14 14 14 14 14 14 15 15 15 14 14 14 15 16 16 16 16 16 17 17 18 18 18 18 
19 19 19 19 19 19 20 20 20 21 22 22 21 21 22 22 22 22 22 23 23 25 25 25 
27 27 27 26 27 27 27 28 28 29 30 30 30 31 31 30 31 31 33 34 34 33 34 34 
35 36 36 38 38 39 39 39 40 41 42 42 41 41 42 43 44 45 43 44 45 47 47 49 
47 48 49 50 51 52 50 50 51 52 53 54 53 54 54 54 56 57 56 58 58 57 58 59 
58 59 60 57 59 60 59 59 59 58 58 59 58 58 59 56 57 58 63 63 65 188 189 190 
200 201 202 192 193 194 188 189 190 198 198 199 192 192 193 196 197 197 205 205 206 201 202 203 
207 208 208 204 205 205 207 208 209 214 215 215 208 209 210 214 215 216 217 218 219 225 226 227 
223 224 225 221 222 223 216 217 218 218 219 219 211 211 212 214 214 215 211 212 213 206 207 208 
206 207 207 206 207 208 202 203 203 200 200 201 194 195 196 193 194 194 192 193 194 188 188 189 
185 185 187 189 189 190 192 193 193 200 200 200 181 182 182 47 48 49 50 51 52 51 51 53 
53 53 54 54 54 54 55 56 57 53 55 55 55 57 57 54 55 56 54 54 56 53 54 55 
53 54 55 50 51 52 50 51 52 50 50 51 47 48 49 45 45 47 44 45 46 43 43 44 
41 42 42 41 41 41 38 38 39 37 38 39 34 35 35 35 36 36 31 32 32 32 33 33 
30 31 31 29 30 30 27 28 28 27 28 28 25 25 25 24 25 25 24 25 25 23 23 23 
21 21 22 20 21 21 21 21 21 19 19 19 18 18 18 19 19 19 17 17 18 15 15 15 
14 16 16 14 15 15 14 14 14 13 13 13 13 13 13 11 11 11 11 11 12 11 11 11 
10 10 10 10 10 10 10 10 10 10 11 11 9 9 9 9 9 9 9 9 9 9 9 9 
8 8 8 8 8 8 9 9 9 8 8 8 7 7 7 8 8 8 8 8 8 7 7 7 
7 7 7 7 7 7 6 6 6 7 7 7 6 6 7 6 6 6 6 6 6 7 7 7 
5 5 5 6 6 6 28 28 28 26 26 26 25 25 25 28 28 28 29 29 29 219 42 50 
208 39 46 56 13 15 
10 1 1 208 27 33 211 28 34 124 31 31 30 30 30 28 28 28 27 27 27 28 28 28 
19 19 19 8 8 8 9 9 9 8 8 8 9 9 9 8 8 8 10 10 10 9 9 9 
9 9 9 9 9 9 10 10 10 9 9 9 10 10 10 10 10 10 11 11 11 11 11 11 
11 11 11 12 12 12 12 12 12 12 12 12 13 13 13 13 13 13 14 14 14 15 15 15 
14 14 14 15 16 16 16 17 17 16 17 16 17 18 18 18 18 18 19 19 19 20 21 21 
20 20 21 21 21 21 22 23 23 22 23 23 24 24 24 25 26 26 26 26 27 27 27 27 
29 29 29 28 29 29 30 30 31 31 32 32 33 33 33 33 34 34 35 36 36 34 35 35 
37 38 39 39 40 40 41 41 41 41 42 42 43 43 44 45 46 47 47 47 49 49 50 51 
50 51 52 52 52 53 52 53 54 53 54 55 54 56 56 58 58 59 56 57 58 59 60 60 
57 58 59 60 61 62 57 57 58 59 60 61 56 56 57 56 57 58 167 167 168 196 196 196 
188 189 190 183 183 184 181 182 183 185 186 186 181 182 182 191 191 193 189 189 190 196 196 198 
199 200 201 200 201 201 198 199 200 204 204 205 207 208 208 209 210 211 212 213 213 216 217 218 
211 212 212 214 214 215 208 209 210 206 207 208 206 207 207 203 203 205 193 194 194 195 195 196 
199 200 200 198 199 200 195 197 197 195 195 196 190 192 192 181 181 181 181 181 182 181 181 181 
182 182 182 181 182 183 192 193 193 188 188 189 73 74 74 51 51 53 51 52 53 55 55 56 
54 55 56 56 56 57 56 57 57 55 57 59 56 56 58 56 57 58 56 57 57 54 55 56 
54 55 55 52 52 53 51 52 53 49 50 51 50 50 52 46 46 47 46 46 47 43 43 44 
42 43 43 40 41 41 41 41 41 37 38 39 37 38 38 35 36 36 34 35 35 32 32 32 
31 32 32 30 31 31 28 29 29 28 29 29 26 26 27 27 27 28 24 24 24 24 24 24 
23 23 23 23 23 23 21 21 22 21 21 21 18 19 19 20 20 20 19 19 19 16 17 17 
16 16 16 15 16 16 15 16 16 14 14 14 14 14 14 14 14 14 13 13 13 12 12 12 
13 13 13 12 12 12 12 12 12 11 11 11 11 11 11 11 11 11 11 11 11 10 10 10 
10 10 10 10 10 10 9 9 9 9 9 9 9 9 9 9 9 9 9 9 9 9 9 9 
8 8 8 9 9 9 8 8 8 7 7 8 8 8 8 8 8 8 8 8 8 7 7 7 
8 8 8 11 11 11 31 31 31 31 31 31 29 29 29 26 26 26 38 26 26 223 43 51 
207 41 48 45 11 12 
2 0 0 207 25 32 211 26 33 147 27 31 27 27 27 30 30 30 30 30 30 27 27 27 
21 21 21 8 8 8 8 8 8 8 8 8 8 8 8 9 9 9 9 9 9 9 9 9 
9 9 9 9 9 9 9 9 9 10 10 10 10 10 10 9 9 9 11 11 11 11 11 11 
11 11 11 12 12 12 11 11 11 12 12 12 12 12 12 13 13 13 14 14 14 14 14 14 
14 14 14 14 14 14 15 16 16 16 18 18 18 18 18 18 18 19 19 19 19 19 19 19 
19 19 20 22 22 22 23 23 23 23 23 24 24 24 24 23 24 24 25 25 26 27 27 28 
28 28 29 28 29 30 30 30 30 32 33 33 31 32 32 33 34 34 34 36 36 35 36 37 
38 38 39 40 40 41 41 42 42 42 42 43 44 44 45 45 46 46 47 48 49 48 49 50 
51 52 53 50 52 53 54 55 56 53 54 55 55 56 58 55 56 57 58 58 59 56 57 59 
59 59 59 58 59 59 56 57 58 57 58 59 56 57 58 136 137 138 215 215 216 204 204 205 
197 198 199 201 201 203 204 205 206 206 207 209 203 204 205 208 209 211 211 212 213 213 214 215 
212 213 214 221 223 224 222 223 224 223 225 226 221 222 223 221 222 223 223 224 225 231 232 233 
227 228 229 229 231 232 228 230 231 224 225 226 218 219 220 221 222 223 209 210 211 210 210 211 
215 216 217 210 211 212 204 205 206 207 208 210 201 202 203 200 201 203 199 200 200 196 196 198 
196 197 197 207 208 209 209 209 209 123 125 125 51 52 53 51 52 53 53 53 55 55 55 56 
54 54 55 56 57 59 56 56 57 56 57 59 57 57 58 57 57 59 54 55 57 55 56 57 
53 53 55 53 54 54 50 51 52 48 49 50 46 47 47 45 46 47 44 44 45 43 43 43 
42 42 43 39 40 41 39 39 40 35 36 36 35 36 36 33 34 34 33 34 34 31 32 32 
30 31 31 29 30 30 29 29 29 27 27 27 26 26 27 25 25 25 24 24 25 22 22 23 
22 22 23 21 21 21 21 21 21 20 20 20 20 20 20 19 19 20 18 18 18 16 18 18 
15 16 16 15 15 15 15 15 15 15 15 15 13 13 13 13 13 14 13 13 13 12 12 12 
12 12 12 11 11 11 11 12 12 11 11 11 11 11 11 10 10 10 10 10 10 10 10 10 
10 10 10 9 9 9 9 9 9 8 8 9 9 9 9 8 8 8 9 9 9 8 8 8 
7 7 7 8 8 8 7 7 7 8 8 8 7 7 7 8 8 8 8 8 8 6 6 6 
7 7 7 12 12 12 27 27 27 26 26 26 29 29 29 31 31 31 74 33 35 224 45 52 
208 42 49 31 6 7 
0 0 0 201 23 31 212 25 32 164 27 31 25 25 25 24 24 24 25 25 25 29 29 29 
22 22 22 5 5 5 5 5 5 6 6 6 6 6 6 7 7 7 7 7 7 6 6 6 
7 7 7 7 7 7 8 8 8 8 8 8 8 8 8 9 9 9 9 9 9 9 9 9 
9 9 9 9 9 9 9 9 9 10 10 10 10 10 10 10 10 10 11 11 11 13 13 13 
12 13 13 13 13 13 14 14 14 14 15 15 16 16 16 16 16 16 16 16 16 18 18 18 
18 18 19 19 19 20 21 21 21 20 20 20 21 21 21 22 22 23 23 24 24 25 25 25 
26 27 27 27 28 28 29 30 30 29 29 29 30 31 31 32 33 33 33 34 34 36 36 37 
36 36 37 38 39 39 39 39 39 41 41 42 41 42 43 44 44 46 45 46 47 47 47 48 
48 49 49 50 51 52 50 51 52 52 53 54 53 53 55 54 55 56 56 56 57 54 55 56 
56 56 58 55 55 56 55 55 56 53 53 54 90 91 93 199 200 201 204 205 205 192 193 194 
192 193 193 186 186 188 193 193 194 197 198 200 200 201 202 196 197 197 202 202 204 205 206 207 
210 211 212 207 207 208 209 209 210 215 216 217 220 221 222 217 218 219 213 214 215 219 220 221 
218 219 219 216 216 217 216 217 218 216 217 218 208 209 210 212 213 214 206 206 208 209 209 210 
202 202 204 201 202 203 200 201 202 198 199 200 195 196 197 189 191 191 188 188 189 192 192 193 
196 197 197 205 205 206 166 167 168 49 49 50 52 53 55 51 51 53 53 54 55 53 54 55 
56 57 57 55 55 55 55 56 57 54 55 56 55 56 57 53 54 54 52 54 54 50 51 52 
50 50 51 49 50 51 46 47 48 46 46 48 43 44 45 43 44 45 40 40 41 40 42 42 
38 39 39 37 38 39 34 35 36 33 34 34 31 32 32 32 33 33 30 30 30 29 30 31 
27 28 28 27 27 27 26 26 26 24 24 24 22 22 23 21 21 21 22 22 22 19 19 19 
20 20 20 19 19 19 19 19 19 17 18 18 17 17 17 15 15 15 15 16 16 13 13 13 
13 13 13 11 12 12 12 12 12 11 11 11 10 10 10 9 9 9 9 10 10 9 9 9 
9 9 9 9 9 9 8 8 8 9 9 9 8 8 8 9 9 9 8 8 8 7 7 7 
8 8 8 8 8 8 6 6 6 6 6 6 6 6 6 6 6 6 6 6 6 5 5 5 
4 4 4 5 5 5 4 4 4 4 4 4 5 5 5 6 6 6 5 5 5 4 4 4 
4 4 4 13 13 13 27 27 27 26 26 26 24 24 24 23 23 23 107 35 37 224 48 54 
205 43 49 21 4 5 
0 0 0 193 23 31 211 25 31 185 26 31 31 31 31 29 29 29 27 27 27 26 26 26 
24 24 24 7 7 7 8 8 8 8 8 8 8 8 8 8 8 8 9 9 9 9 9 10 
9 9 9 9 9 9 9 9 9 10 10 10 10 10 10 11 11 11 11 11 11 10 11 11 
11 11 11 10 10 10 11 11 11 12 12 12 13 13 13 14 14 14 13 13 13 15 15 15 
16 16 16 16 16 16 16 18 18 17 17 17 18 18 19 19 19 19 21 21 21 21 21 21 
21 21 21 22 22 22 21 22 22 23 23 23 23 24 24 24 25 25 26 26 26 28 28 28 
29 29 29 29 30 30 31 32 32 31 32 32 33 34 34 34 35 35 35 36 37 37 38 39 
38 38 39 41 42 42 42 43 43 43 44 44 45 45 47 47 47 49 47 48 49 49 50 51 
50 51 52 52 53 54 53 53 54 54 55 56 56 56 56 58 58 59 55 57 57 57 58 58 
56 57 57 55 56 57 54 54 55 61 61 63 188 189 189 204 205 206 194 195 196 193 194 195 
194 196 196 192 193 193 189 190 191 199 200 201 197 198 199 204 205 205 205 206 207 206 207 207 
209 210 211 207 208 209 212 213 214 214 214 215 215 216 217 217 218 219 221 222 223 219 220 221 
225 226 227 216 217 218 213 214 215 207 207 208 205 206 207 203 204 204 205 205 206 205 206 207 
200 200 201 201 201 202 194 194 195 196 197 198 191 192 193 191 191 192 192 193 194 198 199 199 
202 202 203 189 190 190 57 58 59 54 54 55 54 55 55 54 55 55 56 56 58 57 57 59 
58 59 60 58 58 59 58 59 61 57 57 57 57 58 59 53 54 56 55 56 57 52 53 54 
52 53 54 49 50 51 50 51 52 46 46 48 46 47 48 43 43 45 43 43 44 40 41 41 
39 40 41 38 38 39 37 37 38 34 35 36 33 34 34 33 33 33 31 32 32 31 32 32 
29 30 30 29 29 29 27 27 27 26 26 27 24 24 24 24 24 24 22 22 23 23 23 23 
21 21 21 21 21 22 19 19 19 19 20 20 18 18 19 17 17 17 16 18 18 16 16 16 
15 15 15 14 14 14 14 14 14 14 14 14 12 12 13 13 13 13 11 11 11 11 11 11 
11 11 12 10 11 11 10 10 10 11 11 11 10 10 10 9 9 9 9 9 9 9 9 9 
9 9 9 9 9 9 9 9 9 9 9 9 8 8 8 8 8 8 7 7 7 8 8 8 
8 8 8 8 8 8 8 8 8 8 8 8 7 7 7 8 8 8 6 6 6 6 6 6 
7 7 7 19 19 19 27 27 27 30 30 30 30 30 30 28 28 28 135 39 43 223 50 55 
207 46 51 8 2 2 
0 0 0 185 23 29 211 25 32 205 26 31 24 24 24 28 28 28 29 29 29 29 29 29 
26 26 26 5 5 5 8 8 8 7 7 7 7 7 7 8 8 8 7 7 7 8 8 8 
8 8 8 8 8 8 9 9 9 8 8 8 10 10 10 9 9 9 10 10 10 10 10 10 
10 10 10 10 10 10 10 10 10 11 11 11 12 12 13 12 12 12 14 14 14 14 15 15 
14 14 14 15 15 15 15 16 16 17 17 17 18 18 18 17 18 18 19 19 19 19 20 20 
19 19 20 22 22 22 21 21 21 23 23 23 23 23 24 24 24 25 26 26 26 27 28 28 
28 29 29 28 29 29 30 30 30 31 31 31 33 33 33 34 35 35 36 36 38 38 38 39 
39 39 40 40 41 41 42 42 42 42 43 44 45 46 47 44 45 46 49 49 50 49 50 51 
51 51 52 50 51 52 52 54 55 53 54 56 55 55 56 55 56 57 55 56 56 54 56 57 
54 55 56 54 55 56 52 52 53 166 166 167 194 194 195 182 183 184 182 182 184 184 184 185 
181 181 182 183 184 184 188 189 190 188 189 189 185 185 186 192 193 194 193 193 194 194 194 195 
198 199 200 204 205 205 198 199 199 204 205 205 204 205 205 207 208 209 210 211 212 210 211 212 
207 207 208 207 208 208 201 202 203 199 200 200 201 201 202 196 196 197 188 189 189 192 192 194 
187 188 189 190 191 191 185 185 187 184 185 185 182 183 184 180 181 181 181 182 183 196 196 196 
192 192 192 95 96 96 51 51 51 53 54 55 53 54 55 55 57 58 55 55 57 57 58 59 
56 57 59 56 57 59 56 56 57 56 57 58 54 55 57 53 55 56 53 54 55 52 53 53 
49 49 51 49 49 50 47 48 49 45 46 47 44 44 45 41 41 42 41 42 43 39 40 40 
39 39 40 35 36 37 35 36 36 31 32 32 32 33 33 30 30 30 30 31 31 29 30 30 
28 28 28 27 27 27 26 26 26 23 23 24 23 24 24 22 22 22 20 20 21 21 21 21 
19 19 20 20 20 20 18 19 19 18 18 18 17 17 17 16 16 16 14 15 15 15 15 15 
13 14 14 14 14 14 13 13 13 12 12 12 12 12 12 11 11 11 11 11 11 10 10 10 
10 10 10 9 9 9 9 9 9 9 9 9 9 9 9 8 9 8 8 8 8 8 8 8 
9 9 9 7 7 7 7 7 7 8 8 8 7 7 7 7 7 7 7 7 7 6 6 6 
6 6 6 7 7 7 6 6 6 6 6 6 6 6 6 6 6 6 5 5 5 6 6 6 
6 6 6 21 21 21 27 27 27 25 25 25 26 26 26 28 28 28 162 46 49 223 52 57 
205 48 52 0 0 0 
0 0 0 162 19 25 212 25 32 222 25 32 29 29 29 26 26 26 26 26 26 30 30 30 
30 30 30 6 6 6 8 8 8 9 9 9 8 8 8 7 7 7 8 8 8 9 9 9 
8 8 8 8 8 8 9 9 9 9 9 9 10 10 10 9 9 9 10 11 11 11 11 11 
10 10 10 11 11 11 11 11 11 12 12 13 12 12 12 13 13 13 13 13 13 14 15 15 
14 15 15 15 16 16 16 16 16 17 17 18 18 18 18 19 19 19 20 20 20 20 20 20 
21 21 21 21 21 22 22 22 22 23 24 24 24 24 25 26 26 26 27 28 28 28 28 28 
29 30 30 30 31 31 30 31 31 33 34 34 33 34 34 35 35 36 36 37 38 39 39 40 
39 40 40 41 42 42 42 42 43 44 44 45 45 45 47 47 47 49 49 50 50 49 50 50 
51 52 53 51 52 53 53 54 55 53 53 55 55 56 56 54 55 56 56 56 58 53 53 54 
56 56 57 52 53 54 133 134 135 203 203 203 199 200 201 188 188 189 187 188 189 193 193 194 
197 197 198 195 196 197 206 207 208 199 200 202 198 198 199 207 208 208 206 207 208 205 206 207 
211 212 213 217 219 220 216 217 218 215 216 217 217 217 218 222 223 224 218 219 220 220 221 221 
222 223 224 217 217 218 207 207 208 209 210 211 212 213 214 205 206 207 201 201 202 198 199 200 
197 199 199 198 199 200 192 193 193 194 195 196 188 189 189 192 193 194 198 199 199 203 203 204 
146 146 147 51 52 53 54 54 56 53 55 56 56 57 57 56 56 57 59 59 61 57 59 59 
58 58 59 57 57 59 57 58 59 57 58 59 55 56 58 53 55 56 51 52 53 52 53 54 
50 51 51 50 50 51 46 46 48 45 46 47 42 43 44 42 42 43 39 40 41 40 41 42 
37 38 39 35 36 37 34 35 36 33 33 33 31 32 32 31 31 31 29 30 30 28 29 29 
28 29 29 26 26 26 25 25 26 22 23 23 23 23 23 20 20 21 22 22 23 20 20 20 
20 20 21 18 19 19 18 19 19 18 18 19 17 17 17 15 16 16 15 15 15 14 14 14 
15 15 15 14 14 14 13 13 13 13 13 13 12 13 13 11 11 11 11 11 11 10 10 10 
10 10 10 10 10 10 10 10 10 10 10 10 9 9 9 10 10 10 8 8 8 9 9 9 
8 8 8 8 8 8 8 8 8 7 7 7 7 7 7 7 7 7 7 7 7 7 7 7 
7 7 7 7 7 7 7 7 7 8 8 8 7 7 7 6 6 6 7 7 7 6 6 6 
7 7 7 25 25 25 29 29 29 29 29 29 26 26 26 25 25 25 191 50 55 223 53 59 
189 46 50 0 0 0 
0 0 0 141 18 23 211 25 31 233 25 32 28 28 28 29 29 29 28 28 28 26 26 26 
28 28 28 7 7 7 7 7 7 8 8 8 8 8 8 8 8 8 7 8 8 8 8 8 
8 8 8 9 9 9 8 9 9 9 9 9 9 9 9 10 10 10 10 10 10 10 10 10 
10 10 11 11 11 11 12 12 12 12 12 13 12 12 12 13 13 13 13 14 14 14 14 14 
14 14 14 15 16 16 17 17 17 17 18 18 18 19 19 19 19 19 20 20 21 21 21 21 
21 21 21 22 22 22 23 23 23 24 24 24 24 24 25 26 26 26 27 28 28 29 30 30 
28 30 30 30 30 30 31 32 32 32 33 33 33 34 34 35 36 37 37 37 37 38 38 39 
40 40 40 41 41 42 43 43 44 44 45 46 44 44 46 49 49 50 47 48 49 50 51 52 
49 50 51 52 54 55 53 54 55 55 56 57 53 53 54 55 56 56 52 52 54 53 54 55 
53 53 54 92 93 93 198 199 199 195 195 195 194 195 196 188 189 190 191 191 192 191 192 193 
194 194 195 201 202 203 203 203 204 207 207 209 201 202 202 208 210 210 208 208 209 212 213 215 
210 211 212 213 214 214 220 221 222 218 219 220 217 218 219 221 222 222 218 219 220 214 214 215 
214 214 215 211 212 213 207 208 209 205 206 207 203 203 204 208 209 210 205 206 206 203 203 204 
201 202 202 201 202 204 191 191 192 193 194 195 194 195 196 190 191 192 204 205 205 185 185 185 
53 54 55 53 54 55 55 55 56 55 56 58 56 58 59 56 57 58 59 59 61 57 58 60 
58 60 60 56 57 59 58 59 59 54 55 56 55 57 57 52 53 54 52 53 54 49 50 51 
50 50 51 46 47 48 46 46 48 43 43 44 43 43 44 40 41 41 40 40 41 38 38 39 
36 36 37 34 35 35 33 34 34 32 33 33 30 31 31 30 31 31 28 29 29 29 29 29 
27 27 27 25 25 25 24 24 24 23 24 24 22 22 22 21 21 21 20 20 20 20 20 20 
19 19 19 18 18 18 17 17 17 17 17 17 15 15 15 14 15 15 15 16 16 13 14 14 
13 13 13 12 12 12 11 11 11 12 12 12 11 11 11 10 10 10 11 11 11 11 11 11 
9 10 10 9 9 9 9 9 9 9 9 9 9 9 9 9 9 9 9 9 9 9 9 9 
8 8 8 8 8 8 7 7 7 7 7 7 7 7 7 6 6 6 7 7 7 6 6 6 
6 6 6 5 5 5 6 6 6 6 6 6 5 5 5 6 6 6 6 6 6 5 5 5 
5 5 5 26 26 26 25 25 25 25 25 25 29 29 29 29 29 29 213 54 61 224 54 61 
171 44 49 0 0 0 
0 0 0 110 10 14 212 25 32 242 25 32 25 25 25 24 24 24 28 28 28 30 30 30 
30 30 30 6 6 6 6 6 6 7 7 7 7 7 7 7 7 7 7 7 7 8 8 8 
6 6 6 8 8 8 9 9 9 8 8 8 9 9 9 8 8 8 10 10 10 9 9 9 
10 10 10 10 10 10 9 10 10 11 11 11 12 12 12 13 13 13 13 13 13 13 14 14 
13 13 13 16 16 16 16 16 17 16 16 16 17 18 18 18 19 18 19 19 19 21 21 21 
20 20 21 22 22 22 22 23 23 22 22 23 24 24 24 25 25 25 27 27 27 28 29 29 
29 30 30 30 31 31 31 32 32 31 32 32 34 35 36 35 35 36 37 37 38 39 39 40 
40 41 41 41 41 42 42 43 44 43 43 44 46 46 46 47 48 49 48 49 50 48 49 50 
50 51 52 52 53 53 53 53 54 53 54 55 52 53 54 53 54 56 52 53 54 52 53 54 
59 59 60 185 186 186 198 198 199 187 187 188 186 187 187 182 182 183 188 188 189 182 182 183 
191 191 192 190 190 191 196 197 198 196 196 197 195 196 196 200 201 203 201 202 202 202 203 204 
206 206 207 207 208 208 211 212 213 212 213 214 215 216 217 211 211 212 211 212 213 209 210 210 
207 208 209 203 203 204 200 200 201 203 203 204 200 200 202 200 200 201 191 191 193 188 188 189 
185 186 186 183 184 185 189 189 190 189 189 190 185 185 186 199 199 199 191 191 191 75 76 76 
51 52 53 55 55 56 54 55 57 56 57 58 56 57 58 57 57 59 58 58 60 57 58 60 
55 56 58 57 58 59 56 56 57 54 56 57 51 52 53 52 52 53 50 50 51 49 49 50 
48 48 49 46 46 47 43 44 45 41 42 43 41 41 42 38 39 39 38 38 39 36 37 38 
35 36 36 32 33 33 33 34 34 30 30 30 30 31 31 29 30 30 28 29 29 26 26 27 
26 26 26 24 24 25 23 23 24 21 21 21 19 19 20 21 21 21 20 20 20 20 20 21 
18 18 18 17 17 18 15 15 16 16 16 16 14 15 15 14 15 15 13 13 13 12 13 13 
13 13 13 12 12 12 11 11 12 11 11 11 9 9 9 9 9 9 9 9 9 9 9 9 
9 9 9 8 8 8 9 9 9 8 8 8 7 7 7 8 8 8 7 7 7 7 7 7 
6 6 7 7 7 7 7 7 7 7 7 7 7 7 7 5 5 5 6 6 6 6 6 6 
5 5 5 6 6 6 6 6 6 5 5 5 4 4 4 4 4 4 4 4 4 4 4 4 
5 5 5 28 28 28 26 26 26 23 23 23 24 24 24 25 25 25 227 58 65 224 56 63 
152 41 45 0 0 0 
0 0 0 80 8 11 212 25 31 245 25 32 56 28 28 25 26 26 24 24 24 26 26 26 
30 30 30 11 11 11 6 6 6 7 7 7 7 7 7 7 7 7 7 7 7 8 8 8 
8 8 8 8 8 8 9 9 9 8 8 8 9 9 9 9 9 9 10 10 10 10 10 10 
10 10 10 11 11 11 11 11 12 12 12 12 12 12 12 13 13 13 14 14 14 13 13 13 
15 15 15 15 15 15 15 16 16 17 18 18 18 19 19 19 19 20 20 20 20 21 21 21 
21 21 22 22 23 23 22 22 23 23 24 24 25 25 25 27 27 28 27 28 28 29 29 29 
29 29 29 30 31 31 31 32 32 33 35 35 34 35 36 37 37 38 37 38 39 39 40 40 
40 41 41 41 42 43 43 44 44 44 45 46 49 49 49 47 48 49 49 49 50 49 50 51 
50 52 52 52 52 53 54 54 55 51 52 52 53 53 54 52 52 53 52 53 53 50 50 51 
174 175 175 205 206 206 193 194 194 194 195 197 191 192 193 195 196 198 200 201 202 197 198 199 
201 202 204 199 199 200 205 205 207 212 212 214 207 207 208 215 216 217 211 213 214 219 220 221 
215 216 217 218 219 220 222 223 224 223 224 225 224 226 227 222 223 224 222 223 224 220 221 222 
210 211 212 209 209 210 216 218 219 209 210 211 204 205 206 205 205 206 197 198 199 202 203 204 
200 201 201 196 196 197 197 197 199 198 199 200 201 202 202 206 206 206 127 128 129 51 51 52 
54 55 56 55 56 57 55 56 58 56 57 58 58 60 60 59 59 60 58 59 61 58 59 60 
57 58 58 59 60 61 55 56 57 55 56 57 51 53 54 51 52 53 49 50 51 49 49 50 
46 47 48 45 46 47 41 42 44 42 42 43 40 41 41 39 39 40 37 37 38 36 37 38 
33 34 34 32 33 33 31 32 32 31 31 31 29 30 30 27 28 28 27 28 28 26 26 26 
25 25 25 23 23 23 23 23 23 21 21 21 20 20 21 19 19 19 19 19 19 19 19 19 
18 18 18 17 17 17 16 16 17 14 15 15 14 15 15 14 14 14 14 14 14 13 13 13 
12 12 12 11 11 11 11 11 11 10 10 10 9 9 9 10 10 10 9 9 9 9 10 10 
9 9 9 9 9 9 8 8 8 8 8 8 8 8 8 8 8 8 8 8 8 7 7 8 
6 6 6 7 7 7 8 8 8 7 7 7 6 6 6 6 6 6 7 7 7 6 6 6 
6 6 6 6 6 6 6 6 6 5 5 5 5 5 5 5 5 5 5 5 5 5 5 5 
4 4 4 28 28 28 28 28 28 29 29 29 28 28 28 25 25 25 237 62 67 222 58 63 
125 36 39 0 0 0 
0 0 0 42 4 6 212 28 34 245 27 33 122 28 28 32 32 32 32 32 32 28 28 28 
32 32 32 20 20 20 9 9 9 9 9 9 9 9 9 9 9 9 11 11 11 10 10 10 
10 10 10 10 10 10 11 11 11 11 11 11 11 12 12 12 12 12 11 11 11 12 12 12 
14 14 14 13 13 14 14 14 14 14 14 14 14 14 14 14 14 14 15 16 16 16 17 17 
17 17 18 18 19 19 20 20 20 19 20 20 21 21 21 23 23 23 23 23 23 23 23 23 
24 24 24 24 25 25 26 26 27 26 26 26 29 29 29 29 30 30 30 31 31 31 32 32 
33 33 33 32 33 33 35 36 36 36 37 37 37 37 39 40 40 41 40 40 41 42 43 43 
43 43 44 46 47 48 44 45 46 49 49 50 47 48 49 52 52 53 50 51 52 53 53 54 
52 53 54 53 54 55 53 54 56 52 52 54 53 54 55 52 53 55 52 52 54 136 136 137 
203 205 205 198 199 199 186 187 188 190 190 191 192 193 194 196 197 198 192 193 194 194 194 195 
201 202 203 202 204 205 205 206 206 207 208 209 213 215 216 216 217 218 213 214 215 222 223 224 
216 217 217 215 216 217 224 225 226 222 224 224 227 228 229 219 220 221 222 223 223 213 214 214 
213 214 214 210 211 211 206 206 207 210 211 212 206 206 207 205 206 207 195 196 197 200 201 202 
199 200 201 202 203 204 197 198 199 199 200 201 206 206 207 171 172 172 54 56 57 54 55 56 
58 59 60 57 58 60 60 60 62 59 60 61 63 63 64 60 60 62 61 61 63 60 60 61 
60 61 62 59 60 61 59 59 60 54 56 57 54 55 56 53 53 53 52 53 54 49 50 51 
47 48 49 46 47 48 44 45 46 43 43 44 42 42 43 41 41 42 39 40 40 38 39 40 
35 36 36 35 36 36 32 33 33 34 34 34 30 31 31 30 31 31 29 30 30 28 28 28 
26 26 27 25 25 26 25 25 25 23 23 23 23 23 23 22 23 23 21 21 22 20 20 20 
19 20 20 18 18 19 17 18 17 16 17 17 16 16 16 16 16 16 16 16 16 14 14 14 
14 15 14 13 13 13 13 13 13 12 12 12 11 11 11 12 12 12 11 11 11 10 11 11 
11 11 11 11 11 11 10 10 10 9 9 9 10 10 10 10 10 10 9 9 9 9 9 10 
9 9 9 10 10 10 9 9 9 10 10 10 8 8 8 8 8 8 8 8 8 8 8 8 
8 8 8 8 8 8 8 8 8 7 7 7 7 7 7 7 7 7 7 7 7 7 7 7 
11 11 11 31 31 31 26 26 26 26 26 26 29 29 29 45 31 32 245 67 71 223 60 64 
95 29 31 0 0 0 
0 0 0 3 0 0 209 26 33 244 27 33 178 28 31 25 25 25 28 28 28 30 30 30 
31 31 31 23 23 23 7 7 7 7 7 7 7 7 7 8 8 8 8 8 8 9 9 9 
9 9 9 9 9 9 9 9 9 9 9 9 9 10 10 10 10 10 9 9 9 11 11 11 
11 11 11 11 11 12 12 12 12 13 13 13 13 14 13 14 14 14 14 14 14 16 16 16 
17 17 17 17 17 18 17 18 19 17 17 17 19 19 19 21 21 21 20 20 20 20 20 21 
21 21 21 23 23 24 24 25 25 25 25 25 27 28 28 28 29 29 29 29 29 29 29 29 
31 32 33 31 32 33 34 35 35 34 35 36 37 37 38 38 39 39 40 41 42 40 40 40 
41 42 43 43 43 44 46 46 47 47 47 48 47 49 50 49 50 51 49 50 50 50 51 52 
51 52 53 52 53 54 51 52 53 51 52 53 50 51 52 52 52 53 90 90 91 196 198 198 
197 197 198 184 184 185 183 184 185 183 184 184 184 185 186 191 192 193 194 195 196 196 197 198 
199 200 200 201 202 203 194 194 195 203 203 204 200 201 201 205 206 207 211 212 213 209 210 212 
210 211 211 212 213 213 215 216 217 217 218 218 224 225 226 212 213 214 212 212 213 209 209 210 
209 210 210 198 199 200 207 207 208 202 204 204 198 199 200 197 197 198 193 194 194 194 195 195 
191 191 192 192 193 194 191 191 192 202 202 204 188 189 190 61 62 63 53 54 55 55 56 58 
56 57 58 58 59 61 57 58 59 59 60 61 60 60 62 59 60 61 58 59 60 58 59 60 
57 58 58 56 56 57 54 56 57 52 53 54 51 52 53 51 51 51 50 51 52 47 47 48 
47 47 49 43 44 45 42 42 43 39 40 40 40 40 41 37 37 38 36 36 37 34 35 35 
33 34 34 31 32 32 30 31 31 30 31 31 29 30 30 27 28 28 26 26 26 25 25 26 
24 25 25 22 23 23 21 21 21 21 21 22 20 20 20 20 20 20 19 19 19 18 19 19 
17 18 18 16 17 17 15 15 15 15 16 16 14 14 14 14 14 14 13 13 13 13 13 13 
11 11 11 11 11 12 11 11 11 10 10 10 10 10 10 9 9 9 10 10 10 9 9 9 
10 10 10 8 8 8 8 8 8 8 8 8 9 9 9 8 8 8 8 8 8 7 7 7 
7 7 7 7 7 7 7 7 7 5 5 5 6 6 6 6 6 6 6 6 6 6 6 6 
5 5 5 6 6 6 5 5 5 5 5 5 6 6 6 5 5 5 5 5 5 5 5 5 
18 18 18 29 29 29 29 29 29 28 28 28 24 24 24 113 42 45 245 69 73 223 63 67 
48 15 16 0 0 0 
0 0 0 0 0 0 188 25 32 245 27 34 211 28 32 29 29 29 26 26 26 26 26 26 
31 31 31 28 28 28 8 8 8 6 6 6 8 8 8 9 9 9 9 9 9 8 8 8 
9 10 9 10 10 10 10 10 10 10 11 11 10 10 10 11 11 11 10 10 10 12 12 12 
12 12 13 13 13 13 12 12 12 14 14 14 14 15 15 14 15 15 15 16 16 16 16 17 
17 17 18 17 17 17 19 19 19 20 20 20 20 20 20 22 22 22 21 21 22 23 23 23 
24 24 24 24 24 25 25 25 26 28 28 28 27 28 28 28 29 30 30 30 30 31 31 31 
31 32 32 32 33 33 34 35 35 36 37 38 38 38 39 40 40 41 41 42 42 40 41 42 
42 43 44 43 44 45 47 48 49 47 47 48 49 50 50 49 49 50 51 52 53 50 51 52 
52 53 54 51 52 52 52 52 53 50 50 52 50 51 53 58 58 59 190 191 192 201 202 202 
188 188 190 186 187 188 184 185 186 187 189 189 192 192 193 191 192 193 198 199 200 203 204 205 
202 203 204 203 204 205 202 203 203 206 208 209 205 206 206 207 208 209 206 207 207 212 212 213 
213 213 214 216 217 218 221 222 223 220 221 222 213 214 215 212 213 214 214 215 216 209 210 210 
206 207 208 212 213 214 209 210 211 206 207 207 203 203 204 199 199 200 195 195 196 192 192 194 
194 195 195 193 193 195 205 205 206 199 200 201 99 100 101 53 54 56 57 57 58 56 57 59 
59 60 61 59 60 62 59 59 60 61 61 62 60 60 62 59 60 61 58 59 60 61 61 62 
58 59 60 57 59 60 55 56 56 53 54 55 51 51 52 52 53 54 48 49 50 47 47 48 
43 44 45 44 44 44 42 42 43 40 41 42 40 40 41 37 38 39 35 36 38 34 35 35 
34 35 35 30 31 31 31 31 32 30 31 31 29 29 29 26 27 27 26 26 27 24 25 26 
25 25 26 23 23 23 22 22 22 21 21 21 21 21 21 19 20 20 21 21 21 18 19 19 
18 18 18 17 17 17 15 16 16 15 16 16 14 14 14 14 15 15 13 13 13 13 13 13 
12 12 13 11 11 11 10 11 11 10 10 10 11 11 11 10 10 10 9 9 9 9 9 10 
9 9 9 9 9 9 9 9 9 9 9 9 9 9 9 8 8 8 8 8 8 7 7 7 
8 8 8 8 8 8 7 7 7 7 7 7 6 6 6 7 7 7 7 7 7 6 6 6 
7 7 7 7 7 7 5 5 5 6 6 6 6 6 6 6 6 6 5 5 5 5 5 5 
22 22 22 30 30 30 26 26 26 28 28 28 29 29 29 167 56 60 246 70 76 219 62 67 
4 1 1 0 0 0 
0 0 0 0 0 0 161 23 27 244 27 34 230 26 34 29 29 29 30 30 30 29 29 29 
30 30 30 29 29 29 7 7 7 7 7 7 8 8 8 9 9 9 8 8 8 9 9 9 
8 8 8 10 10 10 9 9 9 9 9 9 10 10 10 11 11 11 10 10 10 11 11 11 
11 11 12 12 12 12 13 13 13 13 13 13 14 14 14 14 14 14 13 15 15 17 17 17 
17 17 17 17 18 18 17 17 17 19 19 19 20 20 20 21 21 21 21 21 22 22 23 23 
23 23 24 24 24 25 26 26 26 26 26 26 28 29 29 29 30 30 30 30 30 30 31 31 
31 32 32 34 35 35 34 34 35 37 37 38 38 38 39 40 41 41 41 41 42 42 42 43 
42 43 44 45 45 47 46 46 47 47 49 49 49 49 49 49 49 50 49 50 51 51 51 52 
51 52 52 51 51 52 51 51 53 49 49 50 48 49 50 168 168 168 191 191 191 185 185 186 
180 181 181 181 181 182 184 185 185 189 189 191 186 186 187 187 187 188 189 190 191 193 194 194 
201 202 204 200 201 202 198 199 199 204 204 206 204 204 205 209 210 210 209 210 211 210 211 212 
209 210 211 219 220 221 212 213 214 214 215 216 210 210 211 205 206 206 203 204 204 198 199 199 
201 202 203 198 199 200 199 199 201 196 196 197 189 190 190 188 189 190 191 192 192 186 187 187 
188 189 189 190 190 190 202 203 203 149 151 151 54 55 57 54 55 56 59 59 61 58 59 60 
60 61 63 60 61 62 61 62 63 60 61 62 62 63 64 59 60 62 60 61 63 58 59 60 
58 58 60 56 57 58 53 54 55 50 51 52 50 51 52 50 50 51 47 48 49 46 46 48 
42 43 44 42 42 43 40 41 42 40 41 41 37 38 38 36 37 38 34 34 35 34 35 35 
30 31 31 30 31 31 29 30 30 29 30 30 26 27 27 26 27 27 24 24 24 24 24 25 
23 24 24 21 22 22 21 22 22 20 20 21 20 20 20 19 19 19 17 18 18 18 18 18 
17 17 17 16 17 17 15 16 16 13 14 14 13 13 13 13 13 13 12 12 12 11 11 11 
11 11 12 12 12 12 11 11 11 10 10 10 10 10 10 9 10 10 9 9 9 9 9 9 
8 8 8 9 9 9 8 8 8 9 9 9 8 8 8 8 8 8 7 8 8 7 7 7 
7 7 7 7 7 7 6 6 6 6 6 6 7 7 7 6 6 6 6 6 6 6 6 6 
6 6 6 5 5 5 4 4 4 5 5 5 5 5 5 5 5 5 4 4 4 5 5 5 
25 25 25 29 29 29 28 28 28 24 24 24 24 24 24 205 65 70 245 72 78 201 61 66 
0 0 0 0 0 0 
0 0 0 0 0 0 125 18 22 244 28 35 240 28 35 27 27 27 27 27 27 31 31 31 
32 32 32 31 31 31 11 11 11 9 9 9 9 9 9 9 9 9 10 10 10 9 10 10 
11 11 11 11 11 11 10 11 11 12 12 12 12 12 12 12 12 13 13 13 13 14 14 14 
13 13 13 14 14 14 13 13 13 14 15 15 15 16 16 16 16 16 17 17 18 19 19 19 
18 19 19 20 20 20 21 21 21 21 21 22 22 22 22 21 21 22 23 23 23 24 24 24 
24 25 25 26 26 26 28 28 29 28 29 29 30 31 31 31 32 32 32 33 33 32 33 33 
34 35 35 35 36 36 38 39 40 39 39 40 40 41 41 43 43 43 43 43 44 44 44 46 
44 45 46 47 48 49 48 49 49 50 51 52 50 50 51 51 52 53 50 50 51 52 52 54 
51 52 53 52 52 53 50 51 52 51 51 52 137 137 137 202 202 203 195 195 196 183 184 185 
183 183 184 189 190 191 193 195 195 196 197 198 197 197 199 194 194 195 199 200 201 202 202 203 
203 203 204 203 204 204 205 206 206 207 208 209 215 216 217 215 216 217 218 219 220 216 217 217 
217 218 218 218 219 219 217 218 219 219 220 220 219 220 221 216 217 218 213 215 215 213 214 215 
205 206 207 204 204 205 201 202 202 197 198 198 200 201 201 196 196 197 195 196 197 192 193 193 
198 199 200 203 203 204 186 187 187 57 58 59 55 56 57 58 59 60 58 59 60 61 62 63 
61 62 64 62 62 64 62 62 64 62 63 63 62 62 63 61 62 63 62 63 64 58 59 60 
58 59 61 55 56 57 55 56 57 53 53 53 53 54 55 50 51 51 49 49 50 46 46 48 
46 46 47 43 43 44 42 43 43 40 40 41 39 39 40 37 37 38 35 36 37 34 35 35 
33 34 34 33 33 33 30 30 31 30 31 31 28 29 29 29 29 29 25 25 26 26 26 27 
24 24 24 23 23 23 22 23 23 22 23 23 21 21 22 22 22 22 19 19 19 18 18 18 
18 18 18 17 18 18 15 15 16 15 16 16 15 15 15 15 15 15 13 13 13 13 13 14 
12 13 12 12 12 13 12 12 12 12 12 13 11 11 11 11 11 11 11 11 11 9 9 9 
10 10 10 10 10 10 9 9 9 9 9 9 9 9 9 8 8 9 9 9 9 9 9 9 
8 8 8 9 9 9 8 8 8 8 8 8 8 8 8 7 7 7 7 7 7 8 8 8 
8 8 8 7 7 7 8 8 8 7 7 7 7 7 7 7 7 7 7 7 7 8 8 8 
29 29 29 30 30 30 30 30 30 31 31 31 28 28 28 227 72 76 245 75 80 177 57 60 
0 0 0 0 0 0 
0 0 0 0 0 0 74 8 11 245 29 36 245 29 35 98 30 30 30 30 30 26 26 26 
31 31 31 30 30 30 19 19 19 8 8 8 8 8 8 8 8 8 10 10 10 8 8 8 
10 10 10 9 10 10 10 10 10 11 11 11 10 10 10 10 10 10 11 11 11 12 12 13 
13 13 13 14 14 14 14 14 14 14 14 14 15 15 15 16 16 16 18 18 18 17 17 18 
17 18 18 19 19 19 19 19 20 21 21 21 21 21 21 20 20 21 23 23 23 23 23 23 
24 24 25 26 27 27 27 28 28 27 28 28 29 30 30 30 31 31 31 31 31 33 34 34 
33 34 34 35 36 36 37 37 38 38 38 39 40 41 42 42 42 43 42 43 44 42 43 44 
46 46 48 46 46 47 48 49 50 48 48 49 49 50 51 49 50 51 50 51 53 50 51 52 
50 50 51 48 49 50 49 49 50 92 92 93 194 194 194 194 194 195 178 179 179 185 186 187 
182 184 184 181 181 182 185 185 187 183 183 184 191 192 193 193 193 194 195 196 196 198 200 200 
198 200 200 201 202 203 206 207 209 207 207 208 208 209 209 212 213 214 217 218 219 217 218 219 
217 218 219 219 220 220 215 216 217 210 211 212 213 213 214 209 209 210 208 209 210 208 209 210 
205 205 206 198 199 199 196 197 198 200 200 201 197 198 199 195 195 196 192 193 194 192 193 193 
201 202 202 198 198 199 79 80 81 56 57 58 57 58 59 60 61 62 60 61 62 61 62 63 
61 61 64 63 63 65 62 63 63 62 64 66 61 62 62 59 60 62 59 59 60 59 59 61 
56 57 58 55 55 56 53 54 54 52 53 54 49 50 51 48 49 49 46 46 48 44 45 46 
44 44 44 41 42 42 40 41 41 39 39 40 37 38 39 34 34 35 35 36 36 31 32 32 
31 32 32 29 30 30 30 31 31 28 29 29 28 29 29 25 25 25 25 25 26 23 24 25 
23 23 23 22 22 22 21 21 21 20 20 20 19 20 20 18 18 18 18 18 18 16 16 17 
15 15 15 14 16 16 13 13 14 13 13 13 13 13 13 13 13 13 12 12 12 12 12 13 
11 12 12 11 11 11 10 10 10 11 11 11 10 11 11 10 10 10 10 10 10 9 9 9 
9 9 9 9 9 9 8 8 8 8 8 8 8 8 8 8 8 8 8 8 8 8 8 8 
8 8 8 7 7 7 7 7 7 6 6 6 7 7 7 7 7 7 6 6 6 7 7 7 
7 7 7 6 6 6 6 6 6 6 6 6 6 6 6 5 5 5 6 6 6 10 10 10 
30 30 30 29 29 29 25 25 25 25 25 25 33 28 28 242 78 82 245 78 82 141 48 50 
0 0 0 0 0 0 
0 0 0 0 0 0 11 1 2 244 30 36 245 28 36 170 26 32 28 28 28 30 30 30 
30 30 30 29 29 29 24 24 24 9 9 9 8 8 8 8 8 8 8 8 8 9 9 9 
9 9 9 9 9 9 10 10 10 9 9 9 9 9 10 11 11 11 11 11 11 12 12 12 
12 13 12 13 13 13 12 13 13 13 14 14 15 16 16 15 16 16 16 16 17 17 18 18 
16 17 17 19 19 19 19 19 20 20 20 20 21 21 21 22 22 22 22 22 22 23 23 24 
25 25 25 26 27 27 26 27 27 28 28 28 29 29 29 30 30 30 30 31 31 32 33 33 
34 34 34 36 36 37 37 37 38 38 39 40 40 40 40 40 41 41 42 43 43 44 44 46 
44 45 46 46 47 48 46 46 47 47 48 48 47 49 50 49 50 51 49 49 50 48 49 50 
48 48 49 47 47 48 59 59 60 192 193 193 198 200 200 187 188 189 184 184 186 196 196 197 
190 190 192 190 190 191 193 194 195 194 196 196 200 201 201 197 198 199 200 201 202 214 216 217 
206 207 208 211 212 213 214 215 216 215 216 217 214 215 215 218 219 220 224 225 226 225 226 227 
221 222 223 225 226 227 218 220 220 218 219 220 216 217 218 216 217 219 217 218 219 215 216 218 
205 206 206 207 208 209 206 207 208 200 200 201 199 199 200 194 195 195 197 198 198 203 204 204 
211 212 212 127 127 128 57 59 60 56 57 59 59 60 60 60 61 61 63 63 64 59 60 63 
63 63 64 62 63 63 62 63 64 61 62 63 60 61 62 59 60 61 58 59 60 58 58 59 
54 55 56 53 54 54 51 52 53 51 52 53 49 50 51 48 48 49 44 44 45 43 43 44 
40 40 41 41 42 42 38 39 39 38 39 40 35 35 36 35 35 35 32 33 33 32 33 33 
30 31 31 29 30 30 29 30 30 26 27 27 27 27 27 24 24 25 23 24 24 21 21 21 
21 21 22 20 20 20 20 20 20 18 19 19 19 19 19 16 17 17 16 16 16 16 16 16 
15 16 16 14 14 14 14 14 14 12 13 13 12 12 12 11 11 11 11 11 11 11 11 11 
11 11 11 10 10 10 10 10 10 10 10 10 10 10 10 9 9 9 8 8 8 9 9 9 
8 8 8 8 8 8 8 8 8 7 7 7 7 7 7 8 8 8 6 6 6 7 7 7 
8 8 8 5 5 5 6 6 6 6 6 6 5 5 6 6 6 6 5 5 5 6 6 6 
5 5 5 6 6 6 5 5 5 5 5 5 4 4 4 5 5 5 5 5 5 18 18 18 
29 29 29 29 29 29 28 28 28 25 25 25 103 46 46 245 80 84 245 80 83 77 29 30 
0 0 0 0 0 0 
0 0 0 0 0 0 0 0 0 233 29 38 245 31 38 214 29 35 27 27 27 27 27 27 
32 32 32 32 32 32 30 30 30 9 9 9 9 9 9 9 9 9 9 10 9 11 11 11 
11 11 11 10 11 11 12 12 12 11 11 11 12 12 12 13 13 13 13 13 13 14 14 14 
13 14 14 15 15 15 14 14 14 15 15 15 15 17 17 17 17 17 18 18 19 20 20 20 
19 19 19 20 21 21 21 21 21 22 22 23 23 23 23 24 24 24 23 24 24 25 25 26 
28 28 28 28 29 29 29 30 30 30 30 30 31 32 32 32 33 33 33 33 33 34 35 35 
34 35 36 37 37 38 38 38 39 40 41 42 41 41 42 43 43 44 44 45 46 47 48 49 
46 47 47 49 50 51 48 49 50 49 50 50 48 49 50 51 51 52 49 49 50 50 51 52 
47 48 49 48 49 50 173 174 175 198 198 199 192 193 194 190 191 191 186 187 188 189 190 191 
193 194 194 191 192 193 192 193 194 199 200 201 198 198 199 197 198 199 201 202 202 205 205 206 
210 211 212 213 214 215 211 212 213 212 213 215 212 213 214 217 218 219 217 218 219 221 222 223 
225 226 227 220 221 222 218 219 220 211 212 213 209 210 211 207 208 209 206 207 208 213 214 214 
207 208 209 206 207 208 207 208 209 203 204 205 198 199 200 192 193 194 195 195 196 206 206 208 
175 176 176 55 56 57 58 58 59 58 60 61 61 61 61 62 63 65 62 64 64 62 63 65 
64 64 66 63 64 65 63 64 66 62 62 63 62 63 65 59 59 61 59 60 62 57 58 59 
56 57 58 54 55 55 53 54 55 49 51 51 49 50 51 46 47 48 46 46 47 43 43 44 
43 43 44 41 42 43 40 40 41 38 38 39 36 36 37 34 35 35 32 34 34 32 33 33 
30 31 31 30 31 31 29 29 30 29 29 29 27 28 28 25 26 26 24 24 24 23 23 23 
22 22 23 21 21 21 21 21 21 19 19 20 19 19 19 18 19 19 17 17 18 17 17 17 
16 16 16 15 15 15 15 15 15 60 60 60 24 24 25 12 12 12 12 12 13 12 12 12 
12 12 12 12 12 12 12 12 12 11 11 11 11 11 11 10 10 10 10 10 10 10 10 10 
10 10 10 9 9 9 9 9 9 9 9 9 8 8 8 9 9 9 8 8 8 9 9 9 
7 7 7 8 8 8 7 7 7 8 8 8 8 8 8 8 8 8 7 7 7 9 9 9 
8 8 8 7 7 7 7 7 7 7 7 7 7 7 7 7 7 7 7 7 7 26 26 26 
30 30 30 30 30 30 27 27 27 29 29 29 177 67 72 246 83 89 243 81 85 2 1 1 
0 0 0 0 0 0 
0 0 0 0 0 0 0 0 0 204 28 35 245 30 38 235 29 38 29 29 29 26 26 26 
28 28 28 29 29 29 30 30 30 8 8 8 8 8 8 8 8 8 9 9 9 8 8 8 
9 9 9 9 9 9 9 9 9 9 9 9 10 10 10 11 11 11 11 11 11 11 11 11 
12 12 12 12 13 13 13 13 13 14 14 14 14 15 15 16 16 16 16 16 16 17 17 17 
17 18 18 18 18 19 19 19 19 21 21 21 21 21 21 22 22 22 23 23 24 24 24 25 
26 26 26 25 26 26 27 28 28 29 30 30 30 30 30 30 31 31 32 33 33 32 33 33 
35 35 36 36 36 37 38 39 39 38 39 39 40 40 41 42 42 42 44 44 45 44 44 46 
46 47 48 46 47 48 47 47 48 47 49 49 47 48 48 48 48 49 47 48 49 47 48 49 
44 45 46 135 135 135 198 199 200 194 196 196 181 182 183 185 186 187 189 190 190 192 193 194 
188 188 189 188 189 190 193 193 194 198 199 200 201 203 203 197 197 198 203 204 206 206 206 208 
202 203 203 207 208 208 212 213 214 210 211 212 215 216 217 217 218 219 219 220 221 223 224 225 
217 218 218 217 218 219 215 216 217 216 217 217 214 215 216 209 210 210 203 204 205 203 204 205 
204 206 207 199 200 201 198 199 200 195 196 197 198 198 199 196 197 197 203 203 204 195 195 196 
63 64 65 57 58 59 57 59 60 60 61 62 60 62 63 63 63 65 62 63 64 63 63 65 
61 62 64 63 64 65 62 62 63 61 62 63 58 58 60 59 60 60 56 57 58 53 55 56 
53 54 54 51 52 53 50 50 51 47 49 49 47 47 48 43 44 45 43 44 45 40 40 41 
40 41 41 38 39 39 37 37 38 35 35 36 34 35 35 30 31 31 31 32 32 30 30 30 
29 31 31 27 28 28 27 27 27 26 26 26 25 25 25 21 21 22 21 21 21 21 22 22 
20 20 20 20 20 20 18 18 19 18 18 18 16 17 17 17 17 17 15 15 15 15 16 16 
13 14 14 11 12 12 95 95 95 146 146 146 11 11 11 10 10 10 10 10 10 10 10 10 
9 9 9 9 9 9 9 9 9 9 9 9 9 9 9 8 8 8 8 8 8 8 8 8 
8 8 8 7 7 7 6 6 6 6 6 6 6 6 6 6 6 6 6 6 6 6 6 6 
5 5 5 6 6 6 6 6 6 6 6 6 6 6 6 5 5 5 5 5 5 5 5 5 
5 5 5 3 3 3 4 4 4 5 5 5 5 5 5 4 4 4 5 5 5 27 27 27 
29 29 29 28 28 28 26 26 26 23 23 23 216 78 82 245 85 90 226 78 83 0 0 0 
0 0 0 0 0 0 
0 0 0 0 0 0 0 0 0 150 21 27 246 30 40 245 30 39 67 28 28 31 31 31 
31 31 31 32 32 32 31 31 31 18 18 18 10 10 10 9 10 10 11 11 11 11 11 11 
10 11 11 12 12 12 11 11 11 10 10 10 11 11 11 11 11 12 12 12 12 13 13 13 
14 14 14 14 14 14 14 15 15 15 17 17 16 16 16 18 18 19 17 18 18 20 20 20 
20 20 20 21 21 21 22 22 22 22 22 23 23 23 23 23 24 24 25 25 26 26 26 26 
27 28 28 29 29 29 30 30 30 30 31 32 30 31 32 33 34 34 34 35 35 36 36 37 
37 38 39 39 40 40 39 40 40 40 41 41 41 41 42 43 44 44 45 45 46 45 46 47 
46 48 49 46 48 48 47 48 49 47 49 50 49 50 51 48 49 50 48 48 49 47 47 47 
95 95 95 197 198 200 192 192 193 181 182 183 177 177 178 181 181 182 189 190 190 191 192 193 
184 186 186 193 194 194 191 192 193 194 195 196 198 199 200 198 198 199 202 203 204 204 205 205 
205 206 207 205 206 207 210 211 213 209 210 211 212 213 214 215 215 216 212 212 213 218 219 220 
214 215 216 213 213 214 215 216 217 207 208 209 209 210 211 207 208 208 207 208 208 199 200 201 
203 203 204 199 199 200 193 194 194 192 193 193 195 196 197 204 204 205 203 204 205 107 107 107 
58 59 60 58 60 61 61 62 64 61 62 63 63 64 65 64 64 66 65 66 67 64 64 66 
64 65 66 64 65 66 61 62 63 62 63 64 61 61 62 60 61 62 56 57 59 55 55 56 
53 55 55 54 54 55 51 51 52 50 51 52 46 46 48 45 46 48 44 44 45 43 43 44 
40 40 41 40 40 41 38 38 39 36 37 38 34 35 35 33 34 34 32 33 33 30 31 31 
29 31 31 27 28 28 28 28 28 25 25 25 26 26 27 22 23 23 23 24 24 20 21 21 
21 21 21 20 20 20 19 19 19 18 18 18 17 17 17 17 17 18 16 16 16 14 16 16 
17 17 17 123 123 123 156 156 157 118 118 118 13 13 13 11 11 12 12 12 12 10 10 10 
10 10 10 11 11 11 11 12 12 11 11 11 11 11 11 10 10 10 9 9 9 9 9 9 
10 10 10 9 9 9 8 8 8 8 8 8 9 9 9 9 9 9 8 8 8 7 7 7 
7 7 7 8 8 8 7 7 7 7 7 8 8 8 8 7 7 7 7 7 7 6 6 6 
6 6 6 6 6 6 6 6 6 6 6 6 6 6 6 6 6 6 11 11 11 31 31 31 
30 30 30 31 31 31 30 30 30 30 30 30 238 89 91 246 89 92 193 71 74 0 0 0 
0 0 0 0 0 0 
0 0 0 0 0 0 0 0 0 46 6 8 246 33 41 244 31 40 165 28 35 26 26 26 
30 30 30 30 30 30 30 30 30 25 25 25 8 8 8 7 8 7 8 8 8 9 9 9 
9 10 10 10 10 10 9 9 9 9 9 9 11 11 11 10 10 11 10 11 10 11 11 11 
12 13 13 14 14 14 14 14 14 14 14 14 16 16 16 16 16 16 17 18 18 18 18 18 
18 19 19 19 20 20 20 20 21 20 20 21 22 22 22 23 23 23 23 24 24 26 26 26 
26 27 27 26 27 27 28 29 29 30 30 30 30 31 31 32 32 32 33 34 34 34 35 37 
37 37 38 38 39 39 37 38 39 40 40 41 41 42 42 42 43 44 43 43 44 46 47 48 
44 45 46 47 47 47 47 47 47 46 47 48 46 47 48 47 48 49 46 46 46 57 58 59 
189 189 190 192 192 192 177 178 178 176 177 178 182 183 183 183 184 185 180 180 181 185 186 186 
191 191 193 192 193 194 195 196 198 192 193 193 201 201 202 199 201 201 204 204 206 200 201 202 
206 207 208 210 210 211 210 211 212 218 219 220 211 212 213 212 213 214 222 223 224 215 216 217 
212 213 213 210 211 211 212 213 213 215 216 217 206 207 208 204 205 205 198 199 199 201 202 203 
198 199 200 199 199 200 192 193 194 189 189 190 199 201 201 206 206 207 155 156 157 55 56 57 
59 59 61 58 60 61 61 62 63 62 63 64 62 64 66 62 64 66 64 65 67 62 62 63 
65 65 66 62 62 63 60 61 63 60 60 62 59 60 61 57 58 58 54 56 57 52 53 53 
52 52 53 48 49 50 49 50 50 46 48 49 44 45 46 42 43 44 40 40 41 40 41 41 
37 39 39 38 38 39 35 35 36 34 35 35 32 33 33 31 32 32 30 30 30 29 30 30 
26 27 27 27 28 28 25 25 25 24 24 24 23 23 24 22 22 22 21 21 21 21 21 22 
20 20 20 18 18 18 17 17 17 15 16 16 16 16 16 15 15 15 13 13 13 35 35 35 
143 143 144 156 156 156 155 155 155 59 59 60 10 10 10 10 10 10 10 10 10 9 9 9 
8 8 8 9 9 9 9 9 9 9 9 9 9 9 9 8 8 8 8 8 8 8 8 8 
8 8 8 8 8 8 7 7 7 6 6 6 7 7 7 7 7 7 6 6 6 5 5 5 
5 5 5 5 5 5 6 6 6 5 5 5 6 6 6 5 5 5 4 4 4 3 3 3 
5 5 5 4 4 4 4 4 4 4 4 4 5 5 5 4 4 4 20 20 20 29 29 29 
29 29 29 28 28 28 24 24 24 92 46 47 246 92 95 246 91 94 127 49 50 0 0 0 
0 0 0 0 0 0 
0 0 0 0 0 0 0 0 0 0 0 0 233 32 42 244 32 41 219 31 40 30 30 30 
30 30 30 31 31 31 31 31 31 30 30 30 9 9 9 9 9 9 9 9 9 10 11 11 
11 11 11 11 11 11 11 11 11 11 11 11 11 11 12 12 12 12 13 13 13 14 14 14 
14 14 14 14 15 15 15 16 16 16 16 16 17 17 18 19 19 19 19 19 19 20 20 20 
20 20 20 21 21 21 21 21 22 21 21 21 23 24 24 25 25 26 26 26 26 26 27 27 
28 28 28 28 29 29 30 31 31 29 30 30 32 33 33 33 34 34 35 36 36 37 37 39 
39 39 40 38 40 40 41 41 41 41 41 42 43 44 45 44 44 44 46 47 47 46 46 47 
47 47 47 47 47 48 47 48 49 46 48 49 47 47 48 48 48 48 44 44 45 165 165 166 
197 198 198 186 186 187 178 179 179 182 183 183 180 181 182 185 185 186 185 186 187 188 188 189 
193 194 194 190 192 192 199 200 201 198 199 200 200 200 201 202 203 204 203 204 205 204 205 205 
207 208 209 205 206 207 212 213 214 212 213 214 212 213 214 216 217 218 221 222 223 217 218 219 
214 215 215 213 214 215 214 215 216 207 207 209 213 214 215 208 208 209 197 197 198 195 196 196 
202 203 204 194 194 195 195 196 196 194 195 195 205 205 206 187 187 187 57 58 59 60 60 62 
59 61 61 63 63 65 63 64 64 65 66 68 64 64 66 66 66 68 64 65 66 66 66 67 
63 64 65 63 64 66 61 62 63 61 62 63 59 60 61 56 57 59 54 55 56 53 53 54 
53 53 54 49 50 51 49 50 51 46 46 47 45 46 47 43 44 45 42 42 43 39 40 40 
40 40 41 37 37 38 36 36 37 33 34 35 33 34 34 31 32 32 29 30 30 29 30 31 
27 27 28 26 27 27 26 26 26 25 25 26 22 23 23 23 23 23 20 20 20 20 20 20 
20 20 20 18 18 19 17 17 17 17 18 18 15 15 15 15 15 15 79 80 80 153 153 154 
154 155 155 154 154 154 148 149 149 11 11 11 10 10 11 11 11 11 10 10 10 9 9 9 
10 10 10 9 10 10 10 10 10 9 9 9 8 8 8 9 9 9 9 9 9 8 8 8 
9 9 9 8 8 8 7 7 7 8 8 8 7 7 7 8 8 8 8 8 8 6 6 6 
7 7 7 7 7 7 7 7 8 7 7 7 7 7 7 6 6 6 7 7 7 5 5 5 
6 6 6 6 6 6 6 6 6 5 5 5 6 6 6 7 7 7 26 26 26 29 29 29 
29 29 29 30 30 30 27 27 27 183 75 78 245 94 98 243 92 95 16 6 6 0 0 0 
0 0 0 0 0 0 
0 0 0 0 0 0 0 0 0 0 0 0 194 29 35 244 34 43 240 33 42 31 31 31 
32 32 32 33 33 33 32 32 32 32 32 32 17 18 17 11 11 11 12 12 12 13 13 13 
14 14 14 12 12 13 13 13 13 14 14 14 14 14 15 14 14 14 16 16 16 14 15 15 
16 16 16 16 16 16 18 19 19 20 20 20 19 19 19 20 21 21 21 21 21 21 22 22 
23 23 24 23 23 23 24 24 24 25 25 25 25 25 26 26 26 27 28 28 28 29 29 29 
30 31 31 31 32 33 33 33 33 33 34 34 35 36 36 36 37 37 37 37 39 39 39 40 
41 41 42 41 42 42 43 43 44 43 43 44 44 45 47 45 46 48 48 49 50 47 48 49 
49 49 50 47 47 48 49 49 51 46 47 48 48 48 49 46 46 47 133 134 135 190 190 190 
183 183 184 173 174 174 174 174 176 175 175 176 169 169 170 178 179 179 181 181 182 181 182 183 
182 182 183 187 187 189 191 191 192 189 190 190 196 196 197 197 198 199 195 196 196 197 198 199 
202 202 203 201 202 203 207 208 209 207 208 208 212 213 214 204 205 205 210 211 212 211 212 212 
207 208 209 202 203 204 196 196 197 194 195 195 205 206 206 195 196 197 192 193 193 192 193 193 
193 194 194 188 188 190 187 187 188 200 200 201 196 197 197 83 83 84 61 61 62 61 62 63 
64 66 66 64 65 67 66 66 68 68 68 69 66 67 70 67 68 70 66 67 69 67 67 69 
65 66 67 64 64 66 62 62 64 63 64 65 59 60 62 59 61 62 55 55 57 54 54 55 
53 53 53 53 53 54 49 50 51 47 48 49 45 46 47 45 45 46 43 44 44 42 42 43 
40 40 41 37 37 38 36 36 36 35 36 36 35 35 35 32 32 33 32 33 33 30 31 31 
29 30 30 29 29 29 27 28 28 25 25 25 24 24 24 23 23 23 22 22 22 21 21 21 
21 21 21 19 19 19 17 17 17 17 17 17 25 25 25 124 124 125 152 152 153 151 151 151 
131 131 132 153 153 154 122 122 122 12 13 13 12 12 12 11 11 11 12 12 12 11 11 12 
12 12 12 11 12 12 11 11 11 12 12 12 11 11 11 10 10 10 10 10 10 10 10 10 
9 9 9 9 9 9 9 9 9 9 9 9 9 9 9 8 8 8 9 9 9 8 8 8 
10 10 10 8 8 8 9 9 9 9 9 9 9 9 9 8 8 8 8 8 8 8 8 8 
9 9 9 7 7 7 8 8 8 8 8 8 8 8 8 8 8 8 31 31 31 32 32 32 
31 31 31 31 31 31 30 30 30 226 92 97 245 96 101 221 88 91 0 0 0 0 0 0 
0 0 0 0 0 0 
0 0 0 0 0 0 0 0 0 0 0 0 111 16 20 245 35 43 245 34 43 116 27 32 
30 30 30 31 31 31 32 32 32 31 31 31 25 25 25 9 9 9 9 10 10 9 9 9 
10 10 10 10 10 10 12 12 12 10 10 11 11 11 11 13 13 13 13 13 13 14 14 14 
14 15 15 14 14 15 16 16 16 16 17 17 18 18 18 19 19 19 20 20 20 20 20 20 
20 20 20 20 20 21 21 21 21 23 24 24 23 23 24 25 25 26 26 26 26 27 28 28 
30 31 31 30 31 31 30 31 31 32 33 33 33 34 34 34 35 36 36 36 38 37 38 39 
37 38 38 40 41 42 40 41 42 42 43 44 42 43 44 45 45 45 44 45 46 45 45 46 
45 46 47 46 47 47 46 47 47 45 45 46 45 45 46 93 93 94 194 195 195 197 197 198 
184 185 185 183 185 185 183 184 185 184 184 186 187 187 188 183 183 184 187 188 188 191 191 192 
188 188 189 195 196 196 191 192 193 200 201 201 209 210 210 209 210 211 209 210 210 209 210 211 
203 204 205 212 213 214 223 224 225 222 223 224 221 222 223 219 220 221 215 216 217 220 221 222 
215 216 217 211 212 212 209 210 211 203 204 204 212 213 214 201 202 203 201 202 203 204 205 206 
202 203 204 197 198 199 203 204 204 209 209 209 129 129 130 58 58 60 59 60 61 61 62 63 
63 64 66 62 64 64 67 67 69 65 65 67 66 66 68 64 65 66 65 66 68 63 64 66 
63 64 66 60 60 62 60 61 62 58 59 60 58 59 60 55 56 57 52 53 54 51 51 52 
49 50 51 49 49 50 46 46 47 44 45 46 41 42 43 42 42 42 38 39 39 39 39 40 
35 35 36 36 36 36 32 34 34 32 33 33 30 31 31 30 30 30 28 29 29 28 29 29 
25 26 26 25 25 25 23 23 24 22 22 23 21 21 21 20 20 21 19 19 19 18 18 19 
18 18 19 16 16 16 14 15 15 60 60 60 147 147 148 157 157 158 145 146 146 128 128 129 
141 141 142 158 158 158 69 69 70 10 10 10 11 11 11 10 10 10 10 10 10 9 9 9 
9 9 9 9 9 9 9 9 9 8 8 8 8 8 8 8 8 8 8 8 8 9 9 9 
8 8 8 7 7 7 7 7 7 8 8 8 7 7 7 7 7 7 7 7 7 6 6 6 
6 6 6 6 6 6 6 6 6 7 7 7 6 6 6 5 5 5 5 5 5 6 6 6 
5 5 5 6 6 6 5 5 5 5 5 5 5 5 5 16 16 16 29 29 29 29 29 29 
29 29 29 29 29 29 44 31 31 244 101 104 245 100 104 172 71 74 0 0 0 0 0 0 
0 0 0 0 0 0 
0 0 0 0 0 0 0 0 0 0 0 0 6 1 1 242 37 44 244 36 44 200 34 41 
32 32 32 31 31 31 31 31 31 32 32 32 32 32 32 10 11 11 12 12 12 11 11 11 
11 11 11 11 11 11 13 13 13 13 13 13 13 13 13 15 15 15 13 14 14 16 16 16 
16 16 16 16 17 17 18 18 18 18 18 19 19 20 20 20 20 20 21 21 21 21 21 21 
21 22 22 23 24 24 24 25 25 24 24 25 26 26 27 27 28 28 29 29 29 29 30 30 
29 31 31 31 31 31 33 34 34 33 34 34 35 36 37 35 36 37 39 39 40 38 39 40 
39 40 41 41 41 42 42 42 44 43 44 44 45 46 46 46 46 47 47 47 47 47 47 48 
44 45 46 47 48 49 45 46 47 46 47 48 57 58 59 192 192 193 198 198 199 187 188 189 
189 189 190 187 188 189 189 189 190 195 196 197 185 185 186 190 191 192 190 191 192 197 198 198 
198 198 200 197 198 199 201 202 203 207 208 208 209 210 211 214 215 216 205 206 207 213 214 215 
214 215 215 215 216 217 220 221 222 216 217 218 221 221 222 219 220 221 221 222 223 217 218 218 
215 216 217 212 213 214 210 211 212 205 206 206 211 212 213 208 209 210 202 202 203 204 204 205 
200 201 203 202 203 203 211 212 212 179 180 180 57 58 59 62 62 64 61 61 62 63 65 66 
64 65 66 66 67 68 65 66 68 67 67 69 65 66 68 67 68 68 66 66 68 64 65 66 
62 64 65 60 60 62 61 62 62 58 59 60 57 58 60 54 55 56 54 55 57 51 51 52 
50 50 51 47 47 48 46 47 48 43 44 45 43 44 44 40 41 42 40 41 41 39 39 40 
37 37 39 34 35 36 34 35 36 32 33 33 32 32 32 30 31 32 28 29 29 28 29 29 
26 26 26 24 24 24 24 24 24 22 22 23 21 21 21 20 20 21 19 19 19 18 19 19 
17 17 17 22 22 22 120 121 121 158 158 159 158 158 158 141 142 142 129 129 130 126 126 126 
151 151 152 153 153 153 12 12 12 10 10 10 11 11 11 10 10 10 11 11 11 10 10 10 
11 11 11 10 10 10 10 10 10 10 10 10 10 10 10 9 9 9 9 9 9 9 9 9 
9 9 9 9 9 9 9 9 9 9 9 9 8 8 8 9 9 9 8 8 8 8 8 8 
7 7 8 8 8 8 8 8 8 9 9 9 7 7 7 7 7 7 7 7 7 7 7 7 
7 7 7 7 7 7 6 6 6 6 6 6 7 7 7 26 26 26 30 30 30 30 30 30 
30 30 30 31 31 31 152 73 74 244 103 105 244 102 104 69 30 31 0 0 0 0 0 0 
0 0 0 0 0 0 
0 0 0 0 0 0 0 0 0 0 0 0 0 0 0 216 37 42 245 39 45 236 37 44 
31 31 31 31 31 31 30 31 30 31 31 31 32 32 32 17 17 17 11 11 11 11 11 11 
11 11 11 12 12 12 11 12 12 12 12 12 13 13 13 14 14 14 14 14 14 14 14 14 
15 16 16 16 16 16 17 17 18 18 18 18 19 19 19 20 20 20 20 20 20 22 22 22 
21 21 22 23 23 23 23 24 24 24 24 25 25 25 25 28 28 28 27 28 28 29 30 30 
29 31 31 31 31 31 31 32 32 33 34 34 34 35 35 36 37 38 39 40 40 38 39 40 
41 42 42 41 41 42 42 43 44 43 43 44 44 45 45 45 45 46 46 46 47 44 45 46 
45 45 46 45 45 46 45 46 46 43 44 45 171 172 172 198 198 200 190 190 191 177 177 178 
182 183 184 184 185 186 183 184 185 187 187 188 185 186 187 191 191 192 188 189 190 198 198 199 
198 199 200 201 203 204 204 205 206 202 203 204 200 200 202 207 207 208 211 212 213 214 216 216 
211 212 213 220 221 222 221 222 223 219 220 221 223 224 225 218 219 220 216 216 217 210 211 212 
212 213 213 208 208 209 204 205 206 213 214 215 209 210 211 202 202 204 197 197 199 195 195 196 
201 203 204 207 207 208 198 199 199 66 67 67 59 59 61 61 61 62 62 63 64 63 64 67 
64 66 67 67 67 69 65 66 68 67 68 70 65 66 66 66 66 68 63 64 66 63 65 66 
60 61 62 61 62 63 57 58 59 57 58 59 53 54 55 53 54 55 51 52 53 50 51 52 
47 47 49 45 46 46 44 44 44 42 42 43 42 42 43 39 40 41 40 40 41 36 36 37 
35 36 36 32 33 33 32 33 33 29 30 31 31 31 31 28 30 30 28 29 29 25 26 26 
24 24 24 23 23 24 22 22 23 21 21 21 20 20 21 19 19 19 17 17 17 16 16 16 
82 82 82 152 152 153 158 158 159 148 149 149 128 129 129 124 124 124 127 127 128 129 129 130 
157 157 157 129 130 130 10 10 10 10 10 10 9 9 10 10 10 10 10 10 10 10 10 10 
9 9 9 10 10 10 9 9 9 9 9 9 9 9 9 9 9 9 9 9 9 8 8 8 
7 7 7 8 8 8 8 8 8 8 8 8 8 8 8 7 7 7 6 6 6 7 7 7 
6 6 6 7 7 7 7 7 7 7 7 7 6 6 6 5 5 5 6 6 6 6 6 6 
7 7 7 6 6 6 6 6 6 5 5 5 6 6 6 29 29 29 30 30 30 31 31 31 
28 28 28 30 30 30 218 97 100 245 106 108 234 100 102 0 0 0 0 0 0 0 0 0 
0 0 0 0 0 0 
0 0 0 0 0 0 0 0 0 0 0 0 0 0 0 140 24 27 245 41 48 244 40 47 
109 33 37 32 32 32 32 32 32 33 33 33 33 33 33 27 28 28 12 12 12 12 12 12 
12 12 12 13 13 13 13 13 14 13 13 13 15 15 15 14 15 15 16 16 16 15 15 15 
16 17 17 18 18 18 17 17 18 19 19 19 21 21 21 21 21 22 21 21 21 22 23 23 
22 22 23 25 26 26 25 25 26 26 26 27 27 28 28 28 29 29 30 30 30 30 31 31 
31 31 31 32 33 33 33 34 34 35 36 36 35 36 37 39 39 40 38 38 39 41 42 42 
42 42 42 42 42 43 43 44 44 44 44 46 46 46 47 46 47 47 46 47 48 45 45 46 
46 47 47 45 46 47 46 47 47 132 132 133 191 192 192 184 184 185 174 175 176 174 174 175 
176 177 178 177 177 177 174 174 176 176 176 176 179 179 180 182 183 184 182 182 183 187 188 189 
192 192 193 188 189 190 194 194 196 194 194 195 192 193 193 200 201 201 198 199 199 200 200 202 
209 210 210 206 207 207 206 206 207 211 212 213 210 210 211 207 208 209 206 206 207 198 198 199 
203 203 204 203 204 205 196 197 197 203 204 205 191 191 192 192 193 193 190 191 191 182 183 183 
202 202 203 201 202 203 108 108 109 57 58 59 60 62 63 61 62 63 64 65 66 64 65 65 
67 67 69 65 65 67 66 67 70 65 66 67 66 67 69 65 66 67 64 66 66 61 62 63 
60 61 63 59 60 62 59 59 61 56 58 58 53 54 55 53 53 53 51 51 52 50 51 52 
47 47 49 46 46 48 43 44 45 43 44 44 41 42 42 41 42 43 37 37 39 37 37 39 
35 36 37 34 35 36 32 33 33 30 30 30 29 30 31 28 29 29 27 28 28 27 27 27 
25 25 25 22 22 23 21 22 22 20 20 20 19 19 20 19 19 19 57 57 57 136 136 137 
153 153 154 151 151 151 133 133 133 119 119 120 120 120 121 119 119 120 120 120 120 134 134 134 
153 153 153 74 74 74 11 11 11 11 11 11 11 11 11 11 11 11 10 10 10 11 11 11 
10 10 10 10 10 10 10 10 10 10 10 10 9 9 9 10 10 10 10 10 10 10 10 10 
9 9 9 9 9 9 8 8 8 9 9 9 9 9 9 9 9 9 9 9 9 9 9 9 
8 8 8 8 8 8 9 9 9 7 7 7 7 7 7 7 7 7 8 8 8 7 7 7 
8 8 8 7 7 7 7 7 7 7 7 7 19 19 19 31 31 31 31 31 31 32 32 32 
32 32 32 47 37 37 243 110 112 245 108 112 187 84 86 0 0 0 0 0 0 0 0 0 
0 0 0 0 0 0 
0 0 0 0 0 0 0 0 0 0 0 0 0 0 0 8 1 2 241 42 50 245 42 50 
205 39 44 31 31 31 29 30 30 30 30 30 30 30 30 31 31 31 9 9 9 10 10 10 
11 11 11 11 11 11 12 12 12 11 12 11 12 12 12 13 13 13 13 14 14 14 15 15 
14 15 15 16 17 17 17 17 17 17 18 18 18 18 18 19 19 19 21 21 21 19 20 20 
22 22 22 22 23 23 23 23 24 24 24 24 26 26 26 26 27 27 29 29 29 29 30 30 
30 30 30 30 31 31 32 33 33 33 34 34 35 36 37 36 37 37 38 38 38 40 40 41 
39 39 40 41 41 42 40 41 42 43 44 45 44 44 44 44 44 45 43 43 44 44 45 45 
42 43 44 43 45 46 90 91 91 189 189 189 195 195 197 179 180 180 176 176 177 184 184 185 
180 181 182 186 188 188 183 184 184 185 185 186 180 181 181 186 186 188 188 189 189 189 190 191 
195 196 197 195 196 196 201 202 203 201 201 203 200 200 201 205 206 207 215 216 217 210 211 211 
214 215 216 215 216 216 220 221 222 219 220 221 211 212 213 217 218 219 208 209 209 202 203 203 
206 207 208 201 202 202 202 203 203 203 204 204 204 205 206 196 197 198 197 198 199 197 198 198 
209 209 210 154 155 156 55 55 57 58 59 60 58 58 60 62 63 64 61 61 63 62 63 64 
64 64 66 64 64 66 63 64 66 64 64 65 63 64 65 61 62 64 60 61 62 58 59 59 
59 59 59 55 56 57 55 55 57 51 52 53 50 51 52 47 47 48 48 50 50 45 46 47 
44 44 45 41 42 43 41 41 42 39 39 40 37 38 38 36 36 37 34 35 36 32 33 35 
31 32 32 30 31 31 28 29 29 29 29 29 26 27 27 25 26 26 23 24 25 23 24 24 
21 21 22 20 20 20 19 19 19 19 19 19 51 51 51 133 133 133 155 155 156 154 154 155 
143 143 144 125 125 126 122 122 123 119 119 120 121 121 122 126 126 127 123 123 124 147 147 148 
150 150 151 11 11 11 9 9 9 8 8 8 8 8 8 9 9 9 9 9 9 8 8 8 
8 9 9 8 8 8 8 8 8 8 8 8 7 7 7 7 7 7 8 8 8 7 7 7 
7 7 7 7 7 7 6 6 6 6 6 6 6 6 6 6 6 6 6 6 6 5 5 5 
6 6 6 6 6 6 6 6 6 4 4 4 5 5 5 5 5 5 5 5 5 4 4 4 
4 4 4 4 4 4 5 5 5 4 4 4 25 25 25 29 29 29 29 29 29 28 28 28 
28 28 28 151 77 78 245 114 116 244 112 114 78 37 38 0 0 0 0 0 0 0 0 0 
0 0 0 0 0 0 
0 0 0 0 0 0 0 0 0 0 0 0 0 0 0 0 0 0 213 40 47 244 43 51 
237 42 50 31 31 31 31 31 31 31 31 31 31 31 31 31 31 31 18 18 18 10 10 10 
11 11 11 11 11 12 12 12 12 12 12 12 13 14 13 13 14 14 13 13 13 15 16 16 
16 16 16 16 16 17 17 17 17 17 17 17 18 18 19 20 20 20 20 20 20 21 21 22 
22 22 22 22 23 23 24 24 25 26 26 26 26 27 27 26 27 27 28 29 30 30 30 30 
30 31 31 31 32 32 33 34 34 34 35 35 36 36 37 36 37 37 39 40 40 39 39 40 
40 41 42 40 41 42 43 43 45 43 43 44 43 44 45 42 42 43 43 44 44 43 43 44 
42 43 44 54 55 56 183 183 183 190 190 190 175 175 177 177 178 178 178 178 179 176 176 178 
182 183 183 187 188 189 185 185 186 185 185 187 185 186 186 189 190 190 192 193 194 192 192 193 
195 196 197 197 197 199 202 203 204 200 200 201 208 209 210 200 201 202 209 210 211 211 212 213 
208 209 209 212 213 214 221 222 223 216 217 217 210 211 212 210 211 212 209 210 210 201 202 202 
204 204 206 200 200 201 202 203 204 196 196 197 198 199 199 192 194 194 196 197 198 206 206 207 
189 189 190 56 57 58 55 56 57 57 57 58 58 59 60 61 62 64 59 60 62 63 64 65 
63 64 65 63 63 65 62 62 64 62 64 65 60 61 62 60 61 62 58 58 59 58 58 59 
55 56 57 55 55 56 52 53 54 50 50 51 48 48 49 47 49 49 46 47 48 43 43 44 
41 42 43 38 39 40 40 40 40 37 38 38 37 38 38 35 35 36 33 33 35 31 32 33 
30 31 31 28 29 29 27 28 28 25 26 26 25 25 25 23 23 23 22 23 23 21 21 21 
20 20 21 18 18 19 68 68 68 134 135 135 158 159 159 157 157 158 147 147 147 131 131 132 
127 127 128 125 125 126 125 125 125 127 127 128 124 124 125 124 124 124 131 131 132 159 159 160 
128 128 129 7 7 8 8 8 8 8 8 8 8 8 8 8 8 8 8 8 8 8 8 9 
9 9 9 7 7 7 8 8 8 8 8 8 7 7 7 8 8 8 8 8 8 7 7 7 
7 7 7 7 7 7 6 6 6 6 6 6 6 6 6 5 5 5 5 5 5 6 6 6 
5 5 5 6 6 6 5 5 5 5 5 5 6 6 6 5 5 5 5 5 5 4 4 4 
5 5 5 4 4 4 5 5 5 10 10 10 28 28 28 28 28 28 29 29 29 29 29 29 
29 29 29 219 107 108 245 116 117 231 108 110 0 0 0 0 0 0 0 0 0 0 0 0 
0 0 0 0 0 0 
0 0 0 0 0 0 0 0 0 0 0 0 0 0 0 0 0 0 128 25 29 246 45 53 
244 43 53 131 36 39 30 30 30 30 30 31 31 31 31 32 32 32 27 27 27 10 10 10 
10 10 10 11 11 11 11 11 11 12 12 12 12 13 13 13 13 13 14 14 14 15 15 15 
16 16 16 17 17 17 17 18 18 18 18 18 18 19 19 20 20 20 20 20 20 20 20 20 
21 22 22 23 23 23 23 23 23 25 25 25 26 27 28 27 28 28 29 30 30 30 30 30 
29 30 30 32 33 33 32 33 33 35 36 36 36 36 36 37 38 38 38 39 40 38 38 39 
40 40 41 41 41 42 42 42 43 42 42 43 42 43 44 41 42 43 43 44 45 40 42 43 
42 42 43 168 168 169 191 192 193 176 176 177 177 177 178 174 174 176 180 181 181 179 180 181 
186 186 187 187 187 189 186 188 188 185 185 186 190 191 192 192 193 193 195 195 197 199 199 200 
194 195 196 202 202 203 204 205 206 204 205 206 207 208 210 211 212 212 212 213 214 215 216 217 
214 215 216 219 220 221 216 217 218 217 218 219 214 215 215 205 206 207 206 207 207 204 204 205 
206 207 208 204 205 205 201 201 202 196 196 197 196 197 198 196 196 197 209 210 210 201 201 202 
80 81 82 53 53 55 56 57 58 56 57 58 58 59 61 59 60 61 60 60 61 60 61 61 
61 62 63 59 60 62 60 61 62 59 60 61 58 59 61 56 57 58 55 55 56 56 56 57 
53 53 54 52 52 54 48 50 50 47 49 50 44 45 46 46 47 47 42 43 44 41 42 43 
38 39 40 39 40 40 37 37 37 36 37 37 33 33 34 34 35 36 30 30 32 29 30 30 
28 29 29 28 29 29 26 26 26 24 25 25 23 24 24 22 23 23 20 20 20 38 38 38 
107 108 108 148 148 149 161 161 161 152 152 153 144 144 145 130 130 130 126 127 127 122 122 123 
122 122 122 124 125 125 122 122 123 125 125 125 120 120 121 121 121 122 138 138 139 154 154 155 
68 68 68 7 7 7 8 8 8 8 8 8 8 8 8 8 8 8 7 8 7 8 8 8 
7 7 7 7 7 7 8 8 8 7 7 7 8 8 8 7 7 7 7 7 7 5 5 5 
6 6 6 7 7 7 6 6 6 5 5 5 5 5 5 5 5 5 6 6 6 5 5 5 
5 5 5 5 5 5 4 4 4 4 4 4 4 4 4 4 4 4 4 4 4 4 4 4 
4 4 4 5 5 5 4 4 4 21 21 21 29 29 29 28 28 28 28 28 28 28 28 28 
61 42 42 244 118 120 245 117 119 181 88 89 0 0 0 0 0 0 0 0 0 0 0 0 
0 0 0 0 0 0 
0 0 0 0 0 0 0 0 0 0 0 0 0 0 0 0 0 0 0 0 0 239 47 54 
245 46 55 219 43 51 32 32 32 32 32 32 33 33 33 33 33 33 34 34 34 15 15 15 
13 13 14 13 13 13 13 13 13 14 14 14 15 15 15 15 15 15 15 15 16 17 18 17 
18 18 19 19 19 19 19 19 19 19 20 20 20 20 20 22 22 22 22 22 23 23 23 23 
23 24 24 24 24 24 27 27 27 26 27 27 28 29 29 29 30 30 30 31 31 31 31 31 
32 33 33 33 34 34 36 37 37 37 37 38 38 38 39 40 41 41 40 40 41 41 41 42 
41 42 43 42 42 44 42 43 45 44 45 46 42 43 44 43 44 45 42 43 44 43 43 45 
138 139 140 200 200 201 190 191 192 177 178 179 185 185 186 181 182 183 181 182 183 185 186 186 
193 193 195 189 190 190 192 193 194 194 195 195 191 191 193 197 198 198 201 202 203 201 202 203 
199 200 201 205 205 206 207 208 210 205 206 207 209 210 211 213 214 215 220 221 221 220 221 222 
219 220 221 221 222 223 220 221 222 224 225 226 222 223 224 216 217 218 216 216 217 207 208 208 
203 204 205 204 205 207 204 205 206 212 213 214 201 202 204 207 208 209 214 215 215 131 131 131 
52 53 53 53 54 56 55 56 57 57 57 58 58 59 61 59 60 61 59 60 61 59 60 62 
60 61 62 59 59 60 61 61 61 57 57 59 58 59 61 55 56 56 55 56 57 53 53 54 
53 53 54 48 49 51 48 49 49 46 46 47 46 47 47 43 44 45 41 42 43 40 41 41 
38 39 40 37 37 38 36 37 37 35 36 36 33 34 35 33 34 35 29 30 31 29 30 30 
27 28 28 27 28 28 25 26 26 27 28 28 70 71 71 116 116 117 147 148 148 167 167 169 
163 164 164 159 159 160 143 144 144 127 127 128 126 127 127 128 128 129 129 129 130 129 129 130 
127 127 127 127 127 128 125 125 126 129 129 129 128 128 129 126 126 127 152 152 153 149 150 150 
7 7 8 8 8 8 8 8 8 9 9 9 9 9 10 9 10 10 9 9 9 10 10 10 
9 9 9 9 9 9 9 9 9 9 9 9 9 9 9 9 9 9 8 8 8 8 8 8 
8 8 8 8 8 8 7 7 7 8 8 8 6 6 6 7 7 7 8 8 8 7 7 7 
8 8 8 7 7 7 6 6 6 7 7 7 6 6 6 5 5 5 6 6 6 6 6 6 
7 7 7 7 7 7 7 7 7 29 29 29 30 30 30 30 30 30 30 30 30 30 30 30 
182 96 98 246 122 125 244 120 122 53 29 29 0 0 0 0 0 0 0 0 0 0 0 0 
0 0 0 0 0 0 
0 0 0 0 0 0 0 0 0 0 0 0 0 0 0 0 0 0 0 0 0 193 42 48 
245 49 56 244 47 56 61 32 32 33 33 33 31 31 31 31 31 31 33 33 33 26 26 26 
13 13 13 12 12 12 13 13 13 14 14 14 14 15 15 15 16 16 14 15 15 16 17 17 
18 18 18 18 19 19 18 19 19 19 19 20 20 20 20 21 21 22 22 22 22 22 23 23 
23 23 24 25 25 25 27 27 27 27 28 28 28 29 29 30 30 30 31 31 31 30 31 31 
34 35 35 34 35 35 36 36 37 36 37 38 38 39 39 38 39 39 39 39 40 39 40 41 
41 42 43 42 42 43 42 43 43 42 43 43 42 43 43 42 43 43 41 43 43 93 94 95 
190 190 191 187 187 189 176 177 177 176 176 177 179 180 181 180 180 181 181 181 183 179 180 180 
184 184 186 185 185 186 187 187 188 188 189 190 188 188 189 191 191 192 195 196 196 197 198 199 
197 198 198 202 203 203 201 202 202 199 200 201 207 207 208 207 207 208 212 213 214 213 214 215 
215 216 217 219 220 220 214 215 216 209 210 211 212 213 214 206 208 209 204 205 205 202 203 204 
202 202 203 201 201 202 198 199 200 195 196 197 201 202 202 205 205 205 190 190 192 119 119 120 
119 119 120 119 120 121 118 118 119 118 119 120 118 120 120 120 120 121 118 119 120 118 119 120 
117 118 118 116 116 118 115 116 118 115 116 117 112 113 113 112 113 114 110 111 111 111 112 112 
109 109 110 108 109 110 107 107 107 104 104 106 103 104 105 101 101 101 101 101 102 98 98 99 
98 98 100 96 96 97 96 97 97 93 93 94 95 95 96 93 93 93 96 97 98 109 109 110 
124 124 125 139 140 140 152 152 153 160 161 161 162 162 163 163 164 164 160 160 161 150 150 150 
136 136 137 126 127 128 125 126 126 124 124 125 123 123 124 126 126 127 124 125 125 125 125 126 
126 126 127 124 124 125 125 125 126 125 126 126 125 125 126 131 131 132 158 158 158 117 118 118 
8 8 8 8 8 8 8 8 8 9 9 9 8 8 8 8 8 8 9 9 10 8 8 8 
8 9 8 9 9 9 9 9 9 8 8 8 9 9 9 7 7 7 7 7 7 8 8 8 
8 8 8 8 8 8 7 7 7 6 6 6 7 7 7 7 7 7 7 7 7 7 7 7 
8 8 8 5 5 5 5 5 5 6 6 6 5 5 5 5 5 5 5 5 5 5 5 5 
6 6 6 5 5 5 15 15 15 30 30 30 29 29 29 29 29 29 29 29 29 29 29 29 
236 123 124 246 126 127 220 111 113 0 0 0 0 0 0 0 0 0 0 0 0 0 0 0 
0 0 0 0 0 0 
0 0 0 0 0 0 0 0 0 0 0 0 0 0 0 0 0 0 0 0 0 57 12 14 
245 52 59 245 51 57 183 44 50 31 31 31 31 31 31 33 33 33 32 32 32 32 32 32 
12 12 12 12 13 12 12 12 12 12 12 12 14 15 15 14 16 16 15 15 15 17 17 18 
16 17 17 17 17 17 19 19 19 19 19 19 19 19 19 20 20 21 21 21 21 22 23 23 
24 24 24 25 25 25 25 26 26 28 29 29 28 29 29 29 30 30 30 30 30 32 33 33 
32 33 33 33 34 35 35 35 36 35 36 37 38 39 39 39 39 40 40 40 41 40 41 41 
41 42 43 41 42 42 42 43 43 41 42 42 41 42 43 39 40 41 55 56 56 187 187 188 
191 191 192 176 176 177 171 171 173 176 176 177 178 179 180 179 180 180 175 175 176 183 184 185 
187 188 189 187 187 188 192 192 193 190 190 192 195 195 196 196 196 197 195 196 197 201 202 203 
200 200 201 201 201 203 202 203 204 212 213 214 207 208 209 211 212 213 216 217 217 214 215 215 
214 215 216 215 216 216 216 217 218 209 210 210 211 212 213 211 212 212 205 206 206 204 205 205 
201 201 202 203 204 205 196 196 197 194 194 196 208 208 209 209 210 211 207 207 208 207 209 209 
205 206 206 204 206 206 200 201 201 202 202 203 197 197 199 197 197 197 191 192 193 193 194 194 
192 192 194 194 194 194 193 193 194 190 190 190 188 189 190 188 188 188 183 184 185 183 184 185 
181 182 182 182 182 183 179 180 181 184 184 185 179 179 180 178 178 179 177 178 179 175 176 176 
173 174 175 175 175 176 176 176 177 170 170 170 171 171 172 171 171 172 166 166 167 165 167 166 
169 169 170 166 167 167 158 158 158 153 154 154 144 144 144 131 132 133 129 129 130 129 130 131 
128 128 129 127 128 129 127 127 128 125 125 126 123 123 123 126 126 127 126 127 127 125 126 126 
125 125 126 124 125 125 125 125 125 124 124 124 122 123 123 145 145 146 156 157 157 42 42 43 
7 7 7 6 6 7 8 8 8 7 7 7 8 8 8 8 8 8 9 9 9 8 8 8 
8 8 8 8 8 8 8 8 8 8 8 8 7 7 7 7 7 8 7 7 7 6 6 6 
6 6 6 6 6 6 6 6 6 6 6 6 6 6 6 6 6 6 5 5 5 6 6 6 
6 6 6 5 5 5 4 4 4 5 5 5 5 5 5 5 5 5 5 5 5 5 5 5 
5 5 5 5 5 5 24 24 24 28 28 28 29 29 29 29 29 29 29 29 29 122 73 73 
246 129 130 245 128 128 133 71 71 0 0 0 0 0 0 0 0 0 0 0 0 0 0 0 
0 0 0 0 0 0 
0 0 0 0 0 0 0 0 0 0 0 0 0 0 0 0 0 0 0 0 0 0 0 0 
227 53 58 245 53 60 237 52 58 32 32 32 33 33 33 34 34 34 34 34 34 34 34 34 
24 24 24 14 14 14 14 15 15 14 15 15 16 16 16 16 17 17 17 17 17 18 18 18 
18 19 19 19 19 19 21 21 22 21 21 21 22 22 22 22 22 22 23 23 23 23 23 24 
26 26 27 27 27 27 27 28 28 29 30 30 31 31 31 31 31 31 31 32 32 34 35 35 
34 35 35 36 36 37 37 37 38 39 39 40 38 39 39 40 40 42 41 41 42 42 42 44 
42 42 43 43 43 44 41 42 43 43 43 44 41 41 41 39 40 41 171 171 172 197 197 197 
183 184 185 177 177 178 181 182 183 180 181 182 186 186 188 184 184 186 188 189 189 190 190 192 
193 194 194 197 198 200 192 193 194 194 195 195 196 197 198 202 203 204 202 203 205 204 205 207 
205 206 207 209 210 211 212 213 214 213 214 215 213 214 215 221 222 223 218 219 220 219 220 221 
220 220 221 222 223 224 219 220 221 217 218 219 210 211 213 210 211 211 209 210 211 211 211 212 
203 204 205 203 205 206 202 203 204 203 204 205 200 201 201 201 201 202 199 200 201 201 201 202 
194 195 196 192 193 193 195 196 197 194 195 196 192 192 194 186 187 188 182 182 184 181 182 182 
179 180 181 180 180 182 184 185 186 182 182 184 177 177 178 175 175 176 170 171 172 170 171 172 
166 166 167 166 166 168 167 168 168 166 166 167 165 165 165 158 159 160 166 166 168 161 163 163 
156 156 157 157 158 158 158 159 160 155 156 156 154 154 154 150 151 152 149 150 150 145 146 147 
145 145 146 136 137 138 141 141 142 135 136 136 132 132 133 131 132 132 132 133 133 128 129 129 
130 131 131 130 130 131 127 127 127 128 128 129 122 122 123 126 127 127 127 127 128 130 130 131 
127 127 128 127 127 128 125 125 125 127 127 128 125 126 126 159 159 160 140 141 142 8 8 8 
8 8 8 8 8 8 8 8 8 9 9 9 9 9 9 9 9 9 9 9 9 9 9 9 
9 9 9 9 9 9 10 10 10 9 9 9 8 8 8 7 7 7 8 8 8 8 8 8 
8 8 8 7 7 7 7 7 7 7 7 7 6 6 7 6 6 6 7 7 7 8 8 8 
8 8 8 7 7 7 5 5 5 6 6 6 6 6 6 6 6 6 6 6 6 7 7 7 
5 5 5 12 12 12 29 29 29 29 29 29 30 30 30 29 29 29 30 30 30 216 119 120 
245 132 132 238 126 127 6 3 3 0 0 0 0 0 0 0 0 0 0 0 0 0 0 0 
0 0 0 0 0 0 
0 0 0 0 0 0 0 0 0 0 0 0 0 0 0 0 0 0 0 0 0 0 0 0 
136 33 37 245 56 63 246 55 61 149 44 49 33 33 33 33 33 33 34 34 34 35 35 35 
34 34 34 13 13 13 14 14 14 15 16 16 15 17 17 16 17 17 18 18 19 19 19 19 
20 20 20 20 20 20 21 21 21 21 21 22 21 21 22 24 24 24 24 25 25 24 24 25 
26 27 27 27 28 28 29 29 29 30 30 30 31 32 32 32 33 33 33 34 34 34 35 35 
36 36 36 36 36 37 38 38 39 38 39 39 39 40 40 40 40 40 40 41 41 41 41 43 
42 43 44 42 43 44 40 41 42 41 42 43 40 41 42 138 138 139 197 198 199 190 191 192 
182 183 184 178 178 179 183 184 185 184 185 186 191 191 192 188 188 190 190 191 192 190 191 191 
189 190 191 196 197 198 195 196 197 205 205 206 203 204 205 207 207 208 209 210 211 208 209 210 
212 212 214 214 215 216 208 209 211 219 220 221 216 217 218 221 222 223 225 226 227 223 224 225 
227 228 229 225 226 227 227 228 229 218 219 220 217 218 219 209 210 210 216 217 218 205 206 207 
206 207 208 201 202 203 207 208 209 199 200 200 197 198 199 194 195 195 197 198 199 195 195 196 
192 194 194 190 190 191 192 193 194 185 186 186 193 195 195 180 181 182 177 179 179 176 176 178 
179 180 181 176 177 178 175 175 176 170 171 172 172 173 173 171 172 173 170 171 171 170 170 172 
157 157 158 167 169 169 158 158 159 161 162 163 159 160 161 159 160 161 158 159 160 153 155 155 
157 157 158 149 151 151 146 147 147 144 145 146 145 145 146 141 141 142 140 140 140 141 142 143 
135 136 136 136 136 137 138 139 140 132 132 133 133 134 135 131 131 132 131 132 133 128 128 129 
128 129 129 127 127 128 129 130 130 127 127 128 126 126 126 131 131 132 123 124 124 128 128 129 
127 128 128 127 127 127 126 126 127 131 131 132 145 145 145 160 160 161 81 81 82 8 8 8 
8 8 8 8 8 8 9 9 10 9 10 10 9 9 9 9 9 9 8 8 8 9 9 9 
10 10 10 8 8 8 10 10 10 9 9 9 8 8 8 9 9 9 9 9 9 9 9 9 
7 7 7 8 8 8 8 8 8 7 7 7 7 7 7 7 7 7 8 8 8 8 8 8 
7 7 7 6 6 6 6 6 6 6 6 6 6 6 6 6 6 6 7 7 7 6 6 6 
7 7 7 26 26 26 30 30 30 31 31 31 30 30 30 29 29 29 79 55 55 244 136 137 
245 136 136 187 103 104 0 0 0 0 0 0 0 0 0 0 0 0 0 0 0 0 0 0 
0 0 0 0 0 0 
0 0 0 0 0 0 0 0 0 0 0 0 0 0 0 0 0 0 0 0 0 0 0 0 
0 0 0 237 57 65 244 57 65 228 54 61 33 33 33 33 34 34 34 34 34 32 33 32 
32 32 32 21 22 22 14 14 14 15 15 15 15 16 16 16 16 16 17 17 17 17 18 18 
18 18 18 19 19 20 21 21 21 22 22 22 21 21 21 23 23 23 24 24 24 24 24 25 
26 26 26 27 28 28 28 29 29 29 30 30 30 31 31 31 31 31 31 32 32 34 35 35 
35 35 36 37 37 38 38 38 38 38 39 39 38 38 39 39 39 40 40 40 41 39 40 41 
42 43 43 40 41 41 40 40 41 39 39 40 96 97 98 199 200 202 196 197 197 185 185 187 
186 187 187 189 189 191 189 190 191 188 189 190 190 192 193 195 196 197 199 199 201 203 203 204 
203 204 206 204 205 206 205 206 206 206 208 209 211 212 212 216 217 219 212 213 214 208 209 210 
215 216 217 221 222 223 219 220 221 228 230 231 221 222 223 227 228 229 235 236 237 231 232 233 
228 229 230 226 227 228 229 231 232 224 225 226 220 221 223 221 223 224 218 219 220 215 216 218 
214 215 217 209 210 210 208 209 210 208 209 210 206 207 208 205 205 206 198 199 200 196 197 198 
205 206 206 193 194 195 190 191 192 192 193 194 186 187 188 185 185 187 185 186 186 184 184 186 
182 183 183 176 178 178 177 178 179 180 181 182 171 172 173 173 175 175 173 174 175 165 166 166 
171 171 173 171 173 173 163 163 165 164 165 166 163 163 165 159 159 160 160 161 162 161 161 162 
153 153 154 154 154 155 148 149 149 153 154 155 149 151 151 145 146 146 145 146 147 146 147 148 
139 140 140 143 144 144 138 139 140 143 144 144 136 137 137 137 137 138 138 139 140 133 134 134 
136 136 137 129 129 130 131 132 133 132 132 133 130 130 131 134 134 135 130 130 131 137 138 138 
135 135 136 128 128 129 134 134 135 133 133 134 157 157 157 153 154 154 6 6 6 7 8 8 
7 7 7 7 7 7 8 8 8 8 9 9 8 8 8 9 9 9 9 9 9 8 8 8 
8 8 8 8 8 8 8 8 8 7 7 7 7 7 7 8 8 8 9 9 9 7 7 7 
7 7 7 7 7 7 6 6 6 6 6 7 6 6 6 6 6 6 6 6 6 5 5 5 
5 5 5 5 5 5 6 6 6 5 5 5 6 6 6 5 5 5 5 5 5 5 5 5 
10 10 10 29 29 29 29 29 29 28 28 28 29 29 29 29 29 29 201 119 119 244 139 139 
242 137 137 39 23 23 0 0 0 0 0 0 0 0 0 0 0 0 0 0 0 0 0 0 
0 0 0 0 0 0 
0 0 0 0 0 0 0 0 0 0 0 0 0 0 0 0 0 0 0 0 0 0 0 0 
0 0 0 165 44 48 244 60 68 244 58 67 116 42 45 34 34 34 35 35 35 35 35 35 
35 35 35 33 33 33 14 15 15 16 17 17 16 16 16 17 18 18 18 18 18 19 19 19 
19 19 19 20 20 20 22 22 22 22 22 23 23 23 23 24 25 25 25 25 26 26 26 26 
27 28 28 28 29 29 30 30 30 31 32 32 31 32 32 33 34 34 33 34 34 36 36 36 
35 36 37 38 38 39 38 39 40 40 41 41 39 39 40 40 41 42 42 42 42 41 42 43 
41 41 42 41 41 41 39 39 40 57 57 58 183 184 185 191 191 192 176 177 178 172 173 174 
174 175 175 176 176 177 181 181 182 180 181 181 183 183 185 187 188 188 186 187 188 184 185 185 
193 194 195 195 195 197 196 196 197 193 194 195 196 196 197 207 208 209 201 201 202 199 200 201 
206 207 207 207 208 209 215 216 216 212 213 214 215 216 217 221 222 223 217 217 218 214 215 216 
214 214 215 214 215 216 214 214 215 212 213 214 213 214 214 208 209 210 199 200 201 201 202 203 
194 194 195 191 192 192 194 195 195 192 193 194 194 194 195 191 191 193 189 189 190 186 187 188 
186 187 187 181 182 182 177 178 178 175 176 176 175 175 176 170 171 172 172 173 174 171 171 172 
171 171 173 171 171 172 166 166 167 163 163 163 162 162 163 162 162 163 159 159 160 159 159 161 
153 154 154 152 153 154 154 155 155 154 154 155 150 151 151 150 151 152 147 148 148 148 149 150 
145 146 146 141 142 142 141 142 143 137 138 138 138 139 140 139 139 140 135 136 137 138 138 139 
133 133 134 132 133 133 130 131 131 130 131 131 128 128 129 129 130 130 127 128 128 125 126 127 
123 123 124 122 122 123 124 124 124 124 124 125 121 121 122 125 126 126 125 126 126 124 124 125 
124 125 125 122 122 122 123 123 124 138 138 139 158 158 159 95 95 95 8 8 8 8 8 8 
8 8 8 8 8 8 9 10 10 9 9 9 10 10 10 9 9 9 9 10 9 9 9 9 
9 9 9 10 10 10 8 8 8 8 8 8 8 8 8 8 8 8 8 8 8 8 8 8 
8 8 8 8 8 8 7 7 7 8 8 8 7 7 7 8 8 8 7 7 7 7 7 7 
5 5 5 6 6 6 6 6 6 7 7 7 6 6 6 7 7 7 6 6 6 6 6 6 
24 24 24 30 30 30 31 31 31 30 30 30 30 30 30 54 42 42 242 140 140 245 142 142 
205 119 119 0 0 0 0 0 0 0 0 0 0 0 0 0 0 0 0 0 0 0 0 0 
0 0 0 0 0 0 
0 0 0 0 0 0 0 0 0 0 0 0 0 0 0 0 0 0 0 0 0 0 0 0 
0 0 0 14 4 4 241 63 69 246 62 69 220 57 64 34 34 34 33 33 33 35 35 35 
34 34 34 35 35 35 24 24 24 15 15 15 16 16 16 17 17 18 18 19 19 19 20 20 
20 20 21 20 21 21 21 21 21 22 23 23 23 23 23 24 24 25 24 24 25 25 25 25 
27 28 28 29 29 29 29 30 30 30 30 30 31 32 32 32 33 33 33 34 34 34 35 36 
36 36 37 37 37 38 38 39 39 38 38 39 39 39 39 38 39 40 38 39 40 40 40 41 
38 39 40 40 40 41 37 38 38 164 164 165 184 184 185 171 171 172 166 166 167 166 166 167 
163 163 164 172 172 173 173 174 175 172 173 174 180 180 182 179 179 180 176 176 176 179 179 180 
181 182 182 182 183 184 186 187 187 189 189 190 190 191 192 190 190 191 190 191 191 194 195 196 
203 204 204 202 202 203 198 199 199 198 198 198 208 210 211 208 208 209 206 207 207 208 208 209 
203 203 204 204 204 205 202 203 203 193 194 194 199 200 201 199 200 200 187 187 188 192 192 194 
186 187 187 182 182 183 185 185 186 182 183 184 179 179 179 179 180 181 179 180 180 177 178 178 
177 178 178 171 171 172 171 172 173 168 168 168 163 164 165 161 161 162 164 165 166 166 166 167 
162 163 164 156 156 157 153 153 154 157 157 158 153 154 155 152 152 153 149 149 150 148 148 149 
148 149 149 145 145 146 147 148 148 143 143 143 143 143 144 143 144 144 138 138 139 138 138 139 
136 136 136 135 135 136 135 135 136 131 132 132 134 135 135 131 132 131 130 130 131 128 128 129 
127 127 128 125 126 127 124 124 125 123 124 124 124 124 125 124 124 125 119 119 120 119 119 119 
119 119 119 120 120 120 118 118 118 119 119 120 118 118 119 120 120 120 119 119 120 119 119 119 
119 119 119 120 120 121 121 121 122 150 150 150 147 147 148 9 9 9 7 7 7 7 7 7 
8 8 8 8 8 8 8 9 9 8 8 8 9 9 9 9 9 9 8 8 8 7 7 7 
8 8 8 8 8 8 8 8 8 8 8 8 7 7 7 8 8 8 7 7 7 6 6 6 
6 6 6 7 7 7 6 6 6 6 6 6 5 5 5 6 6 6 6 6 6 6 6 6 
5 5 5 5 5 5 6 6 6 6 6 6 5 5 5 5 5 5 6 6 6 10 10 10 
29 29 29 29 29 29 29 29 29 30 30 30 29 29 29 185 110 110 245 143 143 245 143 143 
74 46 46 0 0 0 0 0 0 0 0 0 0 0 0 0 0 0 0 0 0 0 0 0 
0 0 0 0 0 0 
0 0 0 0 0 0 0 0 0 0 0 0 0 0 0 0 0 0 0 0 0 0 0 0 
0 0 0 0 0 0 191 53 59 245 66 72 244 64 70 106 44 46 35 35 35 35 35 35 
35 35 35 34 35 35 35 35 35 16 16 16 17 17 18 17 18 18 19 19 19 20 21 21 
20 21 21 22 22 22 21 21 22 22 22 22 23 23 24 24 24 25 25 25 25 27 27 27 
27 28 28 28 29 30 30 31 31 31 32 32 32 33 33 32 33 33 34 35 36 35 36 37 
37 37 38 37 37 38 38 39 40 38 38 38 40 41 41 39 40 41 41 41 42 40 41 41 
40 40 41 38 39 39 138 139 140 191 191 193 180 180 181 174 175 175 174 175 176 176 177 177 
179 180 181 183 185 185 185 186 186 182 182 184 185 185 186 191 192 193 190 191 191 193 194 194 
193 195 195 196 197 197 199 199 201 200 200 201 209 210 211 208 209 210 207 208 208 209 210 211 
215 217 217 215 216 217 214 215 216 216 217 218 221 222 223 226 228 228 223 224 225 215 216 217 
218 219 219 214 215 216 208 209 211 206 207 208 206 207 209 208 209 210 204 204 205 202 202 203 
201 202 202 198 198 199 197 198 198 193 193 194 194 194 196 186 187 187 188 188 190 184 185 186 
191 192 193 187 188 189 185 186 187 178 179 179 177 178 179 175 175 176 176 177 178 172 173 174 
169 170 170 167 167 168 159 160 161 163 163 164 160 161 161 165 166 167 159 159 160 160 160 161 
157 157 158 155 155 156 158 158 160 152 153 153 151 151 152 152 153 153 147 147 148 146 147 147 
144 144 145 140 141 141 144 145 145 142 143 144 142 143 143 137 138 139 137 137 138 136 137 138 
133 133 134 131 132 132 129 130 130 130 130 131 132 133 133 131 131 132 125 126 126 130 130 131 
126 127 127 128 129 129 129 130 130 125 125 126 130 130 131 126 126 127 128 128 128 128 129 129 
127 127 128 126 126 126 140 140 141 157 157 158 90 91 91 7 7 7 7 8 8 8 8 8 
8 8 8 9 9 9 9 9 9 9 9 9 9 9 9 9 9 9 9 9 9 8 8 8 
8 8 8 9 9 9 7 7 8 8 8 8 8 8 8 8 8 8 7 7 7 8 8 8 
8 8 8 8 8 8 7 7 7 7 7 7 7 7 7 7 7 7 6 6 6 6 6 6 
6 6 6 6 6 6 7 7 7 5 5 5 6 6 6 6 6 6 5 5 5 24 24 24 
29 29 29 30 30 30 30 30 30 29 29 29 48 37 37 240 136 136 245 141 141 218 126 126 
0 0 0 0 0 0 0 0 0 0 0 0 0 0 0 0 0 0 0 0 0 0 0 0 
0 0 0 0 0 0 
0 0 0 0 0 0 0 0 0 0 0 0 0 0 0 0 0 0 0 0 0 0 0 0 
0 0 0 0 0 0 30 8 9 242 68 75 245 67 74 219 62 66 36 36 36 35 35 35 
37 37 37 36 36 36 37 37 37 29 29 29 18 18 19 19 19 19 20 20 20 20 20 21 
21 21 21 21 21 21 21 21 21 23 23 23 24 24 25 26 26 27 26 26 26 28 29 29 
29 29 30 30 31 31 30 30 30 31 33 33 32 33 33 34 35 35 34 35 36 37 37 38 
39 39 40 39 40 40 39 39 40 39 40 41 39 40 41 40 41 41 41 41 41 40 41 41 
40 40 40 95 96 96 189 190 191 188 189 189 180 180 182 178 179 180 182 183 184 181 182 183 
185 186 187 191 191 193 183 184 185 191 192 193 190 191 192 195 196 196 195 196 198 202 203 203 
202 203 204 198 199 199 202 203 204 211 212 213 212 214 215 213 214 215 212 213 214 214 215 216 
217 219 219 221 222 223 220 221 222 223 224 225 224 225 226 228 229 230 224 225 226 220 221 222 
224 225 226 221 223 224 217 218 219 213 214 215 212 213 214 208 209 210 208 209 209 205 206 207 
204 204 206 199 200 201 198 198 200 195 196 197 199 201 202 198 198 199 194 195 196 194 195 196 
192 193 194 188 189 190 186 188 188 183 183 185 180 181 181 178 178 179 180 181 181 172 173 174 
172 172 173 171 171 173 174 175 175 171 173 173 171 172 173 168 169 170 171 171 173 163 164 164 
163 163 165 161 162 162 158 158 160 156 157 158 159 160 161 154 155 156 151 151 152 150 151 152 
146 147 147 146 146 147 146 146 147 147 147 148 147 148 148 144 144 145 144 145 145 140 140 141 
138 139 139 139 139 140 137 138 139 137 138 139 134 135 136 133 133 134 132 132 133 134 135 135 
130 130 131 134 134 135 129 129 130 132 132 133 135 135 136 132 132 133 130 130 131 131 132 132 
134 134 135 132 132 133 160 160 160 148 148 149 8 8 8 7 7 7 8 8 8 8 8 8 
9 9 9 9 10 10 9 9 9 9 9 9 9 9 9 9 9 9 8 8 8 9 9 9 
8 8 8 9 9 9 8 8 8 9 9 9 9 9 9 8 8 8 8 8 8 8 8 8 
8 8 8 8 8 8 7 7 7 8 8 8 7 7 7 7 7 7 7 7 7 7 7 7 
7 7 7 6 6 6 7 7 7 7 7 7 7 7 7 7 7 7 13 13 13 29 29 29 
30 30 30 29 29 29 30 30 30 31 31 31 185 106 106 246 137 137 245 138 139 88 51 51 
0 0 0 0 0 0 0 0 0 0 0 0 0 0 0 0 0 0 0 0 0 0 0 0 
0 0 0 0 0 0 
0 0 0 0 0 0 0 0 0 0 0 0 0 0 0 0 0 0 0 0 0 0 0 0 
0 0 0 0 0 0 0 0 0 185 56 62 245 70 78 246 69 76 113 46 50 34 35 35 
36 36 36 36 36 36 37 37 37 37 37 37 18 18 18 19 19 19 20 20 20 21 21 21 
22 22 22 22 22 23 23 23 23 23 24 24 24 24 25 26 26 26 27 28 28 27 28 29 
29 30 30 30 30 30 32 32 32 31 32 32 32 33 33 34 35 35 36 36 38 36 37 38 
38 38 38 39 40 40 39 39 39 39 40 41 38 39 39 40 40 41 39 39 40 39 39 40 
54 55 56 180 180 180 185 185 186 163 164 165 170 170 171 169 169 170 171 172 172 173 173 174 
173 174 174 174 175 176 172 172 173 181 181 182 183 183 184 182 182 183 185 185 186 187 187 188 
189 189 190 186 187 187 192 192 193 194 194 195 200 200 202 200 200 201 200 200 201 202 203 203 
200 201 201 206 206 208 211 212 212 207 207 208 214 215 216 209 210 210 213 213 214 202 203 204 
202 203 203 199 200 200 206 207 208 201 202 203 196 197 198 192 192 193 192 193 194 193 194 195 
183 184 185 184 184 184 178 178 178 179 179 179 183 183 184 183 184 185 181 181 182 177 177 178 
171 171 171 176 176 177 173 174 174 169 170 171 173 173 174 162 163 164 163 163 164 163 164 164 
161 161 162 159 160 160 158 158 159 155 156 156 154 155 156 152 153 154 155 155 156 153 153 154 
149 150 151 151 152 153 148 149 150 150 150 151 147 147 148 144 144 145 143 144 144 139 139 140 
139 140 140 137 137 138 135 136 136 138 138 139 135 136 137 131 132 132 133 134 135 131 131 132 
130 131 132 127 127 128 126 127 128 123 123 124 124 124 125 121 122 123 123 123 124 122 122 122 
121 121 122 122 122 122 122 122 123 124 124 125 124 124 125 122 122 122 123 123 124 123 123 124 
123 123 124 144 144 145 153 153 154 61 61 62 7 7 7 6 7 7 8 8 8 9 9 9 
9 9 9 8 8 8 8 8 8 10 10 10 9 9 9 9 9 9 8 8 8 9 9 9 
9 9 9 7 8 8 8 8 8 8 8 8 8 8 8 9 9 9 8 8 8 8 8 8 
8 8 8 7 7 7 7 7 7 7 7 7 7 7 7 6 6 6 6 6 6 6 6 6 
6 6 6 6 6 6 6 6 6 7 7 7 7 7 7 7 7 7 27 27 27 31 31 31 
30 30 30 29 29 29 30 30 30 52 41 41 242 130 130 245 133 133 216 120 121 0 0 0 
0 0 0 0 0 0 0 0 0 0 0 0 0 0 0 0 0 0 0 0 0 0 0 0 
0 0 0 0 0 0 
0 0 0 0 0 0 0 0 0 0 0 0 0 0 0 0 0 0 0 0 0 0 0 0 
0 0 0 0 0 0 0 0 0 22 7 7 241 74 79 246 72 79 224 66 73 36 36 36 
35 35 35 36 36 36 36 36 36 37 37 37 30 31 31 18 18 18 19 19 20 20 21 21 
21 21 21 21 21 21 22 22 22 24 25 25 25 25 26 26 26 26 27 27 27 27 28 28 
29 30 30 29 30 30 31 32 32 31 32 32 33 34 34 34 35 35 37 37 37 36 36 37 
38 38 38 37 37 38 38 39 40 37 38 38 38 39 41 38 38 39 37 38 39 38 38 39 
178 178 179 200 200 202 189 190 190 180 180 182 188 189 190 183 184 185 189 191 191 190 191 192 
190 191 192 188 189 190 189 190 191 195 196 197 198 198 200 198 199 200 208 209 209 205 206 208 
210 211 211 208 209 211 210 211 212 213 214 215 219 220 221 221 223 224 219 220 221 222 223 225 
222 224 225 226 227 228 231 232 233 232 234 235 229 230 231 230 231 233 229 230 231 228 229 231 
224 225 226 222 224 225 219 221 222 216 217 218 213 213 215 209 209 210 210 211 212 215 216 217 
210 211 212 209 210 212 196 197 198 197 198 199 200 201 202 200 201 203 198 198 199 191 192 193 
192 193 193 189 191 191 189 190 191 184 186 187 186 186 188 186 187 188 182 183 184 173 173 174 
178 178 180 176 177 177 176 177 178 172 172 173 172 173 174 170 171 172 164 166 166 164 164 166 
166 168 168 166 166 168 158 159 159 161 161 163 160 161 161 158 159 160 158 160 161 157 158 159 
158 159 160 151 151 152 142 143 144 147 147 148 148 149 150 147 149 149 144 144 145 143 144 144 
142 143 143 136 137 138 139 140 141 137 139 139 135 135 136 136 136 137 133 134 134 140 140 141 
136 137 138 132 132 133 134 134 135 137 137 138 129 129 129 134 134 135 135 135 136 132 132 133 
143 143 143 165 165 166 131 131 132 7 7 7 7 7 7 7 7 7 8 8 8 8 8 8 
8 8 8 8 8 8 8 8 8 8 8 8 7 8 7 7 7 7 8 8 8 8 8 8 
8 8 8 8 8 8 7 7 7 8 8 8 7 7 7 7 7 7 7 7 7 6 6 6 
6 6 6 6 6 6 6 6 6 7 7 7 5 5 5 6 6 6 6 6 6 6 6 6 
6 6 6 5 5 5 6 6 6 5 5 5 5 5 5 17 17 17 29 29 29 28 28 28 
30 30 30 30 30 30 29 29 29 189 102 103 245 129 130 245 129 130 79 43 43 0 0 0 
0 0 0 0 0 0 0 0 0 0 0 0 0 0 0 0 0 0 0 0 0 0 0 0 
0 0 0 0 0 0 
0 0 0 0 0 0 0 0 0 0 0 0 0 0 0 0 0 0 0 0 0 0 0 0 
0 0 0 0 0 0 0 0 0 0 0 0 183 59 63 245 77 82 245 75 80 135 54 57 
35 35 35 37 37 37 36 37 37 37 37 37 37 37 37 22 22 22 19 19 19 21 21 21 
21 21 21 23 23 23 22 23 23 24 24 25 24 24 24 27 27 27 27 28 28 29 29 29 
29 30 30 31 31 31 30 31 31 32 33 34 32 34 34 34 35 36 36 36 37 37 38 38 
37 38 38 36 37 38 38 38 39 37 37 39 38 38 39 38 38 39 38 38 39 141 142 143 
192 194 194 179 180 181 172 174 174 175 176 177 179 180 181 173 174 174 181 182 183 187 188 189 
190 191 192 185 187 187 190 191 191 185 185 187 189 190 190 193 194 195 193 193 194 199 200 201 
200 202 203 203 204 205 202 203 204 202 202 204 211 211 212 212 213 214 212 213 214 218 219 220 
216 217 218 223 224 225 218 219 220 222 223 224 224 225 226 218 219 220 218 219 220 218 219 220 
217 219 219 207 208 209 210 211 212 206 207 208 201 201 203 206 207 209 201 202 203 199 200 201 
199 200 200 195 196 197 197 198 198 192 193 194 192 193 193 183 185 185 182 182 183 178 179 179 
179 180 181 180 180 181 184 185 186 175 175 176 177 178 179 178 178 179 172 172 173 163 163 164 
169 170 171 164 164 166 164 165 166 165 165 166 160 161 162 158 159 160 156 157 157 156 156 158 
151 152 152 156 157 158 154 155 156 151 151 152 156 156 157 146 146 147 146 146 147 144 145 145 
144 145 145 138 140 140 139 140 140 141 142 142 139 139 140 137 138 139 136 136 137 137 138 138 
134 134 135 131 132 132 131 132 132 129 130 131 130 131 131 126 126 127 128 129 129 128 129 129 
126 127 127 124 124 124 127 127 128 130 130 131 127 127 128 128 128 128 129 129 130 131 131 132 
157 157 157 152 152 153 21 21 21 7 7 7 7 7 7 7 7 7 8 8 8 8 8 8 
8 8 8 8 8 8 8 8 8 9 9 9 8 9 9 8 8 8 8 8 8 9 9 9 
7 7 7 8 8 8 8 8 8 8 8 8 7 7 7 6 6 6 7 7 7 7 7 7 
6 6 6 6 6 6 6 6 6 6 6 6 5 5 5 6 6 6 6 6 6 6 6 6 
5 5 5 5 5 5 6 6 6 5 5 5 6 6 6 29 29 29 30 30 30 29 29 29 
29 29 29 29 29 29 71 47 47 243 124 125 246 127 128 213 112 113 0 0 0 0 0 0 
0 0 0 0 0 0 0 0 0 0 0 0 0 0 0 0 0 0 0 0 0 0 0 0 
0 0 0 0 0 0 
0 0 0 0 0 0 0 0 0 0 0 0 0 0 0 0 0 0 0 0 0 0 0 0 
0 0 0 0 0 0 0 0 0 0 0 0 14 5 5 238 79 84 244 79 84 235 75 80 
35 35 35 36 37 37 38 38 38 37 37 37 38 39 39 35 36 36 21 22 22 22 22 22 
21 21 22 23 23 23 23 24 24 24 24 25 26 26 27 26 27 27 27 28 28 30 31 31 
30 30 30 31 32 32 30 31 31 33 34 34 33 34 35 36 37 37 36 36 36 37 38 38 
38 38 39 37 38 39 37 37 38 37 38 39 37 37 38 38 38 39 93 93 94 184 184 185 
179 179 180 164 164 164 165 165 166 170 171 172 166 167 168 170 171 172 169 169 170 174 174 175 
173 174 174 181 181 182 172 172 172 182 183 184 175 176 177 184 184 185 185 187 187 188 189 189 
191 192 193 193 194 195 194 195 195 199 200 200 202 203 204 201 201 202 201 202 203 201 202 202 
201 202 202 207 208 208 210 211 212 210 211 212 210 211 211 206 206 207 208 209 210 198 199 199 
197 198 199 196 197 197 192 193 193 195 195 196 196 197 198 190 191 191 192 193 193 189 190 190 
187 187 188 186 186 187 184 185 186 178 178 179 172 173 174 172 172 173 175 175 176 172 172 173 
165 166 167 168 168 169 167 168 169 168 169 170 165 166 166 159 159 160 160 161 161 157 157 158 
156 157 157 156 156 157 153 153 153 151 151 152 150 150 150 149 149 150 149 149 150 146 146 147 
145 145 146 143 144 144 144 144 145 139 140 140 139 139 140 137 138 138 136 136 137 135 136 137 
134 134 135 133 134 135 133 133 134 132 132 133 131 131 132 127 127 128 126 126 127 128 128 129 
123 124 124 124 124 125 122 122 123 122 122 123 120 120 121 121 121 122 121 122 122 118 119 119 
120 120 121 120 120 120 119 119 120 120 120 120 120 120 121 118 118 119 121 121 122 146 146 147 
154 154 155 72 73 73 6 6 7 7 7 7 7 7 7 7 7 7 8 8 8 7 8 8 
8 8 8 9 9 9 9 9 9 7 8 8 8 8 8 8 8 8 8 8 8 8 8 8 
7 7 7 8 8 8 7 7 7 7 7 7 7 7 7 6 6 6 6 6 6 6 6 6 
7 7 7 7 7 7 6 6 6 7 7 7 6 6 6 6 6 6 6 6 6 6 6 6 
7 7 7 6 6 6 5 5 5 6 6 6 21 21 21 28 28 28 29 29 29 30 30 30 
29 29 29 29 29 29 211 106 108 246 121 124 243 122 124 64 34 34 0 0 0 0 0 0 
0 0 0 0 0 0 0 0 0 0 0 0 0 0 0 0 0 0 0 0 0 0 0 0 
0 0 0 0 0 0 
0 0 0 0 0 0 0 0 0 0 0 0 0 0 0 0 0 0 0 0 0 0 0 0 
0 0 0 0 0 0 0 0 0 0 0 0 0 0 0 145 50 54 245 82 89 245 80 86 
176 64 68 35 35 35 35 35 35 35 35 35 39 39 39 38 38 38 28 28 29 20 20 20 
21 21 21 22 22 23 22 22 23 23 23 23 25 25 26 25 26 26 28 29 29 28 29 29 
29 29 29 29 30 31 30 31 31 31 32 32 33 34 35 33 33 34 35 36 36 35 36 37 
36 36 37 35 36 37 36 36 38 35 36 37 36 36 37 56 56 57 183 183 184 187 188 188 
177 177 178 174 175 176 178 178 180 178 179 180 175 176 177 184 185 186 185 186 186 181 181 183 
185 186 187 192 193 195 184 186 186 193 194 194 195 196 197 200 200 201 200 200 202 196 196 197 
206 207 207 211 212 213 212 214 215 212 213 214 209 210 211 214 215 215 218 219 220 225 226 227 
223 224 225 220 221 222 221 222 223 221 222 223 220 221 222 214 215 215 216 217 218 214 214 215 
212 213 213 209 210 211 203 204 204 209 210 211 208 209 210 199 199 200 199 200 201 198 199 200 
197 198 200 189 190 190 189 190 191 191 191 192 187 188 189 186 187 187 181 181 182 182 183 184 
176 177 177 180 181 182 180 181 182 183 184 186 172 172 173 168 169 170 164 165 165 160 160 161 
166 167 168 165 167 167 161 162 163 163 164 165 158 158 159 163 165 165 161 161 163 160 161 161 
156 157 158 157 158 159 149 149 150 154 155 156 144 145 146 147 148 149 146 146 147 145 145 146 
137 138 138 138 138 139 138 139 139 139 140 140 140 142 142 136 136 137 134 135 136 133 133 134 
133 134 134 134 134 135 127 128 129 130 130 131 128 128 129 125 125 126 126 126 127 124 124 125 
127 127 128 122 122 123 127 127 127 125 125 126 123 123 124 128 128 129 145 145 146 161 161 161 
121 121 121 5 5 6 7 7 7 6 6 6 6 6 6 7 7 7 8 8 8 8 8 8 
8 8 8 8 8 8 7 7 7 6 6 6 6 6 6 7 7 7 8 8 8 6 6 7 
7 7 7 6 6 6 6 6 6 6 6 6 6 6 6 6 6 6 6 6 6 5 5 5 
6 6 6 4 4 4 5 5 5 5 5 5 3 3 3 4 4 4 4 4 4 4 4 4 
4 4 4 4 4 4 5 5 5 11 11 11 28 28 28 28 28 28 29 29 29 29 29 29 
28 28 28 112 62 62 245 117 118 246 119 121 193 96 98 0 0 0 0 0 0 0 0 0 
0 0 0 0 0 0 0 0 0 0 0 0 0 0 0 0 0 0 0 0 0 0 0 0 
0 0 0 0 0 0 
0 0 0 0 0 0 0 0 0 0 0 0 0 0 0 0 0 0 0 0 0 0 0 0 
0 0 0 0 0 0 0 0 0 0 0 0 0 0 0 0 0 0 229 82 88 245 84 91 
241 81 88 61 43 43 37 37 37 37 37 37 39 39 39 39 40 40 40 40 40 23 23 24 
21 21 21 23 24 24 24 24 25 26 26 26 25 26 26 27 28 28 29 30 30 30 31 31 
29 30 30 30 31 31 32 32 32 32 33 34 35 36 36 36 36 37 36 37 37 37 37 37 
37 37 38 36 36 37 37 38 39 36 37 37 39 39 40 169 169 170 193 193 194 175 176 176 
174 174 176 178 179 180 178 179 179 180 181 182 179 180 181 180 181 182 180 182 182 188 189 189 
186 186 188 192 193 193 192 193 194 195 195 196 193 194 194 198 199 200 200 201 202 200 200 202 
205 206 208 206 206 207 206 207 207 207 208 209 208 209 210 215 216 217 213 214 215 219 220 222 
220 221 222 220 221 222 223 224 225 223 224 225 220 221 221 213 214 215 211 212 213 206 207 208 
211 212 213 206 207 208 198 198 199 204 205 206 200 202 202 196 197 198 196 196 197 194 195 195 
195 196 197 191 192 193 193 194 195 188 189 190 187 187 188 181 182 183 182 183 183 185 185 187 
180 180 181 178 179 180 175 175 176 174 176 176 172 172 174 170 171 171 168 168 169 162 163 163 
165 165 167 163 164 165 162 162 163 163 163 163 154 154 155 161 161 162 155 155 156 152 152 153 
150 150 151 152 152 153 144 144 145 150 151 152 150 151 151 152 153 153 145 147 147 142 143 144 
144 145 146 138 139 139 139 140 141 136 136 137 134 135 135 132 132 133 132 133 134 132 133 133 
134 135 136 129 129 130 127 127 128 128 128 129 129 129 130 126 126 127 126 126 126 127 128 128 
127 127 128 129 130 130 127 127 128 127 127 128 130 130 131 135 135 136 158 158 158 142 143 143 
7 7 7 6 6 7 7 7 7 7 7 7 7 7 7 8 8 8 7 8 8 8 8 8 
8 8 8 8 8 8 9 9 9 7 7 7 8 8 8 8 8 8 8 8 8 7 7 7 
7 7 7 7 7 7 7 7 7 6 6 6 6 6 6 5 5 5 5 5 5 7 7 7 
6 6 6 6 6 6 6 6 6 5 5 5 5 5 5 5 5 5 5 5 5 5 5 5 
5 5 5 6 6 6 5 5 5 26 26 26 28 28 28 28 28 28 29 29 29 30 30 30 
30 30 30 228 108 111 246 116 117 239 114 115 25 13 13 0 0 0 0 0 0 0 0 0 
0 0 0 0 0 0 0 0 0 0 0 0 0 0 0 0 0 0 0 0 0 0 0 0 
0 0 0 0 0 0 
0 0 0 0 0 0 0 0 0 0 0 0 0 0 0 0 0 0 0 0 0 0 0 0 
0 0 0 0 0 0 0 0 0 0 0 0 0 0 0 0 0 0 96 36 38 245 89 94 
244 87 92 211 77 83 39 39 39 40 41 41 40 40 40 41 41 41 41 41 41 37 37 38 
23 23 23 24 24 25 26 26 26 27 27 27 28 29 29 29 30 30 30 31 31 32 32 32 
31 32 32 33 34 34 34 35 35 36 37 37 36 36 36 37 38 38 37 37 37 38 38 39 
37 38 39 37 37 39 37 38 39 36 37 38 139 139 141 191 191 191 183 183 185 173 174 175 
171 172 172 176 177 178 179 180 181 179 180 181 182 182 184 180 180 181 182 182 183 184 185 185 
188 188 190 186 187 188 186 186 187 191 191 192 193 193 194 196 197 198 203 204 205 195 195 196 
202 203 204 199 199 200 206 207 208 210 211 212 213 214 214 211 211 212 212 213 213 217 218 219 
220 221 221 219 220 221 224 225 226 219 220 221 211 212 213 212 214 215 208 209 210 211 212 212 
206 207 208 207 208 208 201 201 202 195 196 197 194 194 195 195 195 196 191 191 192 194 195 196 
197 197 198 189 190 191 190 191 191 186 187 188 186 187 188 184 185 186 178 179 180 178 179 180 
174 174 176 176 177 178 171 171 172 177 178 179 169 169 171 168 169 169 168 168 169 164 164 165 
162 162 164 160 160 161 157 158 159 155 155 156 156 157 157 154 155 156 153 154 155 153 153 154 
152 153 153 154 155 156 151 152 152 144 144 145 146 147 148 141 141 142 139 140 140 138 138 139 
138 138 139 137 137 138 135 136 136 135 136 136 132 133 133 129 130 130 132 132 133 130 131 132 
130 131 131 125 126 127 133 133 134 129 129 130 124 124 124 123 123 124 124 124 125 125 125 126 
125 125 126 123 123 124 124 125 125 125 125 125 138 138 138 158 158 158 148 149 149 26 26 26 
7 7 7 8 8 8 8 8 8 8 8 8 9 9 9 9 9 9 9 9 9 9 9 9 
9 9 9 10 10 10 9 9 9 9 9 9 9 9 9 9 9 9 8 8 9 7 7 7 
8 8 8 9 9 9 8 8 8 8 8 8 8 8 8 7 7 7 8 8 8 7 7 7 
7 7 7 8 8 8 6 6 6 7 7 7 7 7 7 6 6 6 7 7 7 6 6 6 
6 6 6 6 6 6 20 20 20 30 30 30 30 30 30 30 30 30 30 30 30 31 31 31 
167 81 83 246 112 114 245 113 115 156 75 76 0 0 0 0 0 0 0 0 0 0 0 0 
0 0 0 0 0 0 0 0 0 0 0 0 0 0 0 0 0 0 0 0 0 0 0 0 
0 0 0 0 0 0 
0 0 0 0 0 0 0 0 0 0 0 0 0 0 0 0 0 0 0 0 0 0 0 0 
0 0 0 0 0 0 0 0 0 0 0 0 0 0 0 0 0 0 0 0 0 208 80 84 
245 91 96 245 89 94 128 61 62 39 39 39 40 40 40 40 40 41 41 41 41 42 42 42 
31 31 32 25 25 26 26 26 26 26 27 27 29 29 29 29 30 30 31 32 32 30 31 31 
31 32 32 34 35 35 33 34 35 34 35 36 35 36 37 36 37 37 36 36 36 37 37 38 
36 37 37 36 37 38 37 37 38 97 98 99 187 188 188 188 189 190 174 175 175 177 177 179 
180 181 182 180 180 181 182 183 184 184 184 185 184 184 186 187 188 189 183 184 185 188 190 190 
192 192 193 185 185 187 195 195 196 197 198 199 193 193 194 199 200 200 201 202 203 205 207 208 
203 203 204 207 208 209 212 213 214 213 214 215 216 217 218 216 217 218 218 219 220 218 219 220 
222 223 224 220 221 222 221 222 223 220 221 222 212 213 213 216 217 218 213 214 214 213 214 214 
207 208 209 207 208 209 210 211 211 206 207 209 203 204 205 196 197 198 194 195 196 194 195 196 
196 197 198 185 187 187 186 186 188 187 187 188 188 189 190 184 184 185 181 181 183 179 179 180 
177 177 179 175 175 176 180 180 182 177 178 179 173 174 175 169 170 171 163 164 164 171 172 173 
161 162 162 163 164 165 158 159 160 157 157 158 156 157 157 155 155 156 155 155 156 152 152 153 
155 156 157 156 157 158 149 150 151 149 150 150 143 143 144 144 145 145 142 142 143 143 144 144 
137 137 138 142 143 144 142 143 144 137 138 139 139 139 140 135 136 137 134 134 135 126 127 128 
128 128 129 126 127 128 129 129 130 128 129 129 129 129 130 130 130 131 130 130 131 125 125 126 
127 128 128 126 126 126 127 127 128 137 137 138 156 157 157 153 154 154 37 37 37 8 8 8 
7 7 7 8 8 8 8 8 8 8 8 8 8 9 9 8 8 8 9 9 9 9 9 9 
9 9 9 9 9 9 9 9 9 9 9 9 9 9 9 9 9 9 7 7 7 8 8 8 
8 8 8 7 7 7 7 7 7 7 7 7 6 6 6 5 5 5 7 7 7 7 7 7 
7 7 7 8 8 8 6 6 6 6 6 6 6 6 6 6 6 6 6 6 6 6 6 6 
5 5 5 11 11 11 29 29 29 30 30 30 30 30 30 30 30 30 31 31 31 69 44 44 
240 106 109 245 108 112 228 103 105 2 1 1 0 0 0 0 0 0 0 0 0 0 0 0 
0 0 0 0 0 0 0 0 0 0 0 0 0 0 0 0 0 0 0 0 0 0 0 0 
0 0 0 0 0 0 
0 0 0 0 0 0 0 0 0 0 0 0 0 0 0 0 0 0 0 0 0 0 0 0 
0 0 0 0 0 0 0 0 0 0 0 0 0 0 0 0 0 0 0 0 0 33 13 14 
241 94 99 247 94 99 237 89 94 51 41 41 41 41 41 42 42 42 43 43 43 44 44 44 
44 44 44 29 29 29 28 28 29 28 29 29 30 31 31 31 31 31 33 33 33 32 33 33 
34 35 35 35 36 37 36 37 37 36 37 37 38 38 39 37 38 38 38 38 39 37 37 39 
37 37 38 36 37 37 59 60 61 186 186 187 189 190 191 174 174 176 170 171 172 174 175 175 
182 182 184 173 174 175 178 179 180 178 179 180 178 178 180 188 189 190 189 190 191 194 195 196 
187 188 188 187 188 189 193 194 195 195 196 197 198 199 200 200 201 202 202 202 204 202 203 203 
201 201 202 216 217 218 209 210 211 210 211 211 214 215 216 214 215 216 213 214 215 223 223 224 
219 220 221 219 220 221 216 217 217 215 216 217 214 215 217 218 219 220 213 214 215 208 209 210 
203 204 205 208 208 209 202 202 203 203 204 205 202 203 204 195 196 196 196 197 198 199 200 200 
191 191 193 185 186 186 184 185 186 182 183 183 185 186 187 184 184 185 176 177 178 179 179 181 
180 182 182 175 176 177 176 177 178 170 171 172 169 170 171 162 162 163 163 163 164 164 165 166 
164 164 165 156 156 157 156 157 158 155 155 156 150 150 151 150 150 152 148 148 149 147 148 148 
146 146 147 144 145 145 146 146 147 144 145 145 142 142 143 140 141 141 141 142 142 138 139 140 
139 139 140 142 144 144 136 136 137 134 134 135 131 131 132 135 135 136 130 131 131 124 124 125 
124 125 126 125 125 126 126 127 127 126 126 127 127 127 127 124 124 124 128 129 129 125 125 126 
123 123 124 125 125 125 132 132 132 155 155 156 153 153 155 49 49 49 8 8 8 8 8 8 
8 8 8 9 9 9 9 9 9 9 9 9 10 10 10 10 10 10 10 10 10 10 10 10 
10 10 10 9 9 9 9 9 9 9 9 9 10 10 10 8 8 8 8 8 8 8 8 8 
9 9 9 9 9 9 9 9 9 8 8 8 7 7 7 8 8 8 8 8 8 8 8 8 
8 8 8 7 7 7 7 7 7 7 7 7 7 7 7 7 7 7 7 7 7 7 7 7 
8 8 8 28 28 28 31 31 31 31 31 31 30 30 30 30 30 30 30 30 30 218 94 96 
245 104 107 244 106 109 81 36 37 0 0 0 0 0 0 0 0 0 0 0 0 0 0 0 
0 0 0 0 0 0 0 0 0 0 0 0 0 0 0 0 0 0 0 0 0 0 0 0 
0 0 0 0 0 0 
0 0 0 0 0 0 0 0 0 0 0 0 0 0 0 0 0 0 0 0 0 0 0 0 
0 0 0 0 0 0 0 0 0 0 0 0 0 0 0 0 0 0 0 0 0 0 0 0 
138 58 61 245 98 103 245 96 102 202 82 88 41 42 42 42 42 42 42 42 43 42 43 43 
43 43 43 42 42 42 27 28 28 29 29 29 29 29 30 30 31 31 30 30 31 32 33 33 
33 34 34 33 35 35 35 36 36 36 36 37 36 37 37 37 38 38 37 37 38 36 37 38 
36 36 38 37 37 38 168 168 169 186 187 188 173 173 174 169 170 170 168 168 170 170 171 172 
172 172 173 172 173 174 173 173 174 178 179 180 181 182 182 181 181 183 183 184 184 188 188 189 
184 185 186 186 187 187 188 188 190 190 191 191 197 198 198 195 196 197 197 197 198 201 202 203 
201 201 203 200 201 201 202 202 203 211 211 212 211 212 213 215 216 216 214 215 216 221 222 222 
222 223 224 219 220 221 210 211 212 205 206 207 209 210 210 208 209 209 202 203 204 198 199 199 
199 200 200 198 199 199 203 204 206 199 199 200 193 193 195 193 193 194 186 186 188 187 188 188 
182 183 184 183 183 184 180 181 181 177 178 179 175 176 176 184 184 186 171 171 172 168 168 169 
169 170 170 167 168 169 165 166 166 172 172 173 161 162 162 158 158 159 160 160 161 154 155 156 
159 159 160 154 155 155 153 153 154 153 154 154 150 150 151 148 149 149 148 148 149 147 148 148 
143 143 144 143 144 144 143 143 144 139 140 140 139 139 140 141 141 142 135 135 135 134 134 135 
136 137 137 134 135 135 132 133 134 138 139 140 129 130 131 130 130 131 127 128 128 124 125 125 
123 124 124 122 122 123 122 122 123 123 123 124 126 127 127 121 121 122 123 123 124 124 124 125 
122 122 123 139 139 140 156 156 156 149 150 151 40 40 40 7 7 7 8 8 8 8 8 8 
8 8 8 8 8 8 8 9 9 8 8 8 8 9 9 9 9 9 9 9 9 9 9 9 
9 9 9 9 9 9 9 9 9 9 9 9 8 8 8 8 8 8 8 8 8 8 8 8 
8 8 8 8 8 8 7 7 7 7 7 7 6 6 6 8 8 8 7 7 7 8 8 8 
6 6 6 6 6 6 5 5 5 7 7 7 6 6 6 7 7 7 5 5 5 7 7 7 
21 21 21 30 30 30 29 29 29 30 30 30 30 30 30 30 30 30 144 68 69 244 101 105 
246 103 106 187 81 83 0 0 0 0 0 0 0 0 0 0 0 0 0 0 0 0 0 0 
0 0 0 0 0 0 0 0 0 0 0 0 0 0 0 0 0 0 0 0 0 0 0 0 
0 0 0 0 0 0 
0 0 0 0 0 0 0 0 0 0 0 0 0 0 0 0 0 0 0 0 0 0 0 0 
0 0 0 0 0 0 0 0 0 0 0 0 0 0 0 0 0 0 0 0 0 0 0 0 
0 0 0 220 92 96 245 101 105 244 99 103 125 64 66 42 42 42 44 44 44 43 43 44 
44 44 44 45 46 46 37 38 38 29 30 30 30 31 31 30 30 30 31 32 32 32 33 33 
34 35 35 35 36 38 37 38 39 37 37 37 37 37 37 37 38 39 37 37 37 37 38 39 
37 37 38 142 142 142 190 190 191 182 183 183 173 174 175 178 179 180 174 174 176 178 178 180 
182 182 183 184 185 186 181 182 183 189 190 191 186 187 188 190 191 191 189 190 191 194 195 196 
196 196 198 198 198 199 195 195 196 192 193 193 197 198 198 204 205 206 203 204 205 203 204 205 
206 207 207 215 216 217 216 217 218 215 217 218 218 219 220 223 224 225 217 218 219 224 225 226 
220 220 221 216 217 218 213 214 214 218 219 220 212 213 214 216 217 219 207 207 208 209 211 211 
204 206 206 200 201 202 197 198 199 199 200 201 197 198 199 195 196 196 193 194 194 195 196 197 
191 191 192 191 191 193 186 187 187 186 186 188 186 187 188 182 183 184 175 176 176 179 180 181 
173 174 175 173 174 175 173 173 175 167 168 169 168 168 169 166 167 167 162 162 163 164 165 165 
161 161 162 156 156 156 163 163 165 159 159 160 159 160 161 153 153 154 145 146 147 153 153 155 
145 146 147 149 149 150 145 146 146 144 145 145 145 146 146 140 141 141 142 143 144 141 141 142 
136 137 137 136 136 137 130 131 132 138 138 139 134 135 136 136 136 137 134 135 135 126 127 128 
129 129 130 129 129 130 123 123 123 128 129 129 131 132 132 127 127 128 126 126 126 134 134 135 
152 152 153 159 160 160 145 145 146 31 31 31 8 8 8 8 8 8 9 9 9 9 9 9 
8 8 8 9 9 9 10 10 10 10 10 10 9 10 10 10 10 10 10 10 10 9 9 9 
9 9 9 9 9 9 9 9 9 9 9 9 8 8 8 8 8 8 8 8 8 9 9 9 
8 8 8 7 7 7 7 7 7 8 8 8 8 8 8 8 8 8 8 8 8 8 8 8 
6 6 6 7 7 7 7 7 7 7 7 7 8 8 8 6 6 6 7 7 7 15 15 15 
31 31 31 31 31 31 31 31 31 30 30 30 30 30 30 69 42 43 241 95 99 246 98 102 
234 96 99 10 4 4 0 0 0 0 0 0 0 0 0 0 0 0 0 0 0 0 0 0 
0 0 0 0 0 0 0 0 0 0 0 0 0 0 0 0 0 0 0 0 0 0 0 0 
0 0 0 0 0 0 
0 0 0 0 0 0 0 0 0 0 0 0 0 0 0 0 0 0 0 0 0 0 0 0 
0 0 0 0 0 0 0 0 0 0 0 0 0 0 0 0 0 0 0 0 0 0 0 0 
0 0 0 46 20 21 242 104 108 246 104 108 237 99 104 58 46 46 43 43 43 44 44 44 
44 44 45 45 45 45 44 45 45 35 35 35 30 31 31 29 30 30 31 32 32 32 33 33 
34 35 36 35 35 37 36 36 37 36 36 37 37 37 37 36 36 37 36 37 38 36 36 38 
98 98 100 199 200 201 190 191 192 178 178 180 176 177 177 187 187 189 177 179 179 185 186 187 
184 185 186 195 196 197 188 189 190 197 198 198 199 199 201 197 198 199 200 201 202 203 205 206 
203 204 205 203 204 206 209 210 211 208 209 211 210 211 212 210 211 212 212 213 214 211 213 214 
213 214 215 217 218 220 221 222 223 225 227 228 228 229 230 230 231 232 231 232 233 229 230 231 
227 228 229 224 225 226 226 227 228 225 227 228 217 218 219 220 221 222 218 219 220 213 214 215 
214 215 216 213 214 216 204 205 206 207 208 209 208 209 210 202 203 204 205 206 207 198 199 201 
194 194 195 195 196 197 192 193 194 197 199 199 198 199 200 189 190 191 181 181 183 188 189 189 
181 181 183 184 184 185 177 178 179 175 175 176 179 180 181 177 177 178 177 177 179 172 172 174 
172 174 174 167 168 169 173 174 175 170 170 172 161 162 163 162 162 164 158 159 159 159 160 161 
154 156 156 152 153 154 146 148 148 149 150 150 148 149 150 146 147 147 151 152 152 146 146 147 
139 140 140 145 146 147 142 143 144 141 142 143 142 142 143 146 147 148 138 138 139 134 135 136 
138 138 139 136 137 137 130 131 131 142 142 143 130 131 131 140 140 141 153 154 154 165 165 165 
163 164 165 120 120 120 12 12 12 8 9 9 8 8 8 7 8 7 8 8 8 9 9 9 
8 8 9 9 9 9 8 8 8 10 10 10 8 8 8 9 9 9 9 9 9 9 9 9 
8 8 8 9 9 9 8 8 8 8 8 8 8 8 8 7 7 7 7 7 7 7 7 7 
7 7 7 6 6 6 7 7 7 7 7 7 7 7 7 7 7 7 7 7 7 7 7 7 
6 6 6 6 6 6 7 7 7 6 6 6 5 5 5 5 5 5 8 8 8 28 28 28 
29 29 29 29 29 29 30 30 30 30 30 30 30 30 30 220 86 89 245 94 97 245 95 99 
105 43 45 0 0 0 0 0 0 0 0 0 0 0 0 0 0 0 0 0 0 0 0 0 
0 0 0 0 0 0 0 0 0 0 0 0 0 0 0 0 0 0 0 0 0 0 0 0 
0 0 0 0 0 0 
0 0 0 0 0 0 0 0 0 0 0 0 0 0 0 0 0 0 0 0 0 0 0 0 
0 0 0 0 0 0 0 0 0 0 0 0 0 0 0 0 0 0 0 0 0 0 0 0 
0 0 0 0 0 0 140 65 67 245 107 113 246 105 110 215 94 98 41 41 41 43 43 43 
44 44 44 45 45 45 45 45 45 44 45 45 29 30 30 30 31 31 30 31 31 32 33 33 
32 33 34 35 35 35 36 36 36 36 36 36 36 37 37 37 37 37 35 36 36 61 61 62 
191 192 192 197 198 199 184 185 185 185 185 187 184 184 186 188 188 190 186 187 189 188 189 189 
191 192 193 201 202 202 201 202 203 201 202 203 201 202 202 203 204 206 204 205 206 206 207 209 
207 208 209 211 212 214 213 214 215 211 212 213 213 215 216 216 217 218 218 219 220 215 216 217 
219 221 221 219 220 221 223 224 225 231 232 233 234 236 237 234 235 236 232 234 235 228 230 231 
230 231 232 228 230 231 226 227 228 227 229 230 220 221 222 218 219 220 221 222 223 212 213 214 
214 215 216 210 212 213 212 213 214 206 207 208 207 208 209 205 206 207 203 204 205 202 202 203 
202 202 203 200 201 202 195 196 197 196 197 198 193 194 196 193 194 194 189 190 192 184 185 186 
188 189 190 185 185 187 181 182 183 182 183 185 183 185 186 177 178 179 179 181 181 175 175 177 
175 176 177 171 172 173 170 171 172 172 172 174 169 169 171 164 165 166 160 160 161 163 163 164 
162 163 164 160 161 161 161 161 161 159 161 161 157 158 159 153 154 154 157 158 159 148 149 150 
149 149 150 151 153 154 143 143 144 146 147 148 149 150 150 140 141 141 141 142 143 144 145 145 
147 147 148 142 142 143 149 150 150 158 159 159 161 161 162 164 164 164 163 164 165 140 140 140 
47 48 48 7 7 7 7 7 7 7 8 7 8 8 8 7 7 7 8 8 8 7 7 7 
8 8 8 8 8 8 8 8 8 8 9 9 8 8 8 8 8 8 8 8 8 7 7 7 
8 8 8 8 8 8 8 8 8 7 7 7 6 6 6 6 6 6 6 6 6 7 7 7 
5 5 5 5 5 5 5 5 5 6 6 6 6 6 6 6 6 6 6 6 6 5 5 5 
5 5 5 5 5 5 5 5 5 5 5 5 4 4 4 4 4 4 26 26 26 28 28 28 
28 28 28 28 28 28 28 28 28 28 28 28 173 69 71 245 91 94 246 92 95 187 72 75 
0 0 0 0 0 0 0 0 0 0 0 0 0 0 0 0 0 0 0 0 0 0 0 0 
0 0 0 0 0 0 0 0 0 0 0 0 0 0 0 0 0 0 0 0 0 0 0 0 
0 0 0 0 0 0 
0 0 0 0 0 0 0 0 0 0 0 0 0 0 0 0 0 0 0 0 0 0 0 0 
0 0 0 0 0 0 0 0 0 0 0 0 0 0 0 0 0 0 0 0 0 0 0 0 
0 0 0 0 0 0 0 0 0 208 98 101 245 110 115 246 108 113 158 78 82 45 45 45 
45 45 45 45 45 45 45 45 46 46 46 46 45 45 45 32 33 33 32 33 33 34 35 36 
35 35 37 37 38 38 37 37 37 38 39 39 36 36 37 37 38 39 37 37 38 166 166 167 
184 185 185 186 187 188 184 185 185 187 187 188 187 187 188 193 194 194 188 188 189 191 191 191 
195 196 197 194 194 194 193 193 194 197 197 198 198 198 199 197 198 199 200 200 201 204 204 205 
202 202 203 205 206 206 207 207 209 210 210 211 209 209 210 209 210 210 214 214 215 213 214 214 
218 219 220 212 212 213 218 218 218 224 225 226 219 219 220 224 225 225 225 226 226 223 224 224 
223 224 224 219 220 220 218 218 219 215 215 215 212 212 212 213 214 214 211 212 212 210 210 211 
210 210 211 208 209 209 209 209 210 203 204 204 200 200 201 203 203 204 200 200 200 197 197 197 
195 195 196 197 198 198 194 195 196 193 193 194 190 191 191 191 191 192 191 191 191 185 185 186 
189 190 191 188 188 189 185 186 186 184 184 185 182 182 182 182 182 183 179 179 179 177 177 178 
182 182 183 178 178 179 172 172 173 173 174 175 171 172 173 172 173 173 171 171 172 167 167 167 
167 167 168 167 168 168 166 166 167 166 167 167 170 170 170 164 164 165 162 162 163 163 163 163 
158 158 159 158 159 159 157 158 158 158 158 158 155 156 157 156 156 157 154 154 155 154 154 155 
154 155 155 156 156 156 154 154 155 152 153 154 144 144 145 114 114 115 45 45 45 9 9 9 
8 8 8 8 8 8 8 8 9 9 9 9 9 9 9 8 8 9 9 9 9 9 9 9 
8 8 8 9 9 9 8 8 8 9 10 10 10 10 10 9 9 9 9 9 9 9 9 9 
8 8 8 9 9 9 8 8 8 8 8 8 8 8 8 8 8 8 8 8 8 8 8 8 
7 7 7 6 6 6 7 7 7 6 6 6 7 7 7 7 7 7 6 6 6 7 7 7 
6 6 6 6 6 6 6 6 6 6 6 6 6 6 6 22 22 22 28 28 28 30 30 30 
31 31 31 31 31 31 30 30 30 97 47 49 242 86 90 246 88 92 229 84 87 4 1 2 
0 0 0 0 0 0 0 0 0 0 0 0 0 0 0 0 0 0 0 0 0 0 0 0 
0 0 0 0 0 0 0 0 0 0 0 0 0 0 0 0 0 0 0 0 0 0 0 0 
0 0 0 0 0 0 
0 0 0 0 0 0 0 0 0 0 0 0 0 0 0 0 0 0 0 0 0 0 0 0 
0 0 0 0 0 0 0 0 0 0 0 0 0 0 0 0 0 0 0 0 0 0 0 0 
0 0 0 0 0 0 0 0 0 18 9 9 237 112 116 245 114 118 242 110 114 104 63 65 
45 45 46 46 46 46 46 46 46 47 47 48 48 48 48 43 44 44 33 34 34 34 35 36 
36 36 37 36 37 37 37 38 39 37 38 39 37 38 39 38 38 39 54 55 56 112 112 113 
113 113 113 113 113 113 112 112 112 112 112 113 112 112 113 112 113 113 111 111 111 113 114 115 
114 114 114 117 118 118 115 116 117 117 117 118 116 117 118 117 117 118 118 119 119 121 121 122 
121 122 123 122 123 123 125 126 127 127 127 127 125 125 126 127 127 127 127 127 128 128 128 129 
129 129 130 131 131 133 132 133 134 135 136 137 138 140 140 138 138 139 138 140 141 138 139 139 
139 140 141 136 136 138 136 137 137 137 137 138 134 135 136 134 134 135 132 132 133 132 133 134 
131 132 133 128 129 129 127 127 128 126 126 127 124 125 125 124 125 126 123 123 124 124 124 124 
120 121 122 121 122 123 117 117 118 116 117 118 116 117 117 112 112 113 113 113 113 111 111 111 
113 113 113 111 112 112 110 110 110 107 108 108 107 107 107 106 107 107 105 105 106 105 105 105 
102 103 104 105 105 105 102 103 103 101 101 102 100 101 101 100 101 101 99 99 100 100 101 101 
98 99 99 100 100 100 98 98 98 97 97 98 96 96 96 96 96 96 95 95 96 95 96 96 
92 92 92 95 95 95 94 94 94 94 95 95 90 90 90 91 92 91 92 92 92 92 92 92 
89 89 89 80 81 81 56 56 57 21 21 21 10 10 10 10 10 10 10 10 10 9 9 9 
9 9 9 9 9 9 9 9 9 9 9 9 9 9 9 9 9 9 10 10 10 8 8 8 
9 9 9 10 10 10 10 10 10 9 9 9 10 10 10 9 9 9 9 9 9 8 8 8 
8 8 8 8 8 8 8 8 8 8 8 8 7 7 7 8 8 8 7 7 7 8 8 8 
7 7 7 7 7 7 7 7 7 7 7 7 6 6 6 8 8 8 6 6 6 5 5 5 
6 6 6 5 5 5 6 6 6 5 5 5 17 17 17 30 30 30 30 30 30 30 30 30 
28 28 28 29 29 29 48 35 35 236 80 86 245 84 89 241 84 89 63 23 25 0 0 0 
0 0 0 0 0 0 0 0 0 0 0 0 0 0 0 0 0 0 0 0 0 0 0 0 
0 0 0 0 0 0 0 0 0 0 0 0 0 0 0 0 0 0 0 0 0 0 0 0 
0 0 0 0 0 0 
0 0 0 0 0 0 0 0 0 0 0 0 0 0 0 0 0 0 0 0 0 0 0 0 
0 0 0 0 0 0 0 0 0 0 0 0 0 0 0 0 0 0 0 0 0 0 0 0 
0 0 0 0 0 0 0 0 0 0 0 0 93 46 48 243 117 122 246 117 121 235 111 115 
60 51 51 45 46 46 47 47 47 47 47 47 48 48 48 48 48 48 41 42 42 36 36 38 
36 36 37 37 37 38 38 38 38 37 37 38 38 39 40 38 39 40 39 40 40 39 39 39 
40 40 40 37 38 38 38 39 40 37 38 38 38 38 39 37 38 39 38 38 40 37 38 39 
39 39 40 39 39 40 39 39 41 41 41 42 40 41 42 43 43 44 43 44 44 46 47 48 
45 46 47 48 49 50 48 48 49 51 52 53 51 52 53 55 56 57 55 56 57 58 59 60 
58 59 61 61 62 63 61 62 63 65 67 67 66 67 68 68 69 71 69 71 72 72 73 74 
74 76 76 72 73 75 72 73 74 69 70 72 69 69 71 65 66 67 64 66 67 61 61 63 
61 62 63 58 58 60 58 59 60 55 56 57 54 55 56 51 52 53 51 52 53 49 50 50 
48 48 49 46 47 48 45 45 46 44 44 45 41 42 43 41 41 42 39 39 40 39 39 40 
37 38 39 36 37 37 34 35 35 34 34 35 32 33 34 32 32 33 29 30 31 30 30 31 
28 28 28 28 28 29 26 26 27 25 26 26 23 24 24 23 23 23 22 22 22 21 22 22 
21 21 22 20 20 20 19 19 20 17 18 18 18 19 19 16 17 17 17 17 18 16 16 17 
16 16 16 15 15 15 15 15 15 13 13 14 13 13 14 12 12 12 12 12 12 12 12 12 
11 12 12 11 11 11 11 11 11 11 11 11 10 10 11 11 11 11 10 11 11 9 9 9 
9 9 9 9 9 10 9 9 9 9 9 9 9 9 9 9 9 9 9 9 9 10 10 10 
9 10 10 10 10 10 9 9 9 9 9 9 9 9 9 8 9 9 9 9 9 8 8 8 
9 9 9 8 8 8 9 9 9 8 8 8 7 7 7 7 7 7 7 7 7 7 7 7 
7 7 7 6 6 6 7 7 8 6 6 6 5 5 5 7 7 7 5 5 5 6 6 6 
6 6 6 6 6 6 6 6 6 13 13 13 29 29 29 29 29 29 29 29 29 30 30 30 
29 29 29 30 30 30 217 74 77 245 81 84 245 82 86 147 53 56 0 0 0 0 0 0 
0 0 0 0 0 0 0 0 0 0 0 0 0 0 0 0 0 0 0 0 0 0 0 0 
0 0 0 0 0 0 0 0 0 0 0 0 0 0 0 0 0 0 0 0 0 0 0 0 
0 0 0 0 0 0 
0 0 0 0 0 0 0 0 0 0 0 0 0 0 0 0 0 0 0 0 0 0 0 0 
0 0 0 0 0 0 0 0 0 0 0 0 0 0 0 0 0 0 0 0 0 0 0 0 
0 0 0 0 0 0 0 0 0 0 0 0 0 0 0 159 83 85 245 121 126 246 118 123 
220 108 111 44 44 44 46 46 46 46 47 47 47 48 48 47 47 47 47 47 48 41 41 42 
36 36 37 38 38 38 37 37 38 39 40 40 37 38 39 39 39 41 39 39 40 39 39 40 
40 40 40 38 39 40 38 39 40 39 40 41 39 40 41 40 40 41 40 41 42 40 41 41 
42 42 43 41 41 42 43 43 45 43 43 44 45 46 47 46 46 47 48 49 50 48 50 51 
51 52 53 52 53 53 55 55 56 55 55 57 58 58 59 59 60 61 60 62 63 63 64 65 
65 66 66 67 68 70 68 69 71 72 72 74 71 72 73 76 76 78 75 76 78 80 81 83 
79 80 82 79 81 82 76 77 79 76 76 78 71 72 73 71 72 73 67 68 70 67 68 69 
65 66 67 63 64 65 60 61 63 59 60 61 58 59 60 55 55 57 55 56 57 53 53 53 
51 52 53 48 49 50 49 50 50 46 47 47 45 46 47 43 43 44 42 42 44 40 40 41 
39 40 40 36 37 38 37 38 38 35 35 36 34 34 35 33 34 35 32 32 33 30 30 31 
29 29 30 29 29 30 28 28 28 27 27 28 24 25 25 25 25 26 24 24 24 23 23 24 
23 23 23 21 21 22 19 20 20 19 20 20 18 19 19 17 18 18 17 17 17 17 17 17 
16 16 16 16 16 16 14 14 14 14 14 14 13 14 14 13 13 13 12 12 13 12 12 12 
11 11 11 11 11 11 11 11 11 11 11 11 11 11 12 10 10 10 9 10 10 9 9 9 
9 9 9 9 9 9 9 9 9 9 9 9 9 9 9 9 9 9 8 8 8 9 9 9 
9 9 9 8 9 9 9 9 9 9 9 9 8 8 8 8 9 8 7 7 7 8 8 8 
8 8 8 7 7 7 6 6 7 6 6 6 8 8 8 7 7 7 6 6 6 5 5 5 
6 6 6 5 5 5 6 6 6 6 6 6 5 5 5 5 5 5 5 5 5 5 5 5 
5 5 5 5 5 5 10 10 10 28 28 28 29 29 29 29 29 29 29 29 29 29 29 29 
28 28 28 181 63 66 245 77 81 244 79 83 197 66 69 0 0 0 0 0 0 0 0 0 
0 0 0 0 0 0 0 0 0 0 0 0 0 0 0 0 0 0 0 0 0 0 0 0 
0 0 0 0 0 0 0 0 0 0 0 0 0 0 0 0 0 0 0 0 0 0 0 0 
0 0 0 0 0 0 
0 0 0 0 0 0 0 0 0 0 0 0 0 0 0 0 0 0 0 0 0 0 0 0 
0 0 0 0 0 0 0 0 0 0 0 0 0 0 0 0 0 0 0 0 0 0 0 0 
0 0 0 0 0 0 0 0 0 0 0 0 0 0 0 0 0 0 205 106 109 246 125 128 
246 121 126 189 100 102 48 48 48 47 47 47 48 49 49 48 49 49 49 50 50 52 52 52 
41 41 42 39 40 40 39 39 40 40 41 41 39 40 40 40 41 43 41 41 42 42 43 43 
40 41 42 41 42 43 41 41 42 43 43 43 41 42 42 44 44 45 41 42 43 44 45 45 
44 44 45 46 46 47 45 47 47 48 49 50 49 50 51 51 52 52 52 53 53 53 54 55 
56 57 58 57 57 58 59 60 61 59 60 61 62 64 65 63 64 64 67 68 70 67 68 69 
71 72 72 69 70 72 75 77 78 75 76 77 79 80 82 80 81 82 83 84 86 84 85 87 
84 86 87 82 83 84 81 82 83 77 79 81 76 77 78 74 75 77 70 71 73 70 71 72 
67 68 69 66 67 69 63 64 65 62 63 65 60 60 62 59 60 61 56 57 59 56 57 58 
52 53 55 52 53 53 50 51 52 48 49 50 45 47 48 45 45 47 44 45 45 43 43 43 
41 42 43 40 40 41 39 39 40 36 37 38 37 37 38 34 35 35 34 35 36 32 32 32 
31 32 33 30 31 32 29 29 30 27 28 28 26 27 27 25 25 26 25 26 26 24 24 24 
24 24 25 22 22 24 21 22 22 20 21 21 19 20 20 20 20 20 18 19 19 18 18 18 
16 16 16 17 17 17 15 15 15 15 15 16 14 14 14 15 15 15 14 14 14 14 14 14 
12 13 13 13 13 13 11 12 12 12 12 12 12 12 12 11 11 12 11 11 11 10 10 10 
10 10 10 10 11 11 10 10 10 10 10 10 10 10 10 10 10 10 9 9 9 9 9 9 
10 10 10 10 10 10 9 9 9 9 9 9 10 10 10 8 8 8 9 9 9 9 9 9 
9 9 9 7 7 7 8 8 8 8 8 8 8 8 8 8 8 8 7 7 7 7 7 7 
7 7 7 6 6 6 7 7 7 6 6 6 7 7 7 5 5 5 4 4 4 6 6 6 
6 6 6 8 8 8 29 29 29 28 28 28 29 29 29 29 29 29 30 30 30 30 30 30 
134 50 53 244 74 79 245 76 80 229 72 75 8 2 3 0 0 0 0 0 0 0 0 0 
0 0 0 0 0 0 0 0 0 0 0 0 0 0 0 0 0 0 0 0 0 0 0 0 
0 0 0 0 0 0 0 0 0 0 0 0 0 0 0 0 0 0 0 0 0 0 0 0 
0 0 0 0 0 0 
0 0 0 0 0 0 0 0 0 0 0 0 0 0 0 0 0 0 0 0 0 0 0 0 
0 0 0 0 0 0 0 0 0 0 0 0 0 0 0 0 0 0 0 0 0 0 0 0 
0 0 0 0 0 0 0 0 0 0 0 0 0 0 0 0 0 0 8 4 4 231 123 127 
245 127 131 245 125 128 159 90 92 48 48 48 49 49 49 49 49 49 49 50 50 50 51 51 
51 51 52 40 40 41 39 40 41 38 39 40 41 41 43 41 41 42 43 43 43 42 42 43 
43 43 44 41 42 42 43 44 45 43 44 45 45 45 45 45 45 46 46 46 47 47 48 49 
48 48 49 50 50 52 49 49 51 53 54 55 53 53 54 55 56 57 55 55 57 59 60 62 
59 60 61 63 65 66 63 64 65 66 67 68 67 68 69 70 72 72 72 73 75 74 75 77 
76 77 79 78 80 81 81 82 84 84 84 86 86 88 89 88 90 91 91 92 94 91 92 94 
92 94 95 86 87 89 86 88 90 83 83 85 82 83 85 77 78 80 78 78 80 74 74 75 
72 73 74 69 71 72 69 70 71 66 67 68 64 65 66 62 62 63 60 61 62 59 60 61 
57 57 58 55 55 57 53 54 55 52 53 54 49 49 51 49 49 50 46 46 47 46 46 47 
43 43 44 43 44 44 40 41 41 40 41 42 38 38 38 36 37 38 34 35 36 34 34 35 
33 34 34 31 32 32 30 31 32 29 30 30 28 28 28 27 27 27 26 27 27 25 25 26 
25 25 25 22 22 23 22 23 23 21 21 21 21 22 22 20 20 20 20 21 21 18 18 18 
18 18 18 17 17 17 15 16 16 15 15 15 15 15 15 14 14 14 13 13 13 14 14 14 
13 13 13 13 13 13 12 12 12 12 12 13 12 12 12 10 12 12 10 10 11 11 11 11 
10 10 10 11 11 11 10 10 10 10 10 11 10 10 10 9 9 9 9 9 9 9 9 9 
9 9 9 8 8 8 8 8 8 9 9 9 8 8 8 7 7 7 8 8 8 7 7 7 
7 7 7 7 7 7 6 6 6 7 7 7 7 7 7 6 6 6 5 5 5 6 6 6 
6 6 6 5 5 5 6 6 6 6 6 6 6 6 6 4 4 4 5 5 5 5 5 5 
7 7 7 27 27 27 29 29 29 28 28 28 29 29 29 28 28 28 28 28 28 98 40 43 
242 69 75 245 71 77 239 71 75 41 12 13 0 0 0 0 0 0 0 0 0 0 0 0 
0 0 0 0 0 0 0 0 0 0 0 0 0 0 0 0 0 0 0 0 0 0 0 0 
0 0 0 0 0 0 0 0 0 0 0 0 0 0 0 0 0 0 0 0 0 0 0 0 
0 0 0 0 0 0 
0 0 0 0 0 0 0 0 0 0 0 0 0 0 0 0 0 0 0 0 0 0 0 0 
0 0 0 0 0 0 0 0 0 0 0 0 0 0 0 0 0 0 0 0 0 0 0 0 
0 0 0 0 0 0 0 0 0 0 0 0 0 0 0 0 0 0 0 0 0 51 28 29 
240 130 134 246 129 133 242 127 129 128 79 82 49 49 49 49 49 49 50 50 51 51 51 52 
52 52 52 52 52 52 41 42 43 41 41 41 41 42 43 42 43 44 43 43 44 44 44 44 
44 45 45 43 44 44 46 46 48 45 46 47 48 48 49 47 47 49 50 51 52 49 50 52 
53 53 55 52 52 54 56 57 57 56 57 58 58 60 60 59 60 61 62 63 65 62 63 65 
66 66 68 68 69 70 69 69 72 73 74 75 74 76 76 77 79 80 78 80 81 82 83 85 
82 83 85 87 88 89 87 88 90 92 93 96 93 94 95 97 99 100 97 98 101 99 101 102 
96 97 99 94 96 99 91 92 94 90 90 92 85 88 89 83 84 85 82 83 84 78 80 82 
77 78 80 74 75 76 73 74 76 69 70 71 69 69 71 65 66 68 65 66 67 61 62 64 
60 61 61 58 58 59 57 58 59 53 54 56 53 53 55 51 51 51 49 50 51 47 47 48 
45 45 46 45 45 46 43 44 44 42 42 44 39 40 41 39 40 40 37 37 38 36 36 37 
34 35 35 34 34 35 32 32 33 32 32 32 29 30 31 29 30 30 27 27 28 28 28 28 
25 26 27 24 24 24 23 23 23 23 24 24 21 22 22 20 21 21 20 20 20 19 20 20 
20 20 20 17 17 18 16 16 17 16 16 16 15 15 15 15 15 15 14 14 14 13 13 14 
14 14 14 12 13 13 13 13 13 12 12 12 12 13 13 11 11 11 10 11 11 11 11 11 
10 10 10 10 10 10 9 9 10 9 9 9 9 9 9 9 9 9 9 9 9 9 9 9 
9 9 9 8 8 8 8 8 8 8 8 8 8 8 8 8 8 8 8 8 8 7 7 7 
6 6 6 7 7 7 6 6 6 6 6 6 6 6 6 5 5 5 5 5 5 6 6 6 
6 6 6 5 5 5 6 6 6 6 6 6 4 4 4 5 5 5 5 5 5 6 6 6 
27 27 27 29 29 29 27 27 27 27 27 27 29 29 29 29 29 29 70 34 36 237 67 71 
246 68 74 242 68 73 97 29 31 0 0 0 0 0 0 0 0 0 0 0 0 0 0 0 
0 0 0 0 0 0 0 0 0 0 0 0 0 0 0 0 0 0 0 0 0 0 0 0 
0 0 0 0 0 0 0 0 0 0 0 0 0 0 0 0 0 0 0 0 0 0 0 0 
0 0 0 0 0 0 
0 0 0 0 0 0 0 0 0 0 0 0 0 0 0 0 0 0 0 0 0 0 0 0 
0 0 0 0 0 0 0 0 0 0 0 0 0 0 0 0 0 0 0 0 0 0 0 0 
0 0 0 0 0 0 0 0 0 0 0 0 0 0 0 0 0 0 0 0 0 0 0 0 
88 50 51 244 136 140 245 132 137 241 127 131 98 71 71 51 52 52 53 53 53 54 55 55 
54 55 55 56 56 56 54 54 54 44 45 46 45 46 47 47 47 48 46 47 47 47 48 49 
47 47 48 49 49 51 49 50 50 52 52 52 50 51 53 52 53 53 54 54 56 54 56 56 
56 56 58 56 57 59 60 60 62 61 63 64 64 64 65 64 65 67 68 69 70 68 70 71 
73 73 75 72 72 75 76 78 80 77 78 79 82 83 84 81 82 85 86 88 89 86 87 89 
90 93 94 92 94 94 94 95 97 97 98 101 101 102 104 103 104 107 105 106 109 105 106 108 
101 101 103 100 101 103 95 96 99 94 95 97 89 90 92 89 90 92 86 86 88 84 85 88 
79 81 82 80 81 83 75 77 78 74 75 77 71 71 72 70 71 72 67 68 69 65 66 67 
63 64 65 61 62 63 59 60 61 56 57 58 56 56 58 54 55 56 53 54 55 50 51 51 
49 50 51 48 48 49 47 47 48 44 44 46 43 44 45 41 41 42 40 40 42 38 39 39 
38 38 38 35 36 37 35 35 36 33 33 34 32 32 33 31 32 32 30 30 30 30 30 30 
26 27 27 27 28 28 25 25 25 25 26 26 23 24 25 23 23 23 22 23 23 22 22 22 
20 20 20 20 20 21 18 19 19 19 19 19 17 17 18 17 17 17 16 16 17 17 17 17 
16 16 16 15 16 16 14 14 15 13 13 13 13 14 14 11 12 12 13 13 13 12 12 12 
12 12 12 11 11 11 11 11 11 10 10 10 11 11 11 11 11 11 10 10 11 10 11 11 
10 10 10 10 10 10 9 9 9 10 10 10 9 9 9 10 10 10 9 9 9 9 9 9 
8 8 8 8 8 8 8 8 8 9 9 9 7 7 7 7 7 7 8 8 8 8 8 8 
8 8 8 7 7 7 8 8 8 7 7 7 7 7 7 7 7 7 7 7 7 26 26 26 
30 30 30 30 30 30 31 31 31 31 31 31 30 30 30 45 32 32 231 62 66 246 66 70 
244 67 71 138 42 44 0 0 0 0 0 0 0 0 0 0 0 0 0 0 0 0 0 0 
0 0 0 0 0 0 0 0 0 0 0 0 0 0 0 0 0 0 0 0 0 0 0 0 
0 0 0 0 0 0 0 0 0 0 0 0 0 0 0 0 0 0 0 0 0 0 0 0 
0 0 0 0 0 0 
0 0 0 0 0 0 0 0 0 0 0 0 0 0 0 0 0 0 0 0 0 0 0 0 
0 0 0 0 0 0 0 0 0 0 0 0 0 0 0 0 0 0 0 0 0 0 0 0 
0 0 0 0 0 0 0 0 0 0 0 0 0 0 0 0 0 0 0 0 0 0 0 0 
0 0 0 124 74 75 243 139 142 246 137 139 238 130 134 90 66 67 53 53 54 54 54 55 
55 55 55 55 56 56 55 55 56 55 55 55 47 48 50 47 47 48 48 48 49 48 49 49 
49 49 50 51 51 52 51 52 53 54 54 55 52 54 56 57 58 59 57 57 58 59 60 61 
60 60 62 63 64 65 63 64 65 67 68 69 67 68 68 70 72 74 71 72 74 75 75 77 
75 76 78 79 81 82 82 83 84 83 83 85 86 87 89 87 89 91 93 94 95 93 94 96 
98 100 101 99 100 101 104 105 108 104 105 107 110 111 114 109 111 114 113 114 118 108 110 111 
108 109 111 101 103 106 102 103 105 97 98 101 96 98 100 91 92 94 90 91 93 86 88 90 
84 85 86 82 84 85 80 82 83 77 79 81 75 75 77 73 75 76 69 71 73 69 70 71 
66 67 68 65 65 67 61 62 64 61 61 61 59 59 60 58 59 60 54 55 56 53 54 55 
51 51 52 49 50 51 48 48 50 46 47 47 44 46 47 43 43 43 43 43 43 39 40 41 
40 40 42 37 37 38 36 36 37 33 33 35 35 35 35 32 33 33 32 33 34 30 30 30 
28 28 29 27 28 28 27 28 28 25 25 25 25 26 26 24 24 24 23 24 24 22 23 23 
21 21 21 20 20 21 19 19 19 19 19 19 18 18 18 18 19 19 17 17 17 16 16 16 
16 16 16 16 16 16 15 15 15 13 14 14 13 14 14 12 12 12 11 11 12 12 12 12 
12 12 12 11 11 11 12 12 12 11 11 11 11 11 11 11 11 11 10 10 10 9 10 9 
11 11 11 9 9 9 10 10 10 10 10 10 9 9 9 8 8 8 9 9 9 8 8 8 
8 8 8 8 8 8 8 8 8 8 8 8 7 7 7 7 7 7 7 7 7 7 7 7 
7 7 7 8 8 8 7 7 7 7 7 7 7 7 7 8 8 8 28 28 28 31 31 31 
30 30 30 29 29 29 29 29 29 30 30 30 39 31 31 224 56 64 246 61 68 245 62 68 
170 46 50 0 0 0 0 0 0 0 0 0 0 0 0 0 0 0 0 0 0 0 0 0 
0 0 0 0 0 0 0 0 0 0 0 0 0 0 0 0 0 0 0 0 0 0 0 0 
0 0 0 0 0 0 0 0 0 0 0 0 0 0 0 0 0 0 0 0 0 0 0 0 
0 0 0 0 0 0 
0 0 0 0 0 0 0 0 0 0 0 0 0 0 0 0 0 0 0 0 0 0 0 0 
0 0 0 0 0 0 0 0 0 0 0 0 0 0 0 0 0 0 0 0 0 0 0 0 
0 0 0 0 0 0 0 0 0 0 0 0 0 0 0 0 0 0 0 0 0 0 0 0 
0 0 0 0 0 0 156 93 95 245 141 145 244 139 142 235 133 136 88 67 67 55 56 56 
57 57 57 57 57 58 57 57 57 57 57 58 58 58 58 50 51 52 50 51 52 50 51 51 
54 54 55 53 53 55 56 56 57 55 56 57 57 58 60 58 59 60 61 63 64 63 63 64 
66 67 69 66 67 69 69 70 71 71 72 73 72 74 76 76 77 79 77 79 80 80 81 83 
81 82 84 86 88 90 86 88 89 91 93 95 91 93 94 98 99 101 97 98 100 103 104 106 
103 104 106 109 109 112 108 111 113 114 116 118 117 118 120 120 121 124 118 119 121 115 117 118 
112 113 115 108 108 111 106 108 109 102 104 105 102 103 105 95 97 99 95 97 99 91 91 92 
90 91 93 86 88 89 84 86 88 81 82 83 80 81 82 76 77 78 74 76 78 71 71 72 
69 71 72 68 69 71 66 67 68 63 64 65 61 62 64 61 61 61 57 57 59 55 56 58 
54 54 55 53 53 54 50 50 52 49 50 51 46 46 47 45 46 48 42 43 45 42 43 44 
40 41 42 39 39 41 37 37 38 37 37 38 36 36 37 34 34 35 33 33 34 31 32 33 
30 30 30 29 30 30 27 28 28 26 27 27 26 27 27 25 26 26 24 25 26 23 24 24 
22 23 23 21 22 22 20 20 20 20 20 20 19 19 19 17 18 18 18 18 19 17 17 17 
17 18 18 16 16 16 17 17 17 14 16 16 14 14 14 14 14 14 13 13 13 13 13 13 
13 13 13 12 12 13 12 12 12 11 11 11 11 11 11 11 11 11 10 11 11 11 11 11 
11 11 11 10 10 10 10 10 10 10 10 10 9 9 9 9 9 9 9 9 9 9 9 9 
9 9 9 9 9 9 9 9 9 8 8 8 8 8 8 8 8 8 8 8 8 7 7 8 
8 8 8 8 8 8 7 7 7 8 8 8 8 8 8 28 28 28 31 31 31 30 30 30 
31 31 31 31 31 31 31 31 31 36 30 30 218 54 60 246 58 66 246 59 67 198 50 56 
0 0 0 0 0 0 0 0 0 0 0 0 0 0 0 0 0 0 0 0 0 0 0 0 
0 0 0 0 0 0 0 0 0 0 0 0 0 0 0 0 0 0 0 0 0 0 0 0 
0 0 0 0 0 0 0 0 0 0 0 0 0 0 0 0 0 0 0 0 0 0 0 0 
0 0 0 0 0 0 
0 0 0 0 0 0 0 0 0 0 0 0 0 0 0 0 0 0 0 0 0 0 0 0 
0 0 0 0 0 0 0 0 0 0 0 0 0 0 0 0 0 0 0 0 0 0 0 0 
0 0 0 0 0 0 0 0 0 0 0 0 0 0 0 0 0 0 0 0 0 0 0 0 
0 0 0 0 0 0 0 0 0 176 108 109 244 144 148 245 142 145 231 135 136 76 63 63 
56 56 56 58 58 59 56 57 57 57 57 58 58 58 58 60 60 60 53 53 53 52 53 54 
52 53 55 55 55 57 57 57 58 57 57 58 59 60 62 61 62 63 64 64 65 65 65 66 
68 68 70 68 69 70 71 72 74 72 73 74 78 79 81 79 79 80 83 84 86 82 82 84 
86 88 90 87 89 90 91 92 95 91 93 95 97 98 100 98 100 101 101 102 104 104 106 108 
108 108 111 111 113 115 113 114 117 119 120 123 119 121 123 124 124 128 117 119 121 117 118 121 
111 113 116 110 112 114 105 106 108 104 106 108 100 101 103 100 101 102 94 95 97 93 94 95 
89 90 91 87 88 91 83 85 87 81 81 83 80 81 83 75 77 79 73 75 76 72 74 74 
71 71 74 67 68 69 66 67 69 63 63 64 63 64 65 58 59 60 58 59 60 54 55 57 
55 56 56 52 52 53 50 52 53 47 48 49 47 48 48 46 46 47 44 44 45 43 43 44 
40 41 42 38 39 40 36 36 38 37 38 38 35 35 35 35 35 36 31 32 33 31 32 32 
29 30 30 28 29 30 28 28 28 27 28 28 25 26 26 25 25 25 24 24 24 23 23 24 
21 21 22 21 21 22 21 21 21 20 20 20 19 19 19 17 17 18 18 18 18 16 17 17 
16 16 16 15 15 15 16 16 16 15 15 15 12 13 13 13 13 13 13 13 13 12 12 12 
12 12 12 11 11 11 12 12 12 11 11 11 11 11 11 11 11 11 9 10 10 10 10 10 
10 10 10 10 10 10 10 10 10 9 9 9 9 9 9 8 8 8 7 7 8 8 8 8 
7 7 7 8 8 8 8 8 8 7 7 7 7 7 7 7 7 7 7 7 7 7 7 7 
8 8 8 8 8 8 6 6 6 9 9 9 28 28 28 30 30 30 30 30 30 29 29 29 
29 29 29 29 29 29 32 30 30 212 52 55 246 56 62 244 56 63 211 51 56 0 0 0 
0 0 0 0 0 0 0 0 0 0 0 0 0 0 0 0 0 0 0 0 0 0 0 0 
0 0 0 0 0 0 0 0 0 0 0 0 0 0 0 0 0 0 0 0 0 0 0 0 
0 0 0 0 0 0 0 0 0 0 0 0 0 0 0 0 0 0 0 0 0 0 0 0 
0 0 0 0 0 0 
0 0 0 0 0 0 0 0 0 0 0 0 0 0 0 0 0 0 0 0 0 0 0 0 
0 0 0 0 0 0 0 0 0 0 0 0 0 0 0 0 0 0 0 0 0 0 0 0 
0 0 0 0 0 0 0 0 0 0 0 0 0 0 0 0 0 0 0 0 0 0 0 0 
0 0 0 0 0 0 0 0 0 0 0 0 190 119 121 244 149 151 245 145 148 229 135 138 
76 63 63 56 56 56 57 57 58 56 56 57 58 58 59 58 58 59 59 59 59 57 58 58 
54 54 55 56 57 58 56 57 58 59 60 62 59 60 61 64 65 66 63 64 65 67 68 69 
67 68 69 72 73 74 73 74 75 76 78 79 79 79 81 81 82 84 84 85 86 86 87 88 
88 88 91 90 92 94 94 96 98 96 97 100 102 103 105 100 101 104 107 109 112 108 109 111 
114 115 118 112 115 117 121 123 125 119 121 123 126 128 132 122 123 126 122 123 124 116 119 120 
114 116 119 111 112 114 107 109 111 104 105 108 101 103 104 99 101 104 94 95 97 94 96 97 
88 90 91 88 89 90 83 84 85 83 84 86 78 80 81 76 78 80 73 75 76 74 75 76 
68 69 71 68 69 71 65 65 67 64 64 66 62 62 63 59 60 62 56 57 59 55 56 57 
54 55 55 52 52 54 50 51 52 46 47 48 46 47 48 44 44 45 45 45 46 41 41 43 
40 40 42 37 38 38 38 38 38 35 35 35 35 36 37 32 32 33 31 32 33 29 30 30 
29 29 29 28 28 28 28 28 28 26 27 27 24 25 25 23 24 24 22 22 22 21 21 22 
20 20 20 21 21 21 19 19 20 18 18 18 17 17 18 17 17 18 16 16 16 15 16 16 
14 14 15 15 15 15 13 15 15 13 13 13 11 11 11 11 12 12 11 11 11 9 9 9 
9 9 9 9 9 9 9 9 9 9 9 9 10 10 10 8 8 8 9 9 9 8 8 8 
8 8 8 8 8 8 6 6 6 7 7 7 7 7 7 6 6 6 6 6 6 6 6 6 
6 6 6 7 7 7 5 5 5 6 6 6 4 4 4 5 5 5 4 4 4 5 5 5 
5 5 5 4 4 4 8 8 8 27 27 27 28 28 28 27 27 27 28 28 28 29 29 29 
28 28 28 29 27 27 207 48 53 245 53 59 245 54 60 216 50 55 2 0 0 0 0 0 
0 0 0 0 0 0 0 0 0 0 0 0 0 0 0 0 0 0 0 0 0 0 0 0 
0 0 0 0 0 0 0 0 0 0 0 0 0 0 0 0 0 0 0 0 0 0 0 0 
0 0 0 0 0 0 0 0 0 0 0 0 0 0 0 0 0 0 0 0 0 0 0 0 
0 0 0 0 0 0 
0 0 0 0 0 0 0 0 0 0 0 0 0 0 0 0 0 0 0 0 0 0 0 0 
0 0 0 0 0 0 0 0 0 0 0 0 0 0 0 0 0 0 0 0 0 0 0 0 
0 0 0 0 0 0 0 0 0 0 0 0 0 0 0 0 0 0 0 0 0 0 0 0 
0 0 0 0 0 0 0 0 0 0 0 0 0 0 0 199 127 128 245 152 155 246 150 153 
231 138 142 82 69 70 59 59 59 60 60 60 62 62 63 62 63 63 63 63 64 66 66 66 
63 63 63 59 60 60 62 62 63 64 65 66 66 66 68 68 69 70 70 70 72 71 72 73 
74 75 76 76 77 79 77 77 78 81 83 84 83 83 85 88 89 91 87 88 90 92 94 95 
93 94 95 100 101 102 97 99 101 105 107 108 105 106 108 110 111 113 110 113 115 116 117 119 
118 119 122 122 124 126 126 127 129 128 130 133 130 133 135 126 128 129 125 127 129 118 121 123 
119 121 122 112 114 116 113 114 116 107 108 109 108 108 110 99 101 103 101 102 103 95 96 98 
93 96 98 89 90 92 89 90 91 85 86 87 82 83 85 80 81 82 78 79 80 76 77 79 
72 74 76 71 71 73 67 67 69 67 68 69 63 64 65 62 63 65 59 59 61 59 60 61 
55 56 58 54 55 56 51 52 53 51 52 52 49 49 50 49 49 50 46 46 47 43 44 46 
42 42 43 41 41 42 40 40 41 39 39 40 37 37 38 35 36 37 33 34 34 31 32 32 
30 31 31 30 30 30 30 31 31 28 28 28 28 29 29 25 26 26 25 25 25 23 24 24 
23 24 24 21 22 22 21 21 22 21 21 21 21 21 21 20 20 20 20 20 20 18 18 18 
17 17 17 17 17 17 15 16 16 14 15 15 14 15 15 14 14 14 13 13 13 13 13 13 
12 12 12 13 13 13 12 12 12 12 12 12 11 11 11 10 11 11 11 11 11 11 11 11 
10 10 10 10 10 10 9 9 9 9 9 9 9 9 9 8 8 8 8 8 8 9 9 9 
9 9 9 8 8 8 8 8 8 8 8 8 7 7 7 8 8 8 8 8 8 7 7 7 
8 8 8 15 15 15 29 29 29 31 31 31 31 31 31 30 30 30 30 30 30 30 30 30 
35 31 31 212 46 52 246 50 56 245 52 57 221 48 53 8 2 2 0 0 0 0 0 0 
0 0 0 0 0 0 0 0 0 0 0 0 0 0 0 0 0 0 0 0 0 0 0 0 
0 0 0 0 0 0 0 0 0 0 0 0 0 0 0 0 0 0 0 0 0 0 0 0 
0 0 0 0 0 0 0 0 0 0 0 0 0 0 0 0 0 0 0 0 0 0 0 0 
0 0 0 0 0 0 
0 0 0 0 0 0 0 0 0 0 0 0 0 0 0 0 0 0 0 0 0 0 0 0 
0 0 0 0 0 0 0 0 0 0 0 0 0 0 0 0 0 0 0 0 0 0 0 0 
0 0 0 0 0 0 0 0 0 0 0 0 0 0 0 0 0 0 0 0 0 0 0 0 
0 0 0 0 0 0 0 0 0 0 0 0 0 0 0 0 0 0 201 131 133 244 155 158 
245 153 156 234 144 146 87 72 72 60 60 61 61 61 61 62 62 62 64 64 64 65 65 66 
65 65 66 64 64 65 62 63 65 64 65 66 68 69 70 67 68 69 71 72 74 71 71 73 
76 77 78 75 77 78 80 82 83 81 83 85 87 88 90 87 88 89 91 92 94 91 93 95 
97 97 99 99 100 102 101 103 105 104 106 108 107 108 110 111 114 115 114 115 118 118 120 122 
119 121 124 128 129 131 126 128 130 132 134 138 128 130 133 128 130 132 123 125 128 120 122 125 
116 117 119 114 116 119 108 110 112 107 108 110 104 106 107 100 102 104 97 99 100 94 95 97 
92 94 96 89 91 92 88 90 91 83 85 87 82 84 85 76 78 79 77 78 80 72 73 75 
72 73 74 69 70 71 68 69 71 64 65 66 63 64 65 60 60 62 59 60 61 56 57 57 
56 57 58 52 52 53 51 52 53 49 50 51 47 48 49 47 47 48 44 44 45 43 44 44 
40 41 42 40 41 41 37 38 38 37 37 38 36 36 36 34 35 36 31 32 32 30 32 32 
29 30 30 30 30 30 27 29 29 27 28 28 26 26 26 24 24 24 24 24 25 23 24 24 
22 22 22 21 21 21 20 20 20 20 20 20 19 19 20 17 18 18 17 17 17 16 16 17 
16 16 16 14 15 15 14 14 14 12 12 12 13 13 13 12 12 12 12 12 12 11 11 12 
11 11 11 11 11 11 10 10 10 10 10 10 9 10 10 9 9 9 9 9 9 9 9 9 
8 8 8 9 9 9 8 8 8 9 9 9 8 8 8 7 7 7 6 6 6 8 8 8 
7 7 7 7 7 7 6 6 6 6 6 6 6 6 6 6 6 6 6 6 6 6 6 6 
17 17 17 29 29 29 28 28 28 28 28 28 29 29 29 29 29 29 30 30 30 35 29 29 
218 43 50 244 45 54 244 46 54 222 45 51 14 3 3 0 0 0 0 0 0 0 0 0 
0 0 0 0 0 0 0 0 0 0 0 0 0 0 0 0 0 0 0 0 0 0 0 0 
0 0 0 0 0 0 0 0 0 0 0 0 0 0 0 0 0 0 0 0 0 0 0 0 
0 0 0 0 0 0 0 0 0 0 0 0 0 0 0 0 0 0 0 0 0 0 0 0 
0 0 0 0 0 0 
0 0 0 0 0 0 0 0 0 0 0 0 0 0 0 0 0 0 0 0 0 0 0 0 
0 0 0 0 0 0 0 0 0 0 0 0 0 0 0 0 0 0 0 0 0 0 0 0 
0 0 0 0 0 0 0 0 0 0 0 0 0 0 0 0 0 0 0 0 0 0 0 0 
0 0 0 0 0 0 0 0 0 0 0 0 0 0 0 0 0 0 0 0 0 190 127 128 
245 159 161 246 156 158 237 149 151 101 81 82 63 63 63 65 66 67 66 66 66 69 69 69 
69 69 70 70 70 71 71 71 72 69 69 71 69 69 70 71 72 74 72 73 75 76 76 79 
79 80 81 80 82 82 82 84 86 86 87 89 90 91 92 90 91 92 94 96 98 95 96 98 
101 103 104 100 102 105 107 109 111 108 108 110 114 115 118 114 116 118 122 123 124 121 121 125 
126 129 131 128 130 133 133 135 138 133 136 138 131 133 135 127 129 132 123 126 128 121 123 125 
117 119 121 115 117 120 110 112 114 109 111 114 103 105 107 103 104 105 98 99 101 96 98 100 
91 93 94 92 93 94 87 88 90 86 88 89 81 83 85 80 81 83 77 77 79 75 76 78 
72 73 74 69 70 71 69 69 70 66 66 68 64 65 66 61 62 64 61 62 63 57 58 58 
57 57 58 51 53 54 52 54 55 50 50 51 50 50 51 46 46 48 45 46 47 42 42 43 
42 42 43 41 41 41 40 41 41 38 38 38 37 37 39 35 36 36 34 35 35 33 33 33 
31 31 31 29 30 31 29 30 30 28 29 29 27 27 27 26 26 26 23 24 24 23 24 24 
23 23 23 22 22 23 21 21 21 22 22 22 20 20 20 18 18 18 17 18 18 17 17 18 
16 16 16 15 16 16 15 15 15 14 15 15 14 14 14 13 13 13 12 13 12 12 12 12 
11 11 12 12 12 12 11 11 11 11 11 11 10 11 11 9 9 9 10 10 10 9 9 9 
10 10 10 8 8 8 9 9 9 9 9 9 9 9 9 8 8 8 8 8 8 7 7 7 
8 8 8 6 6 6 7 7 7 7 7 7 8 8 8 7 7 7 8 8 8 22 22 22 
30 30 30 30 30 30 30 30 30 30 30 30 30 30 30 29 29 29 44 30 30 224 42 49 
245 44 52 245 45 52 218 42 48 8 1 2 0 0 0 0 0 0 0 0 0 0 0 0 
0 0 0 0 0 0 0 0 0 0 0 0 0 0 0 0 0 0 0 0 0 0 0 0 
0 0 0 0 0 0 0 0 0 0 0 0 0 0 0 0 0 0 0 0 0 0 0 0 
0 0 0 0 0 0 0 0 0 0 0 0 0 0 0 0 0 0 0 0 0 0 0 0 
0 0 0 0 0 0 
0 0 0 0 0 0 0 0 0 0 0 0 0 0 0 0 0 0 0 0 0 0 0 0 
0 0 0 0 0 0 0 0 0 0 0 0 0 0 0 0 0 0 0 0 0 0 0 0 
0 0 0 0 0 0 0 0 0 0 0 0 0 0 0 0 0 0 0 0 0 0 0 0 
0 0 0 0 0 0 0 0 0 0 0 0 0 0 0 0 0 0 0 0 0 0 0 0 
178 122 123 246 163 164 244 160 162 241 154 157 128 95 97 66 66 67 67 67 67 66 67 67 
68 68 68 71 71 71 72 72 73 73 73 74 70 71 72 73 75 76 74 75 76 78 78 80 
78 79 80 82 84 85 84 86 87 90 91 93 89 90 92 95 95 97 93 94 96 100 101 103 
100 101 102 105 107 109 106 108 111 111 113 114 114 115 118 117 120 121 121 122 125 124 125 128 
128 129 132 128 130 133 136 138 141 132 134 137 131 134 136 124 126 128 124 126 129 119 121 123 
118 121 123 112 113 116 111 113 115 105 107 108 105 107 109 99 100 102 97 99 101 93 95 97 
92 93 94 89 91 92 86 88 89 83 85 87 81 83 83 79 81 83 76 77 80 74 75 77 
70 71 73 71 71 72 67 67 69 64 65 67 62 62 64 61 62 63 59 60 61 56 57 58 
53 55 56 53 53 54 51 51 52 50 51 52 49 49 50 46 47 48 42 43 45 41 42 43 
41 41 42 38 39 39 38 39 40 36 36 37 35 36 37 33 34 34 32 33 33 30 30 31 
30 30 30 28 29 30 29 30 30 26 27 27 26 26 26 24 24 25 23 24 24 22 22 22 
21 21 21 21 21 21 21 21 21 19 19 20 19 19 19 18 19 19 17 17 18 17 17 17 
16 17 17 15 15 16 13 13 13 14 15 15 13 13 13 12 12 12 12 12 13 11 11 11 
11 11 11 10 10 10 10 10 11 10 10 10 10 10 10 9 9 9 9 9 9 9 9 9 
9 9 9 8 8 8 8 8 8 8 8 8 8 8 8 8 8 8 7 7 7 7 7 7 
7 7 7 7 7 7 7 7 7 7 7 7 6 6 6 8 8 8 25 25 25 30 30 30 
29 29 29 29 29 29 29 29 29 29 29 29 30 30 30 64 29 31 229 40 47 245 42 49 
245 43 50 210 39 45 8 1 2 0 0 0 0 0 0 0 0 0 0 0 0 0 0 0 
0 0 0 0 0 0 0 0 0 0 0 0 0 0 0 0 0 0 0 0 0 0 0 0 
0 0 0 0 0 0 0 0 0 0 0 0 0 0 0 0 0 0 0 0 0 0 0 0 
0 0 0 0 0 0 0 0 0 0 0 0 0 0 0 0 0 0 0 0 0 0 0 0 
0 0 0 0 0 0 
0 0 0 0 0 0 0 0 0 0 0 0 0 0 0 0 0 0 0 0 0 0 0 0 
0 0 0 0 0 0 0 0 0 0 0 0 0 0 0 0 0 0 0 0 0 0 0 0 
0 0 0 0 0 0 0 0 0 0 0 0 0 0 0 0 0 0 0 0 0 0 0 0 
0 0 0 0 0 0 0 0 0 0 0 0 0 0 0 0 0 0 0 0 0 0 0 0 
0 0 0 169 118 119 245 166 168 245 164 165 242 159 161 157 113 115 68 68 68 69 69 69 
69 69 70 71 71 73 73 73 73 75 75 75 76 76 77 75 76 77 77 79 80 78 79 80 
82 83 84 82 84 86 86 88 90 89 89 91 92 93 94 94 95 97 97 99 100 102 104 105 
102 103 105 109 110 111 109 110 112 114 116 119 113 116 117 122 123 126 121 123 126 128 131 133 
128 130 132 135 137 140 133 135 138 135 136 139 129 131 132 126 128 131 120 123 125 120 121 123 
115 117 120 112 114 117 109 111 113 105 107 109 104 105 106 100 101 102 99 101 102 93 94 96 
93 94 96 89 89 90 88 89 91 82 83 85 81 83 85 77 78 80 76 78 79 72 73 75 
72 73 75 68 69 71 67 68 69 63 64 66 62 63 64 60 61 62 58 59 60 56 58 58 
53 54 55 53 53 54 50 51 51 49 50 51 47 47 48 46 46 48 41 42 44 42 42 42 
39 40 40 40 40 41 37 37 38 36 36 38 33 34 35 34 35 35 31 32 32 31 32 32 
29 30 30 29 30 30 27 28 28 26 26 26 25 26 26 25 25 25 24 25 25 22 23 23 
22 22 23 21 22 22 21 21 21 19 19 19 19 19 19 19 19 19 17 17 18 16 17 17 
16 16 16 14 15 15 15 15 15 13 13 13 14 14 14 13 13 13 12 12 12 11 12 12 
10 10 10 11 11 11 11 11 11 10 11 11 10 10 10 10 10 10 9 9 9 10 10 10 
8 8 8 9 9 9 8 8 8 9 9 9 8 8 8 7 7 7 8 8 8 8 8 8 
7 7 7 7 7 7 7 7 7 7 7 7 12 12 12 28 28 28 30 30 30 30 30 30 
30 30 30 30 30 30 30 30 30 29 29 29 93 30 33 236 37 44 246 39 46 246 40 47 
203 36 41 2 0 0 0 0 0 0 0 0 0 0 0 0 0 0 0 0 0 0 0 0 
0 0 0 0 0 0 0 0 0 0 0 0 0 0 0 0 0 0 0 0 0 0 0 0 
0 0 0 0 0 0 0 0 0 0 0 0 0 0 0 0 0 0 0 0 0 0 0 0 
0 0 0 0 0 0 0 0 0 0 0 0 0 0 0 0 0 0 0 0 0 0 0 0 
0 0 0 0 0 0 
0 0 0 0 0 0 0 0 0 0 0 0 0 0 0 0 0 0 0 0 0 0 0 0 
0 0 0 0 0 0 0 0 0 0 0 0 0 0 0 0 0 0 0 0 0 0 0 0 
0 0 0 0 0 0 0 0 0 0 0 0 0 0 0 0 0 0 0 0 0 0 0 0 
0 0 0 0 0 0 0 0 0 0 0 0 0 0 0 0 0 0 0 0 0 0 0 0 
0 0 0 0 0 0 137 98 99 243 170 171 245 166 168 245 164 166 182 128 129 70 70 71 
73 73 73 74 74 74 75 75 76 77 77 77 78 79 79 81 81 82 82 83 84 81 83 85 
84 86 88 84 86 88 90 92 94 90 91 93 96 97 100 95 97 99 103 104 107 102 103 104 
108 110 112 109 110 112 115 116 118 115 116 119 121 123 125 123 124 125 127 129 132 129 132 134 
134 135 137 138 139 142 136 138 141 135 137 139 127 130 132 128 130 133 122 123 125 121 124 126 
114 115 117 114 115 117 108 110 112 107 109 112 102 103 105 101 102 104 96 98 99 96 97 99 
91 92 94 90 91 93 86 88 89 83 85 86 80 82 83 78 79 81 76 77 79 73 74 75 
71 72 73 69 70 71 68 68 69 63 64 65 64 64 66 60 61 62 60 61 62 55 57 58 
55 55 56 51 52 53 51 52 53 50 50 51 48 49 50 45 46 47 44 44 44 43 43 43 
41 42 42 39 40 41 38 38 39 36 37 39 34 36 36 34 35 35 31 33 33 32 32 32 
29 30 30 29 30 30 27 28 28 27 27 27 25 25 26 24 25 25 24 24 24 23 23 23 
22 22 22 22 22 22 20 20 21 20 20 20 19 20 20 18 18 19 18 18 18 16 17 17 
16 16 16 14 14 14 14 15 15 13 13 13 14 14 14 13 13 13 13 13 13 12 12 12 
10 10 10 12 12 12 11 11 11 9 9 9 10 10 10 9 9 9 9 9 9 9 9 9 
9 9 9 9 9 9 9 9 9 8 8 8 8 8 8 8 8 8 8 8 8 8 8 8 
7 7 7 6 6 6 8 8 8 20 20 21 30 30 30 31 31 31 30 30 30 30 30 30 
30 30 30 29 29 29 30 30 30 124 31 36 242 35 43 246 36 44 245 36 44 174 30 35 
0 0 0 0 0 0 0 0 0 0 0 0 0 0 0 0 0 0 0 0 0 0 0 0 
0 0 0 0 0 0 0 0 0 0 0 0 0 0 0 0 0 0 0 0 0 0 0 0 
0 0 0 0 0 0 0 0 0 0 0 0 0 0 0 0 0 0 0 0 0 0 0 0 
0 0 0 0 0 0 0 0 0 0 0 0 0 0 0 0 0 0 0 0 0 0 0 0 
0 0 0 0 0 0 
0 0 0 0 0 0 0 0 0 0 0 0 0 0 0 0 0 0 0 0 0 0 0 0 
0 0 0 0 0 0 0 0 0 0 0 0 0 0 0 0 0 0 0 0 0 0 0 0 
0 0 0 0 0 0 0 0 0 0 0 0 0 0 0 0 0 0 0 0 0 0 0 0 
0 0 0 0 0 0 0 0 0 0 0 0 0 0 0 0 0 0 0 0 0 0 0 0 
0 0 0 0 0 0 0 0 0 100 73 73 242 174 175 247 173 174 245 168 169 214 148 149 
80 72 73 74 74 74 75 76 76 78 78 79 79 80 80 82 82 83 84 84 84 85 86 86 
84 85 86 88 90 91 89 90 91 94 94 96 94 95 97 98 100 102 101 103 105 104 106 108 
107 108 111 110 111 113 113 115 118 116 118 120 121 122 125 121 123 126 128 131 133 128 130 132 
136 138 140 134 136 139 134 136 139 128 130 133 127 130 133 121 123 126 121 123 125 115 116 119 
114 116 118 110 111 113 107 109 110 104 105 107 101 103 105 98 100 103 95 96 97 94 95 97 
90 91 93 87 89 91 83 85 87 82 84 85 78 80 81 76 78 80 73 74 76 73 74 75 
70 71 72 68 69 70 64 65 67 63 64 65 60 61 63 60 60 62 57 58 59 54 55 56 
52 53 54 51 51 52 50 51 52 47 47 48 47 47 49 43 44 45 42 43 44 40 40 41 
40 41 41 38 38 39 37 37 39 34 34 35 35 36 36 31 33 33 31 32 32 30 30 30 
29 30 30 28 29 29 27 28 28 25 25 26 25 25 26 23 24 24 21 21 21 21 21 22 
21 21 21 21 21 21 19 19 19 19 19 19 18 18 18 16 16 17 15 15 15 15 16 16 
15 16 16 14 14 14 13 13 13 13 13 13 12 13 12 11 11 12 11 11 12 12 12 12 
11 11 11 11 11 11 10 10 10 9 9 9 9 9 9 8 8 8 9 9 9 8 8 8 
9 9 9 8 8 8 9 9 9 7 7 7 8 8 8 8 8 8 8 8 8 7 7 7 
6 6 6 10 10 10 27 27 27 30 30 30 29 29 29 29 29 29 29 29 29 29 29 29 
30 30 30 30 30 30 173 30 37 244 33 42 245 34 43 244 34 43 144 25 29 0 0 0 
0 0 0 0 0 0 0 0 0 0 0 0 0 0 0 0 0 0 0 0 0 0 0 0 
0 0 0 0 0 0 0 0 0 0 0 0 0 0 0 0 0 0 0 0 0 0 0 0 
0 0 0 0 0 0 0 0 0 0 0 0 0 0 0 0 0 0 0 0 0 0 0 0 
0 0 0 0 0 0 0 0 0 0 0 0 0 0 0 0 0 0 0 0 0 0 0 0 
0 0 0 0 0 0 
0 0 0 0 0 0 0 0 0 0 0 0 0 0 0 0 0 0 0 0 0 0 0 0 
0 0 0 0 0 0 0 0 0 0 0 0 0 0 0 0 0 0 0 0 0 0 0 0 
0 0 0 0 0 0 0 0 0 0 0 0 0 0 0 0 0 0 0 0 0 0 0 0 
0 0 0 0 0 0 0 0 0 0 0 0 0 0 0 0 0 0 0 0 0 0 0 0 
0 0 0 0 0 0 0 0 0 0 0 0 62 46 47 236 173 174 246 175 176 248 174 175 
234 162 163 108 93 94 76 77 77 78 78 79 81 81 82 83 83 84 84 84 84 85 85 87 
87 87 87 89 89 90 91 91 93 94 95 98 96 98 99 101 103 105 102 103 104 107 108 110 
107 109 110 114 116 118 112 114 117 120 122 124 120 121 124 126 128 131 126 128 131 134 136 137 
134 136 139 137 138 141 133 134 137 128 131 134 126 128 131 122 123 124 119 120 123 114 116 118 
113 116 117 108 110 112 107 109 111 102 103 105 102 104 106 96 97 99 95 97 99 91 93 94 
91 92 94 86 88 89 85 85 86 80 81 83 79 80 82 76 77 79 74 74 76 71 71 72 
69 70 71 67 68 69 64 64 65 63 63 64 60 61 62 59 60 61 55 55 56 55 55 56 
52 53 54 51 52 53 49 50 50 48 49 49 46 46 47 43 44 45 41 41 42 41 42 43 
39 39 40 38 39 40 36 36 37 34 35 36 33 34 34 31 32 32 32 32 32 29 30 30 
28 30 30 27 28 28 28 28 28 24 24 25 25 25 26 22 22 22 23 23 23 21 21 21 
22 22 22 19 19 19 20 20 20 19 19 19 18 18 19 17 17 17 15 16 16 15 15 15 
15 15 15 14 15 15 14 14 14 13 13 13 13 13 13 12 12 12 12 12 12 10 10 10 
11 11 11 11 11 11 10 10 10 10 10 10 9 9 9 9 10 10 9 9 9 9 9 9 
8 8 8 9 9 9 8 8 8 7 7 7 8 8 8 8 8 8 6 6 6 7 7 7 
19 19 19 29 29 29 29 29 29 30 30 30 30 30 30 30 30 30 29 29 29 29 29 29 
45 29 29 214 30 37 246 31 40 245 32 41 241 32 41 104 15 19 0 0 0 0 0 0 
0 0 0 0 0 0 0 0 0 0 0 0 0 0 0 0 0 0 0 0 0 0 0 0 
0 0 0 0 0 0 0 0 0 0 0 0 0 0 0 0 0 0 0 0 0 0 0 0 
0 0 0 0 0 0 0 0 0 0 0 0 0 0 0 0 0 0 0 0 0 0 0 0 
0 0 0 0 0 0 0 0 0 0 0 0 0 0 0 0 0 0 0 0 0 0 0 0 
0 0 0 0 0 0 
0 0 0 0 0 0 0 0 0 0 0 0 0 0 0 0 0 0 0 0 0 0 0 0 
0 0 0 0 0 0 0 0 0 0 0 0 0 0 0 0 0 0 0 0 0 0 0 0 
0 0 0 0 0 0 0 0 0 0 0 0 0 0 0 0 0 0 0 0 0 0 0 0 
0 0 0 0 0 0 0 0 0 0 0 0 0 0 0 0 0 0 0 0 0 0 0 0 
0 0 0 0 0 0 0 0 0 0 0 0 0 0 0 22 17 17 219 163 165 247 180 181 
247 177 179 243 173 174 153 119 120 78 78 79 81 81 82 83 83 84 85 85 86 86 87 87 
87 87 88 89 90 90 91 91 92 94 95 97 99 101 103 100 101 103 105 106 108 106 108 110 
110 112 114 113 114 115 116 118 120 118 121 123 123 124 127 128 130 132 130 133 135 136 138 141 
135 137 140 137 140 141 129 132 134 129 132 134 123 124 126 123 124 127 115 117 119 115 116 119 
110 111 113 108 110 113 103 105 106 102 104 105 97 99 101 95 96 98 92 93 94 89 90 92 
87 89 91 83 85 87 82 83 84 79 80 81 77 78 79 73 74 76 73 74 75 68 70 70 
68 69 71 64 65 66 63 64 66 60 60 61 60 60 62 56 57 58 55 56 57 52 53 53 
52 52 53 49 50 51 47 48 49 45 46 47 43 44 45 42 42 43 40 41 41 40 40 41 
38 39 39 36 37 38 34 34 35 33 34 35 31 32 32 30 31 32 29 30 30 29 30 30 
28 29 29 27 28 28 24 24 24 24 24 25 22 23 23 22 22 22 20 20 21 20 20 20 
20 21 21 20 20 20 19 19 19 18 18 18 16 17 17 15 15 15 15 16 16 13 13 13 
14 14 14 13 13 13 13 13 13 12 12 12 11 11 12 11 11 11 10 10 10 9 9 10 
10 10 10 9 10 10 9 10 10 9 9 9 8 8 8 9 9 9 8 8 8 8 8 8 
8 8 8 8 8 8 7 7 7 8 8 8 7 7 7 7 7 7 10 10 10 26 26 26 
30 30 30 30 30 30 29 29 29 28 28 28 28 28 28 30 30 30 29 29 29 83 29 29 
232 29 36 246 30 38 245 30 38 231 30 38 52 6 8 0 0 0 0 0 0 0 0 0 
0 0 0 0 0 0 0 0 0 0 0 0 0 0 0 0 0 0 0 0 0 0 0 0 
0 0 0 0 0 0 0 0 0 0 0 0 0 0 0 0 0 0 0 0 0 0 0 0 
0 0 0 0 0 0 0 0 0 0 0 0 0 0 0 0 0 0 0 0 0 0 0 0 
0 0 0 0 0 0 0 0 0 0 0 0 0 0 0 0 0 0 0 0 0 0 0 0 
0 0 0 0 0 0 
0 0 0 0 0 0 0 0 0 0 0 0 0 0 0 0 0 0 0 0 0 0 0 0 
0 0 0 0 0 0 0 0 0 0 0 0 0 0 0 0 0 0 0 0 0 0 0 0 
0 0 0 0 0 0 0 0 0 0 0 0 0 0 0 0 0 0 0 0 0 0 0 0 
0 0 0 0 0 0 0 0 0 0 0 0 0 0 0 0 0 0 0 0 0 0 0 0 
0 0 0 0 0 0 0 0 0 0 0 0 0 0 0 0 0 0 0 0 0 181 138 139 
247 183 185 246 180 181 247 178 179 208 154 155 89 83 83 85 85 85 85 86 86 88 88 89 
90 90 90 91 92 92 94 94 95 97 97 98 99 100 101 102 104 105 106 108 111 109 110 112 
114 115 117 113 116 117 121 123 125 121 123 126 127 129 133 128 131 133 135 137 140 136 137 141 
140 141 145 132 134 137 131 134 136 125 128 130 125 126 128 119 121 123 117 118 121 113 114 116 
110 111 114 106 108 110 103 104 106 102 104 105 96 98 99 97 98 100 91 92 94 91 93 94 
86 87 89 85 86 87 81 81 82 80 81 82 75 75 78 75 75 77 71 73 73 70 71 72 
66 68 69 64 65 67 63 63 64 60 61 62 58 59 61 55 57 58 54 55 56 53 53 54 
52 53 53 49 50 50 49 49 50 45 45 47 45 45 46 41 41 42 42 42 42 39 40 40 
40 40 41 35 36 37 35 36 36 32 33 33 32 33 34 31 31 31 31 31 31 30 31 31 
28 29 29 27 28 28 25 25 25 25 25 26 24 24 24 23 23 23 22 22 22 23 23 23 
21 21 22 21 21 21 18 18 18 18 18 18 18 18 18 17 17 17 15 15 15 15 16 16 
14 14 14 13 14 13 13 13 13 13 14 13 13 13 13 12 12 12 12 12 12 12 12 12 
10 10 10 10 10 10 10 10 10 9 9 9 10 10 10 9 9 9 9 9 9 8 8 8 
10 10 10 8 8 8 8 8 8 8 8 8 8 8 8 21 21 21 31 31 31 30 30 30 
30 30 30 30 30 30 30 30 30 31 31 31 30 30 30 29 29 29 160 29 32 242 28 35 
245 28 36 246 29 36 204 27 33 12 1 2 0 0 0 0 0 0 0 0 0 0 0 0 
0 0 0 0 0 0 0 0 0 0 0 0 0 0 0 0 0 0 0 0 0 0 0 0 
0 0 0 0 0 0 0 0 0 0 0 0 0 0 0 0 0 0 0 0 0 0 0 0 
0 0 0 0 0 0 0 0 0 0 0 0 0 0 0 0 0 0 0 0 0 0 0 0 
0 0 0 0 0 0 0 0 0 0 0 0 0 0 0 0 0 0 0 0 0 0 0 0 
0 0 0 0 0 0 
0 0 0 0 0 0 0 0 0 0 0 0 0 0 0 0 0 0 0 0 0 0 0 0 
0 0 0 0 0 0 0 0 0 0 0 0 0 0 0 0 0 0 0 0 0 0 0 0 
0 0 0 0 0 0 0 0 0 0 0 0 0 0 0 0 0 0 0 0 0 0 0 0 
0 0 0 0 0 0 0 0 0 0 0 0 0 0 0 0 0 0 0 0 0 0 0 0 
0 0 0 0 0 0 0 0 0 0 0 0 0 0 0 0 0 0 0 0 0 0 0 0 
117 91 91 242 185 186 246 184 185 247 180 182 237 173 174 128 110 110 87 88 88 88 88 89 
90 91 91 92 92 92 95 96 96 98 98 99 100 101 101 102 103 103 105 106 107 113 114 117 
113 114 116 119 121 123 120 122 124 125 126 129 127 129 132 132 134 136 135 137 140 138 140 143 
136 138 140 132 134 137 129 131 134 123 125 127 125 127 128 117 118 121 118 119 121 111 113 115 
110 112 114 104 106 107 105 107 107 99 101 103 97 98 101 93 94 96 93 94 96 88 89 91 
85 86 88 83 84 85 80 82 84 78 79 81 76 77 78 74 74 77 70 71 72 69 70 72 
66 67 67 65 66 68 61 62 63 62 62 63 57 58 60 55 56 57 54 55 55 53 54 55 
50 51 51 49 50 51 47 48 49 46 46 47 43 43 44 42 43 43 41 42 42 38 39 40 
38 38 39 36 36 37 35 35 35 32 33 33 32 33 33 30 31 31 31 32 32 29 30 30 
28 29 29 26 27 27 26 26 27 24 24 25 23 24 24 23 23 24 21 21 21 21 21 21 
21 21 21 20 20 20 18 19 19 18 18 19 17 17 17 15 17 17 15 16 16 15 15 16 
14 14 14 13 14 14 13 13 13 13 13 14 13 13 13 11 11 12 12 12 12 12 12 12 
10 11 11 10 10 11 11 11 11 10 10 10 10 10 10 9 9 9 9 9 9 9 9 9 
9 9 9 8 8 8 8 8 8 15 15 15 29 29 29 30 30 30 31 31 31 31 31 31 
31 31 31 30 30 30 30 30 30 29 29 29 55 31 31 217 27 33 246 26 34 245 27 34 
243 27 35 157 21 26 0 0 0 0 0 0 0 0 0 0 0 0 0 0 0 0 0 0 
0 0 0 0 0 0 0 0 0 0 0 0 0 0 0 0 0 0 0 0 0 0 0 0 
0 0 0 0 0 0 0 0 0 0 0 0 0 0 0 0 0 0 0 0 0 0 0 0 
0 0 0 0 0 0 0 0 0 0 0 0 0 0 0 0 0 0 0 0 0 0 0 0 
0 0 0 0 0 0 0 0 0 0 0 0 0 0 0 0 0 0 0 0 0 0 0 0 
0 0 0 0 0 0 
0 0 0 0 0 0 0 0 0 0 0 0 0 0 0 0 0 0 0 0 0 0 0 0 
0 0 0 0 0 0 0 0 0 0 0 0 0 0 0 0 0 0 0 0 0 0 0 0 
0 0 0 0 0 0 0 0 0 0 0 0 0 0 0 0 0 0 0 0 0 0 0 0 
0 0 0 0 0 0 0 0 0 0 0 0 0 0 0 0 0 0 0 0 0 0 0 0 
0 0 0 0 0 0 0 0 0 0 0 0 0 0 0 0 0 0 0 0 0 0 0 0 
0 0 0 44 35 35 223 174 175 247 189 190 247 184 186 245 180 182 193 147 149 88 89 89 
90 91 91 92 93 93 95 96 96 97 98 98 101 101 101 101 102 102 103 103 104 107 108 108 
113 114 115 120 122 123 121 122 125 126 129 131 126 128 131 135 137 140 133 135 138 140 141 145 
133 135 137 132 133 136 125 126 130 124 126 127 118 120 122 116 118 120 112 113 116 110 113 115 
106 108 111 103 105 106 101 102 104 96 99 100 95 96 98 91 91 93 90 91 93 84 86 89 
84 86 88 81 81 82 79 81 82 75 76 78 75 75 76 70 70 72 70 71 72 65 66 67 
65 66 67 62 62 64 60 61 63 58 58 59 55 56 57 53 54 54 53 54 54 50 51 52 
49 49 50 47 49 50 45 45 47 43 44 46 41 42 43 41 42 42 39 39 40 38 38 39 
35 36 37 35 36 36 33 34 34 32 33 33 30 30 30 30 31 31 28 29 29 27 28 28 
27 27 27 25 25 25 24 24 25 23 23 23 22 22 22 21 21 21 21 21 21 19 19 20 
19 19 19 17 18 18 18 18 18 17 17 17 16 16 16 14 15 15 14 15 15 13 14 14 
14 14 14 13 13 13 12 12 12 11 11 11 11 11 11 11 11 11 10 10 10 10 10 10 
9 9 9 9 9 9 9 9 9 9 9 9 8 9 9 8 8 8 8 8 8 8 8 8 
8 8 8 11 11 11 26 26 26 31 31 31 30 30 30 30 30 30 30 30 30 30 30 30 
29 29 29 30 30 30 29 29 29 134 29 30 238 25 32 246 24 33 246 24 33 233 25 33 
78 10 12 0 0 0 0 0 0 0 0 0 0 0 0 0 0 0 0 0 0 0 0 0 
0 0 0 0 0 0 0 0 0 0 0 0 0 0 0 0 0 0 0 0 0 0 0 0 
0 0 0 0 0 0 0 0 0 0 0 0 0 0 0 0 0 0 0 0 0 0 0 0 
0 0 0 0 0 0 0 0 0 0 0 0 0 0 0 0 0 0 0 0 0 0 0 0 
0 0 0 0 0 0 0 0 0 0 0 0 0 0 0 0 0 0 0 0 0 0 0 0 
0 0 0 0 0 0 
0 0 0 0 0 0 0 0 0 0 0 0 0 0 0 0 0 0 0 0 0 0 0 0 
0 0 0 0 0 0 0 0 0 0 0 0 0 0 0 0 0 0 0 0 0 0 0 0 
0 0 0 0 0 0 0 0 0 0 0 0 0 0 0 0 0 0 0 0 0 0 0 0 
0 0 0 0 0 0 0 0 0 0 0 0 0 0 0 0 0 0 0 0 0 0 0 0 
0 0 0 0 0 0 0 0 0 0 0 0 0 0 0 0 0 0 0 0 0 0 0 0 
0 0 0 0 0 0 0 0 0 171 136 136 245 192 192 246 189 189 248 186 187 234 175 176 
134 117 118 94 94 94 97 97 98 98 98 99 100 100 101 100 101 101 104 104 105 107 108 108 
109 109 110 113 114 115 122 123 124 124 126 129 132 133 136 132 135 136 137 139 143 135 137 140 
133 134 136 128 129 132 124 126 128 122 124 126 115 118 119 115 116 118 110 111 114 108 110 112 
102 103 106 104 105 107 96 99 100 97 98 101 91 92 94 91 93 94 86 88 89 85 86 89 
80 82 83 79 81 82 75 76 78 75 76 77 71 71 73 70 70 71 68 68 69 64 65 66 
64 64 66 60 60 61 60 60 61 56 56 58 55 55 56 51 53 54 52 52 53 49 50 51 
48 49 49 45 46 47 44 45 46 41 41 42 42 42 43 39 40 40 38 39 40 37 37 37 
34 35 36 32 33 33 32 33 33 30 31 31 29 30 30 29 30 30 27 28 28 28 28 29 
25 26 26 23 23 24 21 22 22 23 23 23 20 20 21 21 21 21 19 19 19 19 19 20 
18 18 18 16 17 17 16 16 17 16 16 16 14 15 15 14 14 14 13 13 13 12 12 12 
12 12 12 12 12 12 10 10 11 11 11 12 10 10 10 10 10 10 10 10 10 9 9 9 
9 9 9 9 9 9 9 9 9 8 8 8 8 8 8 8 8 8 8 8 8 10 10 10 
25 25 25 30 30 30 28 28 28 29 29 29 29 29 29 30 30 30 29 29 29 29 29 29 
28 28 28 59 29 29 214 26 31 246 25 32 246 25 32 244 25 32 199 22 29 10 1 1 
0 0 0 0 0 0 0 0 0 0 0 0 0 0 0 0 0 0 0 0 0 0 0 0 
0 0 0 0 0 0 0 0 0 0 0 0 0 0 0 0 0 0 0 0 0 0 0 0 
0 0 0 0 0 0 0 0 0 0 0 0 0 0 0 0 0 0 0 0 0 0 0 0 
0 0 0 0 0 0 0 0 0 0 0 0 0 0 0 0 0 0 0 0 0 0 0 0 
0 0 0 0 0 0 0 0 0 0 0 0 0 0 0 0 0 0 0 0 0 0 0 0 
0 0 0 0 0 0 
0 0 0 0 0 0 0 0 0 0 0 0 0 0 0 0 0 0 0 0 0 0 0 0 
0 0 0 0 0 0 0 0 0 0 0 0 0 0 0 0 0 0 0 0 0 0 0 0 
0 0 0 0 0 0 0 0 0 0 0 0 0 0 0 0 0 0 0 0 0 0 0 0 
0 0 0 0 0 0 0 0 0 0 0 0 0 0 0 0 0 0 0 0 0 0 0 0 
0 0 0 0 0 0 0 0 0 0 0 0 0 0 0 0 0 0 0 0 0 0 0 0 
0 0 0 0 0 0 0 0 0 0 0 0 81 66 66 236 189 189 247 193 194 248 190 191 
246 186 187 207 160 162 104 98 99 101 101 102 102 103 103 104 104 105 106 107 107 109 109 110 
112 112 113 115 115 116 116 117 118 121 122 123 131 133 135 136 137 140 139 141 144 133 136 137 
133 134 137 124 126 129 126 127 129 119 121 123 118 120 122 112 113 115 114 115 117 106 108 110 
104 106 107 101 102 103 98 100 102 95 97 99 93 94 95 89 90 92 86 88 91 84 85 87 
81 82 84 79 81 82 76 77 78 75 76 78 71 71 73 72 72 74 67 67 69 65 66 68 
62 62 64 62 62 63 58 59 60 56 58 59 53 54 55 53 54 55 50 52 53 50 51 52 
48 49 49 46 47 48 44 45 46 42 43 43 42 43 43 40 40 40 40 40 41 36 37 38 
35 36 36 33 34 34 33 34 35 31 31 31 30 31 32 29 29 29 29 29 29 27 27 27 
26 27 27 24 25 25 23 24 24 23 23 23 22 22 23 21 21 21 21 21 21 21 21 21 
19 20 20 18 18 18 17 18 18 16 16 16 15 16 16 16 16 16 14 15 15 13 13 13 
13 13 13 14 14 14 12 12 12 13 13 13 11 11 11 11 11 11 11 11 11 10 11 11 
10 10 10 11 11 11 9 9 9 9 9 9 9 9 9 12 12 12 25 25 25 30 30 30 
31 31 31 31 31 31 31 31 31 32 32 32 31 31 31 31 31 31 31 31 31 31 31 31 
157 28 30 240 25 32 245 25 32 245 25 32 237 24 33 124 16 20 0 0 0 0 0 0 
0 0 0 0 0 0 0 0 0 0 0 0 0 0 0 0 0 0 0 0 0 0 0 0 
0 0 0 0 0 0 0 0 0 0 0 0 0 0 0 0 0 0 0 0 0 0 0 0 
0 0 0 0 0 0 0 0 0 0 0 0 0 0 0 0 0 0 0 0 0 0 0 0 
0 0 0 0 0 0 0 0 0 0 0 0 0 0 0 0 0 0 0 0 0 0 0 0 
0 0 0 0 0 0 0 0 0 0 0 0 0 0 0 0 0 0 0 0 0 0 0 0 
0 0 0 0 0 0 
0 0 0 0 0 0 0 0 0 0 0 0 0 0 0 0 0 0 0 0 0 0 0 0 
0 0 0 0 0 0 0 0 0 0 0 0 0 0 0 0 0 0 0 0 0 0 0 0 
0 0 0 0 0 0 0 0 0 0 0 0 0 0 0 0 0 0 0 0 0 0 0 0 
0 0 0 0 0 0 0 0 0 0 0 0 0 0 0 0 0 0 0 0 0 0 0 0 
0 0 0 0 0 0 0 0 0 0 0 0 0 0 0 0 0 0 0 0 0 0 0 0 
0 0 0 0 0 0 0 0 0 0 0 0 0 0 0 0 0 0 179 146 146 245 196 197 
247 193 194 247 190 191 240 183 184 171 141 142 103 103 103 105 105 106 109 109 110 110 111 112 
113 114 114 115 116 116 118 118 119 121 122 122 123 124 124 128 129 130 133 134 136 135 136 139 
128 131 133 126 129 131 122 123 125 119 121 123 115 117 119 112 113 115 109 111 114 106 107 109 
104 106 107 99 101 103 98 99 101 92 94 96 93 94 96 87 89 91 86 88 90 83 84 85 
82 83 85 77 78 80 77 78 79 72 72 74 72 72 74 68 69 70 67 68 69 64 65 66 
62 63 64 60 61 62 57 59 60 55 57 58 53 54 55 53 53 54 50 51 51 50 50 51 
47 47 49 45 46 47 43 44 45 42 42 43 40 41 41 40 41 42 38 38 39 36 36 37 
34 35 35 34 35 35 31 33 33 32 32 32 30 31 31 29 30 30 27 28 28 26 26 27 
26 26 26 23 24 24 24 24 24 21 22 22 23 23 23 21 21 21 21 21 22 19 19 19 
18 19 19 17 18 19 17 17 17 14 16 16 15 15 15 14 14 14 14 15 15 13 13 13 
12 13 13 13 13 14 13 13 13 11 11 11 11 11 11 10 10 10 11 12 12 10 10 10 
9 9 9 9 9 9 9 9 9 13 13 13 26 26 26 31 31 31 31 31 31 31 31 31 
31 31 31 30 30 30 30 30 30 30 30 30 32 32 32 31 31 31 100 30 30 224 27 33 
245 25 33 245 25 32 245 25 32 203 22 30 20 2 3 0 0 0 0 0 0 0 0 0 
0 0 0 0 0 0 0 0 0 0 0 0 0 0 0 0 0 0 0 0 0 0 0 0 
0 0 0 0 0 0 0 0 0 0 0 0 0 0 0 0 0 0 0 0 0 0 0 0 
0 0 0 0 0 0 0 0 0 0 0 0 0 0 0 0 0 0 0 0 0 0 0 0 
0 0 0 0 0 0 0 0 0 0 0 0 0 0 0 0 0 0 0 0 0 0 0 0 
0 0 0 0 0 0 0 0 0 0 0 0 0 0 0 0 0 0 0 0 0 0 0 0 
0 0 0 0 0 0 
0 0 0 0 0 0 0 0 0 0 0 0 0 0 0 0 0 0 0 0 0 0 0 0 
0 0 0 0 0 0 0 0 0 0 0 0 0 0 0 0 0 0 0 0 0 0 0 0 
0 0 0 0 0 0 0 0 0 0 0 0 0 0 0 0 0 0 0 0 0 0 0 0 
0 0 0 0 0 0 0 0 0 0 0 0 0 0 0 0 0 0 0 0 0 0 0 0 
0 0 0 0 0 0 0 0 0 0 0 0 0 0 0 0 0 0 0 0 0 0 0 0 
0 0 0 0 0 0 0 0 0 0 0 0 0 0 0 0 0 0 0 0 0 63 52 52 
229 188 188 247 197 199 249 195 195 247 191 192 230 178 179 144 127 127 109 109 110 112 113 113 
115 115 116 116 116 118 118 119 119 121 122 122 125 125 126 128 128 129 127 128 128 126 126 127 
125 126 128 126 127 129 119 121 123 119 120 122 112 113 116 112 114 115 105 107 110 106 107 108 
99 101 102 98 101 102 93 94 96 93 95 97 89 90 91 87 88 90 83 85 87 82 83 84 
80 81 83 77 77 80 74 75 77 71 72 74 70 71 73 67 67 69 66 67 68 63 63 64 
62 63 65 58 59 60 57 59 60 52 53 54 53 54 55 51 51 52 51 52 53 47 48 50 
45 46 46 43 44 45 43 43 44 40 41 42 40 40 41 38 39 40 37 37 38 33 34 34 
33 34 34 33 34 34 30 31 31 30 32 32 29 29 29 29 29 29 27 28 28 26 27 27 
24 24 25 23 23 23 22 22 22 22 22 23 21 21 21 20 21 21 20 20 20 19 19 19 
18 18 18 17 17 18 16 16 16 15 16 16 15 15 15 14 14 15 14 14 14 13 13 13 
12 13 13 12 12 12 11 11 12 11 11 11 10 11 11 10 10 11 10 10 10 10 10 10 
9 9 9 15 15 15 28 28 28 31 31 31 32 32 32 31 31 31 30 30 30 30 30 30 
31 31 31 31 31 31 30 30 30 29 29 29 59 30 30 205 28 32 245 27 33 246 27 33 
244 27 33 235 26 34 107 13 16 0 0 0 0 0 0 0 0 0 0 0 0 0 0 0 
0 0 0 0 0 0 0 0 0 0 0 0 0 0 0 0 0 0 0 0 0 0 0 0 
0 0 0 0 0 0 0 0 0 0 0 0 0 0 0 0 0 0 0 0 0 0 0 0 
0 0 0 0 0 0 0 0 0 0 0 0 0 0 0 0 0 0 0 0 0 0 0 0 
0 0 0 0 0 0 0 0 0 0 0 0 0 0 0 0 0 0 0 0 0 0 0 0 
0 0 0 0 0 0 0 0 0 0 0 0 0 0 0 0 0 0 0 0 0 0 0 0 
0 0 0 0 0 0 
0 0 0 0 0 0 0 0 0 0 0 0 0 0 0 0 0 0 0 0 0 0 0 0 
0 0 0 0 0 0 0 0 0 0 0 0 0 0 0 0 0 0 0 0 0 0 0 0 
0 0 0 0 0 0 0 0 0 0 0 0 0 0 0 0 0 0 0 0 0 0 0 0 
0 0 0 0 0 0 0 0 0 0 0 0 0 0 0 0 0 0 0 0 0 0 0 0 
0 0 0 0 0 0 0 0 0 0 0 0 0 0 0 0 0 0 0 0 0 0 0 0 
0 0 0 0 0 0 0 0 0 0 0 0 0 0 0 0 0 0 0 0 0 0 0 0 
0 0 0 146 122 122 242 198 199 248 198 199 247 195 196 247 191 192 220 173 174 132 122 122 
114 115 115 117 117 118 120 120 121 122 122 123 124 125 126 127 128 128 127 128 128 125 125 126 
121 121 122 118 119 119 117 118 120 114 116 118 113 115 116 108 109 111 106 108 109 102 104 106 
99 100 102 96 97 99 92 93 95 92 93 95 87 89 91 87 88 91 82 83 84 81 82 84 
76 77 79 75 76 78 71 73 74 71 72 74 68 68 70 66 67 68 62 63 65 62 63 64 
58 59 60 57 58 59 53 55 56 53 54 54 51 52 53 49 50 51 50 50 51 46 46 47 
44 45 46 41 42 43 42 42 43 39 40 40 38 39 40 36 36 37 36 36 37 34 34 34 
34 35 35 31 32 32 31 31 31 28 29 29 27 28 29 26 27 27 27 27 27 25 25 26 
23 23 24 22 22 23 21 21 22 21 21 21 20 20 20 20 20 21 18 19 19 18 19 19 
17 17 18 17 17 17 15 16 16 15 15 15 14 14 14 13 14 14 13 13 13 12 12 12 
11 11 12 11 11 11 10 10 10 11 11 11 11 11 11 10 10 10 11 11 11 22 22 22 
29 29 29 31 31 31 30 30 30 30 30 30 30 30 30 31 31 31 31 31 31 31 31 31 
29 29 29 29 29 29 40 30 30 183 30 33 242 28 34 245 28 34 245 28 34 241 27 34 
181 22 27 10 1 1 0 0 0 0 0 0 0 0 0 0 0 0 0 0 0 0 0 0 
0 0 0 0 0 0 0 0 0 0 0 0 0 0 0 0 0 0 0 0 0 0 0 0 
0 0 0 0 0 0 0 0 0 0 0 0 0 0 0 0 0 0 0 0 0 0 0 0 
0 0 0 0 0 0 0 0 0 0 0 0 0 0 0 0 0 0 0 0 0 0 0 0 
0 0 0 0 0 0 0 0 0 0 0 0 0 0 0 0 0 0 0 0 0 0 0 0 
0 0 0 0 0 0 0 0 0 0 0 0 0 0 0 0 0 0 0 0 0 0 0 0 
0 0 0 0 0 0 
0 0 0 0 0 0 0 0 0 0 0 0 0 0 0 0 0 0 0 0 0 0 0 0 
0 0 0 0 0 0 0 0 0 0 0 0 0 0 0 0 0 0 0 0 0 0 0 0 
0 0 0 0 0 0 0 0 0 0 0 0 0 0 0 0 0 0 0 0 0 0 0 0 
0 0 0 0 0 0 0 0 0 0 0 0 0 0 0 0 0 0 0 0 0 0 0 0 
0 0 0 0 0 0 0 0 0 0 0 0 0 0 0 0 0 0 0 0 0 0 0 0 
0 0 0 0 0 0 0 0 0 0 0 0 0 0 0 0 0 0 0 0 0 0 0 0 
0 0 0 0 0 0 14 12 12 191 160 160 246 202 202 249 200 201 249 195 196 246 191 192 
216 173 174 133 124 125 120 121 121 124 125 125 126 127 128 127 128 128 125 126 127 123 124 125 
120 120 121 117 117 118 114 116 116 113 113 114 110 110 111 107 107 109 106 107 108 100 101 102 
100 101 103 94 94 96 94 95 97 89 91 93 88 89 91 83 84 86 83 84 86 79 80 81 
76 77 80 74 75 77 72 73 74 71 71 72 68 69 70 65 66 67 62 63 64 62 63 64 
57 58 59 56 58 59 53 54 55 53 54 55 51 51 51 50 50 51 48 48 49 46 47 47 
43 44 45 42 42 42 40 41 41 41 41 41 37 38 39 37 37 38 35 36 37 34 35 35 
31 33 33 31 31 31 31 32 32 29 30 30 28 28 28 27 27 27 26 26 26 23 23 24 
23 23 23 22 22 22 22 22 23 21 21 21 21 21 21 19 19 19 19 19 19 18 19 19 
17 17 18 16 16 16 15 15 15 14 14 14 14 14 14 14 14 14 14 14 14 12 12 12 
11 11 11 11 11 11 11 11 11 10 10 10 18 18 18 27 28 28 31 32 32 31 31 31 
30 30 30 31 31 31 31 31 31 32 32 32 30 30 30 30 30 30 30 30 30 31 31 31 
37 31 31 176 31 34 239 29 36 244 29 35 245 29 35 245 28 35 211 25 32 50 8 9 
0 0 0 0 0 0 0 0 0 0 0 0 0 0 0 0 0 0 0 0 0 0 0 0 
0 0 0 0 0 0 0 0 0 0 0 0 0 0 0 0 0 0 0 0 0 0 0 0 
0 0 0 0 0 0 0 0 0 0 0 0 0 0 0 0 0 0 0 0 0 0 0 0 
0 0 0 0 0 0 0 0 0 0 0 0 0 0 0 0 0 0 0 0 0 0 0 0 
0 0 0 0 0 0 0 0 0 0 0 0 0 0 0 0 0 0 0 0 0 0 0 0 
0 0 0 0 0 0 0 0 0 0 0 0 0 0 0 0 0 0 0 0 0 0 0 0 
0 0 0 0 0 0 
0 0 0 0 0 0 0 0 0 0 0 0 0 0 0 0 0 0 0 0 0 0 0 0 
0 0 0 0 0 0 0 0 0 0 0 0 0 0 0 0 0 0 0 0 0 0 0 0 
0 0 0 0 0 0 0 0 0 0 0 0 0 0 0 0 0 0 0 0 0 0 0 0 
0 0 0 0 0 0 0 0 0 0 0 0 0 0 0 0 0 0 0 0 0 0 0 0 
0 0 0 0 0 0 0 0 0 0 0 0 0 0 0 0 0 0 0 0 0 0 0 0 
0 0 0 0 0 0 0 0 0 0 0 0 0 0 0 0 0 0 0 0 0 0 0 0 
0 0 0 0 0 0 0 0 0 0 0 0 51 43 43 214 179 179 248 204 204 248 201 203 
248 196 197 246 192 192 215 174 175 139 134 135 128 129 129 127 128 128 124 125 126 122 122 123 
119 121 121 117 117 118 115 115 116 112 113 113 108 109 109 107 107 108 104 105 105 102 102 104 
98 100 100 95 96 97 92 93 94 89 91 93 86 88 90 83 84 85 82 83 85 78 79 81 
77 78 80 72 73 74 73 74 75 69 69 70 68 69 70 64 65 67 64 65 66 60 61 62 
61 62 62 55 56 57 54 55 56 53 53 54 51 52 52 49 49 50 47 48 49 44 45 46 
43 43 44 42 42 44 40 40 41 40 40 41 38 38 39 36 37 38 34 35 35 35 36 36 
31 32 33 32 32 32 29 30 30 30 31 31 28 29 29 28 28 28 24 25 25 24 24 25 
25 25 25 23 23 23 21 21 21 21 21 22 21 21 21 20 20 20 19 20 20 18 19 19 
19 19 19 16 17 17 16 16 16 14 14 14 15 15 15 13 13 13 13 13 13 13 13 13 
11 11 11 18 18 18 28 28 28 32 32 32 32 32 32 32 32 32 33 33 33 32 32 32 
31 32 32 31 31 31 31 31 31 32 32 32 32 32 32 31 31 31 42 32 32 170 32 36 
236 30 38 245 31 38 245 30 37 245 29 36 226 27 34 95 12 15 0 0 0 0 0 0 
0 0 0 0 0 0 0 0 0 0 0 0 0 0 0 0 0 0 0 0 0 0 0 0 
0 0 0 0 0 0 0 0 0 0 0 0 0 0 0 0 0 0 0 0 0 0 0 0 
0 0 0 0 0 0 0 0 0 0 0 0 0 0 0 0 0 0 0 0 0 0 0 0 
0 0 0 0 0 0 0 0 0 0 0 0 0 0 0 0 0 0 0 0 0 0 0 0 
0 0 0 0 0 0 0 0 0 0 0 0 0 0 0 0 0 0 0 0 0 0 0 0 
0 0 0 0 0 0 0 0 0 0 0 0 0 0 0 0 0 0 0 0 0 0 0 0 
0 0 0 0 0 0 
0 0 0 0 0 0 0 0 0 0 0 0 0 0 0 0 0 0 0 0 0 0 0 0 
0 0 0 0 0 0 0 0 0 0 0 0 0 0 0 0 0 0 0 0 0 0 0 0 
0 0 0 0 0 0 0 0 0 0 0 0 0 0 0 0 0 0 0 0 0 0 0 0 
0 0 0 0 0 0 0 0 0 0 0 0 0 0 0 0 0 0 0 0 0 0 0 0 
0 0 0 0 0 0 0 0 0 0 0 0 0 0 0 0 0 0 0 0 0 0 0 0 
0 0 0 0 0 0 0 0 0 0 0 0 0 0 0 0 0 0 0 0 0 0 0 0 
0 0 0 0 0 0 0 0 0 0 0 0 0 0 0 0 0 0 73 61 61 218 183 183 
248 205 205 249 202 203 249 197 198 246 193 194 226 179 180 157 140 141 124 125 125 121 121 122 
118 118 119 114 116 116 113 113 114 111 111 112 108 108 109 105 105 106 102 102 103 100 101 101 
99 100 100 97 97 98 95 95 96 90 90 93 85 85 86 83 84 86 80 81 82 78 79 81 
73 74 76 72 73 75 69 70 72 68 70 71 65 66 68 63 64 66 62 63 64 60 60 61 
58 60 61 55 56 57 53 54 55 52 52 53 51 52 53 48 48 49 47 48 49 44 44 45 
43 44 45 40 41 41 41 41 42 39 39 40 37 38 39 35 35 36 34 35 35 33 34 34 
32 32 32 31 32 32 30 31 31 29 30 30 28 28 28 26 26 26 25 25 25 23 24 24 
23 24 24 23 23 23 22 22 22 21 21 21 19 19 19 20 20 20 19 19 19 19 19 20 
18 18 18 16 16 16 15 16 16 16 16 16 14 14 14 16 16 16 23 23 23 30 30 30 
32 32 32 33 33 33 34 34 34 34 34 34 33 33 33 32 32 32 32 32 32 32 32 32 
31 32 32 32 32 32 32 32 32 32 32 32 57 31 31 190 32 38 240 32 40 245 31 40 
244 32 39 245 32 39 229 30 37 118 16 19 0 0 0 0 0 0 0 0 0 0 0 0 
0 0 0 0 0 0 0 0 0 0 0 0 0 0 0 0 0 0 0 0 0 0 0 0 
0 0 0 0 0 0 0 0 0 0 0 0 0 0 0 0 0 0 0 0 0 0 0 0 
0 0 0 0 0 0 0 0 0 0 0 0 0 0 0 0 0 0 0 0 0 0 0 0 
0 0 0 0 0 0 0 0 0 0 0 0 0 0 0 0 0 0 0 0 0 0 0 0 
0 0 0 0 0 0 0 0 0 0 0 0 0 0 0 0 0 0 0 0 0 0 0 0 
0 0 0 0 0 0 0 0 0 0 0 0 0 0 0 0 0 0 0 0 0 0 0 0 
0 0 0 0 0 0 
0 0 0 0 0 0 0 0 0 0 0 0 0 0 0 0 0 0 0 0 0 0 0 0 
0 0 0 0 0 0 0 0 0 0 0 0 0 0 0 0 0 0 0 0 0 0 0 0 
0 0 0 0 0 0 0 0 0 0 0 0 0 0 0 0 0 0 0 0 0 0 0 0 
0 0 0 0 0 0 0 0 0 0 0 0 0 0 0 0 0 0 0 0 0 0 0 0 
0 0 0 0 0 0 0 0 0 0 0 0 0 0 0 0 0 0 0 0 0 0 0 0 
0 0 0 0 0 0 0 0 0 0 0 0 0 0 0 0 0 0 0 0 0 0 0 0 
0 0 0 0 0 0 0 0 0 0 0 0 0 0 0 0 0 0 0 0 0 0 0 0 
77 65 65 224 188 188 249 206 206 249 203 203 248 198 199 248 193 194 232 184 184 176 150 151 
118 119 119 116 117 117 114 114 115 110 110 111 109 109 110 106 106 107 103 103 104 101 102 102 
100 100 101 97 97 97 96 96 96 93 93 93 91 91 92 88 88 88 85 86 86 81 81 83 
76 77 79 73 74 76 71 72 73 69 70 71 65 66 67 66 66 67 62 63 64 62 62 64 
57 58 60 56 57 58 53 53 54 53 54 55 50 50 51 49 50 51 47 48 49 46 46 47 
44 45 46 43 43 43 41 41 42 39 40 41 38 38 40 36 36 36 35 35 35 33 34 34 
33 34 34 31 32 32 30 31 31 29 30 30 29 29 29 27 27 28 27 27 28 24 24 24 
25 25 25 24 24 24 23 23 23 21 21 22 21 21 21 19 20 20 20 20 20 19 19 19 
18 19 19 19 19 19 24 24 24 31 32 32 33 34 34 37 37 37 36 36 36 37 37 37 
35 35 35 36 36 36 33 33 33 33 33 33 34 35 35 35 35 35 33 33 33 34 34 34 
33 33 33 33 33 33 97 33 34 207 34 42 243 34 43 245 33 42 244 32 41 245 32 41 
230 30 40 127 17 22 0 0 0 0 0 0 0 0 0 0 0 0 0 0 0 0 0 0 
0 0 0 0 0 0 0 0 0 0 0 0 0 0 0 0 0 0 0 0 0 0 0 0 
0 0 0 0 0 0 0 0 0 0 0 0 0 0 0 0 0 0 0 0 0 0 0 0 
0 0 0 0 0 0 0 0 0 0 0 0 0 0 0 0 0 0 0 0 0 0 0 0 
0 0 0 0 0 0 0 0 0 0 0 0 0 0 0 0 0 0 0 0 0 0 0 0 
0 0 0 0 0 0 0 0 0 0 0 0 0 0 0 0 0 0 0 0 0 0 0 0 
0 0 0 0 0 0 0 0 0 0 0 0 0 0 0 0 0 0 0 0 0 0 0 0 
0 0 0 0 0 0 
0 0 0 0 0 0 0 0 0 0 0 0 0 0 0 0 0 0 0 0 0 0 0 0 
0 0 0 0 0 0 0 0 0 0 0 0 0 0 0 0 0 0 0 0 0 0 0 0 
0 0 0 0 0 0 0 0 0 0 0 0 0 0 0 0 0 0 0 0 0 0 0 0 
0 0 0 0 0 0 0 0 0 0 0 0 0 0 0 0 0 0 0 0 0 0 0 0 
0 0 0 0 0 0 0 0 0 0 0 0 0 0 0 0 0 0 0 0 0 0 0 0 
0 0 0 0 0 0 0 0 0 0 0 0 0 0 0 0 0 0 0 0 0 0 0 0 
0 0 0 0 0 0 0 0 0 0 0 0 0 0 0 0 0 0 0 0 0 0 0 0 
0 0 0 0 0 0 67 57 57 210 177 177 248 205 205 249 202 203 249 198 199 248 194 194 
243 188 189 209 167 168 131 121 122 109 109 110 107 107 108 103 103 104 102 103 103 100 101 101 
99 99 100 97 97 97 93 93 93 89 89 90 89 89 89 87 88 88 86 86 87 84 85 85 
82 82 83 79 80 81 76 77 77 73 74 75 69 69 70 64 65 66 61 62 64 58 59 60 
55 56 57 54 54 55 53 54 54 51 52 54 49 49 50 47 47 49 45 46 47 44 44 46 
42 42 43 42 42 42 40 40 40 38 38 40 35 36 37 36 36 36 33 34 34 33 34 34 
32 33 33 31 32 32 30 30 30 28 29 30 27 27 27 26 26 27 25 26 26 24 24 24 
22 22 23 23 23 23 22 22 23 21 21 21 21 21 21 26 27 27 30 30 31 34 35 35 
37 37 37 37 37 37 36 36 36 37 37 37 36 36 36 35 35 35 35 35 35 35 35 35 
34 34 34 35 35 35 34 34 34 33 33 33 33 33 33 32 32 32 33 33 33 44 33 32 
165 37 42 230 38 45 245 37 45 245 36 44 245 35 43 245 34 43 222 33 41 109 16 21 
0 0 0 0 0 0 0 0 0 0 0 0 0 0 0 0 0 0 0 0 0 0 0 0 
0 0 0 0 0 0 0 0 0 0 0 0 0 0 0 0 0 0 0 0 0 0 0 0 
0 0 0 0 0 0 0 0 0 0 0 0 0 0 0 0 0 0 0 0 0 0 0 0 
0 0 0 0 0 0 0 0 0 0 0 0 0 0 0 0 0 0 0 0 0 0 0 0 
0 0 0 0 0 0 0 0 0 0 0 0 0 0 0 0 0 0 0 0 0 0 0 0 
0 0 0 0 0 0 0 0 0 0 0 0 0 0 0 0 0 0 0 0 0 0 0 0 
0 0 0 0 0 0 0 0 0 0 0 0 0 0 0 0 0 0 0 0 0 0 0 0 
0 0 0 0 0 0 
0 0 0 0 0 0 0 0 0 0 0 0 0 0 0 0 0 0 0 0 0 0 0 0 
0 0 0 0 0 0 0 0 0 0 0 0 0 0 0 0 0 0 0 0 0 0 0 0 
0 0 0 0 0 0 0 0 0 0 0 0 0 0 0 0 0 0 0 0 0 0 0 0 
0 0 0 0 0 0 0 0 0 0 0 0 0 0 0 0 0 0 0 0 0 0 0 0 
0 0 0 0 0 0 0 0 0 0 0 0 0 0 0 0 0 0 0 0 0 0 0 0 
0 0 0 0 0 0 0 0 0 0 0 0 0 0 0 0 0 0 0 0 0 0 0 0 
0 0 0 0 0 0 0 0 0 0 0 0 0 0 0 0 0 0 0 0 0 0 0 0 
0 0 0 0 0 0 0 0 0 0 0 0 35 29 29 188 159 159 245 204 204 248 203 204 
249 199 200 248 194 195 246 191 192 229 178 179 187 152 153 108 105 105 99 99 100 96 97 97 
94 94 96 93 93 93 89 90 90 88 88 89 86 86 87 84 85 85 82 82 83 82 82 83 
79 79 80 77 78 78 74 75 75 72 73 73 73 73 73 71 72 72 70 70 70 67 67 67 
63 64 65 61 61 61 57 58 58 53 53 54 49 50 51 44 44 46 42 43 44 41 41 43 
41 41 42 38 39 40 38 39 40 35 35 37 34 35 35 32 33 33 31 32 32 31 31 31 
29 30 30 28 29 29 27 28 28 27 28 28 25 25 26 27 28 28 29 29 29 33 33 33 
35 35 36 38 38 38 38 38 38 38 38 38 39 39 39 37 37 37 36 36 36 37 37 37 
36 36 36 35 35 35 34 34 35 33 33 33 33 33 33 34 35 35 34 34 34 33 33 33 
32 32 32 32 32 32 32 32 32 32 32 32 32 32 32 134 37 41 209 42 48 240 42 50 
245 41 49 246 40 47 245 40 46 243 39 46 206 34 39 74 12 15 0 0 0 0 0 0 
0 0 0 0 0 0 0 0 0 0 0 0 0 0 0 0 0 0 0 0 0 0 0 0 
0 0 0 0 0 0 0 0 0 0 0 0 0 0 0 0 0 0 0 0 0 0 0 0 
0 0 0 0 0 0 0 0 0 0 0 0 0 0 0 0 0 0 0 0 0 0 0 0 
0 0 0 0 0 0 0 0 0 0 0 0 0 0 0 0 0 0 0 0 0 0 0 0 
0 0 0 0 0 0 0 0 0 0 0 0 0 0 0 0 0 0 0 0 0 0 0 0 
0 0 0 0 0 0 0 0 0 0 0 0 0 0 0 0 0 0 0 0 0 0 0 0 
0 0 0 0 0 0 0 0 0 0 0 0 0 0 0 0 0 0 0 0 0 0 0 0 
0 0 0 0 0 0 
0 0 0 0 0 0 0 0 0 0 0 0 0 0 0 0 0 0 0 0 0 0 0 0 
0 0 0 0 0 0 0 0 0 0 0 0 0 0 0 0 0 0 0 0 0 0 0 0 
0 0 0 0 0 0 0 0 0 0 0 0 0 0 0 0 0 0 0 0 0 0 0 0 
0 0 0 0 0 0 0 0 0 0 0 0 0 0 0 0 0 0 0 0 0 0 0 0 
0 0 0 0 0 0 0 0 0 0 0 0 0 0 0 0 0 0 0 0 0 0 0 0 
0 0 0 0 0 0 0 0 0 0 0 0 0 0 0 0 0 0 0 0 0 0 0 0 
0 0 0 0 0 0 0 0 0 0 0 0 0 0 0 0 0 0 0 0 0 0 0 0 
0 0 0 0 0 0 0 0 0 0 0 0 0 0 0 0 0 0 6 5 5 134 112 112 
228 191 191 248 202 203 248 198 200 247 195 196 247 191 192 245 187 188 226 173 174 176 141 142 
103 95 96 91 91 92 88 89 90 89 89 89 87 87 87 85 85 86 82 83 83 81 82 83 
78 78 78 78 78 78 76 76 76 73 73 74 71 72 72 70 70 71 68 69 70 67 69 69 
66 66 66 63 64 64 61 61 62 62 62 62 58 59 59 59 59 60 59 59 59 56 56 56 
53 53 53 52 52 52 52 52 52 50 50 51 47 47 48 46 47 47 45 45 45 42 43 43 
44 45 45 44 44 44 44 44 44 43 43 43 42 42 42 41 42 42 43 43 43 43 43 44 
42 42 42 39 39 39 37 38 38 37 38 38 39 39 39 39 39 39 38 38 38 34 35 35 
33 33 33 35 35 35 35 35 35 35 35 35 34 34 34 32 32 33 31 32 32 33 33 33 
34 34 34 32 32 32 122 38 41 205 44 51 239 46 54 244 45 54 245 44 53 245 43 52 
245 43 51 233 42 48 170 30 36 28 5 5 0 0 0 0 0 0 0 0 0 0 0 0 
0 0 0 0 0 0 0 0 0 0 0 0 0 0 0 0 0 0 0 0 0 0 0 0 
0 0 0 0 0 0 0 0 0 0 0 0 0 0 0 0 0 0 0 0 0 0 0 0 
0 0 0 0 0 0 0 0 0 0 0 0 0 0 0 0 0 0 0 0 0 0 0 0 
0 0 0 0 0 0 0 0 0 0 0 0 0 0 0 0 0 0 0 0 0 0 0 0 
0 0 0 0 0 0 0 0 0 0 0 0 0 0 0 0 0 0 0 0 0 0 0 0 
0 0 0 0 0 0 0 0 0 0 0 0 0 0 0 0 0 0 0 0 0 0 0 0 
0 0 0 0 0 0 0 0 0 0 0 0 0 0 0 0 0 0 0 0 0 0 0 0 
0 0 0 0 0 0 
0 0 0 0 0 0 0 0 0 0 0 0 0 0 0 0 0 0 0 0 0 0 0 0 
0 0 0 0 0 0 0 0 0 0 0 0 0 0 0 0 0 0 0 0 0 0 0 0 
0 0 0 0 0 0 0 0 0 0 0 0 0 0 0 0 0 0 0 0 0 0 0 0 
0 0 0 0 0 0 0 0 0 0 0 0 0 0 0 0 0 0 0 0 0 0 0 0 
0 0 0 0 0 0 0 0 0 0 0 0 0 0 0 0 0 0 0 0 0 0 0 0 
0 0 0 0 0 0 0 0 0 0 0 0 0 0 0 0 0 0 0 0 0 0 0 0 
0 0 0 0 0 0 0 0 0 0 0 0 0 0 0 0 0 0 0 0 0 0 0 0 
0 0 0 0 0 0 0 0 0 0 0 0 0 0 0 0 0 0 0 0 0 0 0 0 
0 0 0 57 48 48 193 162 162 240 198 198 249 200 201 248 195 196 248 192 192 247 190 191 
246 183 184 231 173 175 196 152 152 124 107 108 85 86 86 83 83 85 82 82 82 81 81 82 
78 78 78 74 75 75 72 72 73 72 73 73 72 72 72 70 71 71 68 68 68 65 66 66 
63 63 63 62 62 63 63 63 63 61 61 61 57 57 57 55 56 56 55 55 56 56 56 57 
56 56 56 54 54 54 50 51 52 49 49 49 48 48 48 49 50 50 49 49 49 46 46 46 
44 45 45 43 43 43 43 43 43 44 44 44 43 44 44 40 41 41 39 39 39 39 39 39 
39 39 39 41 41 41 39 39 39 36 36 37 34 34 34 33 33 33 36 36 36 37 37 37 
35 35 35 32 33 33 31 31 31 31 31 31 34 34 34 35 35 35 60 33 36 163 46 50 
217 51 58 240 53 59 244 52 58 245 51 58 245 50 56 246 47 56 240 46 54 206 41 47 
93 19 22 0 0 0 0 0 0 0 0 0 0 0 0 0 0 0 0 0 0 0 0 0 
0 0 0 0 0 0 0 0 0 0 0 0 0 0 0 0 0 0 0 0 0 0 0 0 
0 0 0 0 0 0 0 0 0 0 0 0 0 0 0 0 0 0 0 0 0 0 0 0 
0 0 0 0 0 0 0 0 0 0 0 0 0 0 0 0 0 0 0 0 0 0 0 0 
0 0 0 0 0 0 0 0 0 0 0 0 0 0 0 0 0 0 0 0 0 0 0 0 
0 0 0 0 0 0 0 0 0 0 0 0 0 0 0 0 0 0 0 0 0 0 0 0 
0 0 0 0 0 0 0 0 0 0 0 0 0 0 0 0 0 0 0 0 0 0 0 0 
0 0 0 0 0 0 0 0 0 0 0 0 0 0 0 0 0 0 0 0 0 0 0 0 
0 0 0 0 0 0 
0 0 0 0 0 0 0 0 0 0 0 0 0 0 0 0 0 0 0 0 0 0 0 0 
0 0 0 0 0 0 0 0 0 0 0 0 0 0 0 0 0 0 0 0 0 0 0 0 
0 0 0 0 0 0 0 0 0 0 0 0 0 0 0 0 0 0 0 0 0 0 0 0 
0 0 0 0 0 0 0 0 0 0 0 0 0 0 0 0 0 0 0 0 0 0 0 0 
0 0 0 0 0 0 0 0 0 0 0 0 0 0 0 0 0 0 0 0 0 0 0 0 
0 0 0 0 0 0 0 0 0 0 0 0 0 0 0 0 0 0 0 0 0 0 0 0 
0 0 0 0 0 0 0 0 0 0 0 0 0 0 0 0 0 0 0 0 0 0 0 0 
0 0 0 0 0 0 0 0 0 0 0 0 0 0 0 0 0 0 0 0 0 0 0 0 
0 0 0 0 0 0 0 0 0 0 0 0 89 74 74 199 166 166 240 194 195 248 195 196 
248 192 193 247 189 190 247 185 186 247 182 183 239 174 175 221 162 163 187 138 140 119 100 101 
76 76 77 75 75 76 72 73 73 71 71 71 68 68 69 66 67 68 67 68 68 67 67 67 
62 63 63 60 60 60 59 60 60 58 58 58 59 59 60 58 58 59 55 56 56 52 52 53 
52 52 53 52 52 53 53 53 53 50 50 50 47 47 47 46 46 46 45 45 45 47 47 47 
46 47 47 45 45 45 42 42 42 40 40 40 41 41 41 41 41 42 42 42 42 40 40 40 
37 37 37 36 36 37 36 36 36 38 39 39 37 37 37 34 35 35 32 32 32 33 33 33 
33 33 33 36 36 36 69 40 41 154 49 52 203 57 62 233 59 66 244 59 67 246 58 66 
244 57 65 244 56 63 245 55 61 240 53 59 210 47 52 122 27 30 0 0 0 0 0 0 
0 0 0 0 0 0 0 0 0 0 0 0 0 0 0 0 0 0 0 0 0 0 0 0 
0 0 0 0 0 0 0 0 0 0 0 0 0 0 0 0 0 0 0 0 0 0 0 0 
0 0 0 0 0 0 0 0 0 0 0 0 0 0 0 0 0 0 0 0 0 0 0 0 
0 0 0 0 0 0 0 0 0 0 0 0 0 0 0 0 0 0 0 0 0 0 0 0 
0 0 0 0 0 0 0 0 0 0 0 0 0 0 0 0 0 0 0 0 0 0 0 0 
0 0 0 0 0 0 0 0 0 0 0 0 0 0 0 0 0 0 0 0 0 0 0 0 
0 0 0 0 0 0 0 0 0 0 0 0 0 0 0 0 0 0 0 0 0 0 0 0 
0 0 0 0 0 0 0 0 0 0 0 0 0 0 0 0 0 0 0 0 0 0 0 0 
0 0 0 0 0 0 
0 0 0 0 0 0 0 0 0 0 0 0 0 0 0 0 0 0 0 0 0 0 0 0 
0 0 0 0 0 0 0 0 0 0 0 0 0 0 0 0 0 0 0 0 0 0 0 0 
0 0 0 0 0 0 0 0 0 0 0 0 0 0 0 0 0 0 0 0 0 0 0 0 
0 0 0 0 0 0 0 0 0 0 0 0 0 0 0 0 0 0 0 0 0 0 0 0 
0 0 0 0 0 0 0 0 0 0 0 0 0 0 0 0 0 0 0 0 0 0 0 0 
0 0 0 0 0 0 0 0 0 0 0 0 0 0 0 0 0 0 0 0 0 0 0 0 
0 0 0 0 0 0 0 0 0 0 0 0 0 0 0 0 0 0 0 0 0 0 0 0 
0 0 0 0 0 0 0 0 0 0 0 0 0 0 0 0 0 0 0 0 0 0 0 0 
0 0 0 0 0 0 0 0 0 0 0 0 0 0 0 0 0 0 0 0 0 94 78 78 
187 152 153 232 186 186 247 193 194 247 189 190 248 185 186 247 181 183 246 178 179 247 176 177 
242 169 171 228 160 161 206 145 146 171 124 125 118 92 93 66 67 67 65 65 65 63 63 63 
63 63 63 62 62 63 60 60 61 57 57 57 55 56 56 55 55 55 56 57 57 56 56 56 
52 52 53 51 51 52 47 48 48 47 48 48 50 50 50 48 48 48 44 45 45 43 44 44 
43 43 43 43 43 43 44 44 44 43 43 43 41 41 41 38 38 38 39 39 39 40 41 41 
41 41 41 39 39 39 36 36 36 34 34 34 34 34 34 73 44 45 145 59 61 190 64 67 
215 66 72 237 69 76 245 69 76 244 68 74 244 66 72 245 65 70 245 63 69 246 62 68 
233 57 65 199 49 55 117 27 31 6 1 2 0 0 0 0 0 0 0 0 0 0 0 0 
0 0 0 0 0 0 0 0 0 0 0 0 0 0 0 0 0 0 0 0 0 0 0 0 
0 0 0 0 0 0 0 0 0 0 0 0 0 0 0 0 0 0 0 0 0 0 0 0 
0 0 0 0 0 0 0 0 0 0 0 0 0 0 0 0 0 0 0 0 0 0 0 0 
0 0 0 0 0 0 0 0 0 0 0 0 0 0 0 0 0 0 0 0 0 0 0 0 
0 0 0 0 0 0 0 0 0 0 0 0 0 0 0 0 0 0 0 0 0 0 0 0 
0 0 0 0 0 0 0 0 0 0 0 0 0 0 0 0 0 0 0 0 0 0 0 0 
0 0 0 0 0 0 0 0 0 0 0 0 0 0 0 0 0 0 0 0 0 0 0 0 
0 0 0 0 0 0 0 0 0 0 0 0 0 0 0 0 0 0 0 0 0 0 0 0 
0 0 0 0 0 0 
0 0 0 0 0 0 0 0 0 0 0 0 0 0 0 0 0 0 0 0 0 0 0 0 
0 0 0 0 0 0 0 0 0 0 0 0 0 0 0 0 0 0 0 0 0 0 0 0 
0 0 0 0 0 0 0 0 0 0 0 0 0 0 0 0 0 0 0 0 0 0 0 0 
0 0 0 0 0 0 0 0 0 0 0 0 0 0 0 0 0 0 0 0 0 0 0 0 
0 0 0 0 0 0 0 0 0 0 0 0 0 0 0 0 0 0 0 0 0 0 0 0 
0 0 0 0 0 0 0 0 0 0 0 0 0 0 0 0 0 0 0 0 0 0 0 0 
0 0 0 0 0 0 0 0 0 0 0 0 0 0 0 0 0 0 0 0 0 0 0 0 
0 0 0 0 0 0 0 0 0 0 0 0 0 0 0 0 0 0 0 0 0 0 0 0 
0 0 0 0 0 0 0 0 0 0 0 0 0 0 0 0 0 0 0 0 0 0 0 0 
0 0 0 0 0 0 33 27 27 150 119 120 210 165 166 236 182 183 246 186 187 247 182 183 
247 178 179 247 176 177 246 172 173 246 169 170 246 165 167 244 161 163 235 154 155 224 146 147 
210 137 138 186 124 124 156 104 107 126 89 90 95 75 75 55 56 56 52 53 53 55 55 55 
54 54 54 53 54 54 49 49 49 48 48 48 46 46 46 46 46 46 47 47 47 47 47 47 
43 43 44 42 42 42 42 42 42 42 42 42 44 44 44 69 49 49 109 59 61 138 65 68 
174 74 76 200 78 83 219 82 87 231 83 88 240 82 89 244 81 88 245 80 86 245 78 84 
246 77 82 245 75 80 245 72 79 245 69 77 237 67 75 216 61 67 165 46 50 52 14 15 
0 0 0 0 0 0 0 0 0 0 0 0 0 0 0 0 0 0 0 0 0 0 0 0 
0 0 0 0 0 0 0 0 0 0 0 0 0 0 0 0 0 0 0 0 0 0 0 0 
0 0 0 0 0 0 0 0 0 0 0 0 0 0 0 0 0 0 0 0 0 0 0 0 
0 0 0 0 0 0 0 0 0 0 0 0 0 0 0 0 0 0 0 0 0 0 0 0 
0 0 0 0 0 0 0 0 0 0 0 0 0 0 0 0 0 0 0 0 0 0 0 0 
0 0 0 0 0 0 0 0 0 0 0 0 0 0 0 0 0 0 0 0 0 0 0 0 
0 0 0 0 0 0 0 0 0 0 0 0 0 0 0 0 0 0 0 0 0 0 0 0 
0 0 0 0 0 0 0 0 0 0 0 0 0 0 0 0 0 0 0 0 0 0 0 0 
0 0 0 0 0 0 0 0 0 0 0 0 0 0 0 0 0 0 0 0 0 0 0 0 
0 0 0 0 0 0 
0 0 0 0 0 0 0 0 0 0 0 0 0 0 0 0 0 0 0 0 0 0 0 0 
0 0 0 0 0 0 0 0 0 0 0 0 0 0 0 0 0 0 0 0 0 0 0 0 
0 0 0 0 0 0 0 0 0 0 0 0 0 0 0 0 0 0 0 0 0 0 0 0 
0 0 0 0 0 0 0 0 0 0 0 0 0 0 0 0 0 0 0 0 0 0 0 0 
0 0 0 0 0 0 0 0 0 0 0 0 0 0 0 0 0 0 0 0 0 0 0 0 
0 0 0 0 0 0 0 0 0 0 0 0 0 0 0 0 0 0 0 0 0 0 0 0 
0 0 0 0 0 0 0 0 0 0 0 0 0 0 0 0 0 0 0 0 0 0 0 0 
0 0 0 0 0 0 0 0 0 0 0 0 0 0 0 0 0 0 0 0 0 0 0 0 
0 0 0 0 0 0 0 0 0 0 0 0 0 0 0 0 0 0 0 0 0 0 0 0 
0 0 0 0 0 0 0 0 0 0 0 0 0 0 0 0 0 0 22 17 17 104 80 81 
164 125 126 200 150 150 224 164 166 231 166 167 231 163 165 232 161 162 232 158 159 232 155 156 
231 151 153 232 148 151 232 145 148 231 142 145 231 139 142 230 136 139 226 132 135 221 127 129 
216 123 126 211 118 122 211 116 118 205 112 114 203 109 111 202 104 108 203 104 108 210 104 108 
210 103 106 214 102 106 216 101 105 223 100 104 228 99 104 229 98 102 229 96 101 228 94 98 
229 91 97 228 89 94 229 88 93 229 85 90 229 84 89 229 81 87 228 78 85 222 75 82 
204 69 74 172 57 61 119 40 42 36 11 12 0 0 0 0 0 0 0 0 0 0 0 0 
0 0 0 0 0 0 0 0 0 0 0 0 0 0 0 0 0 0 0 0 0 0 0 0 
0 0 0 0 0 0 0 0 0 0 0 0 0 0 0 0 0 0 0 0 0 0 0 0 
0 0 0 0 0 0 0 0 0 0 0 0 0 0 0 0 0 0 0 0 0 0 0 0 
0 0 0 0 0 0 0 0 0 0 0 0 0 0 0 0 0 0 0 0 0 0 0 0 
0 0 0 0 0 0 0 0 0 0 0 0 0 0 0 0 0 0 0 0 0 0 0 0 
0 0 0 0 0 0 0 0 0 0 0 0 0 0 0 0 0 0 0 0 0 0 0 0 
0 0 0 0 0 0 0 0 0 0 0 0 0 0 0 0 0 0 0 0 0 0 0 0 
0 0 0 0 0 0 0 0 0 0 0 0 0 0 0 0 0 0 0 0 0 0 0 0 
0 0 0 0 0 0 0 0 0 0 0 0 0 0 0 0 0 0 0 0 0 0 0 0 
0 0 0 0 0 0 
0 0 0 0 0 0 0 0 0 0 0 0 0 0 0 0 0 0 0 0 0 0 0 0 
0 0 0 0 0 0 0 0 0 0 0 0 0 0 0 0 0 0 0 0 0 0 0 0 
0 0 0 0 0 0 0 0 0 0 0 0 0 0 0 0 0 0 0 0 0 0 0 0 
0 0 0 0 0 0 0 0 0 0 0 0 0 0 0 0 0 0 0 0 0 0 0 0 
0 0 0 0 0 0 0 0 0 0 0 0 0 0 0 0 0 0 0 0 0 0 0 0 
0 0 0 0 0 0 0 0 0 0 0 0 0 0 0 0 0 0 0 0 0 0 0 0 
0 0 0 0 0 0 0 0 0 0 0 0 0 0 0 0 0 0 0 0 0 0 0 0 
0 0 0 0 0 0 0 0 0 0 0 0 0 0 0 0 0 0 0 0 0 0 0 0 
0 0 0 0 0 0 0 0 0 0 0 0 0 0 0 0 0 0 0 0 0 0 0 0 
0 0 0 0 0 0 0 0 0 0 0 0 0 0 0 0 0 0 0 0 0 0 0 0 
0 0 0 0 0 0 0 0 0 18 13 13 70 51 51 116 84 84 147 105 106 172 122 123 
192 134 135 206 140 142 212 142 144 214 139 141 212 136 137 213 133 136 214 131 133 213 128 132 
213 127 129 212 125 127 213 122 125 212 119 122 211 117 120 213 115 117 210 112 116 212 110 114 
211 105 109 211 104 107 211 102 105 209 99 103 210 97 102 210 95 99 208 93 97 210 91 95 
206 88 92 192 82 85 175 72 76 151 61 64 126 51 53 76 28 29 28 10 11 0 0 0 
0 0 0 0 0 0 0 0 0 0 0 0 0 0 0 0 0 0 0 0 0 0 0 0 
0 0 0 0 0 0 0 0 0 0 0 0 0 0 0 0 0 0 0 0 0 0 0 0 
0 0 0 0 0 0 0 0 0 0 0 0 0 0 0 0 0 0 0 0 0 0 0 0 
0 0 0 0 0 0 0 0 0 0 0 0 0 0 0 0 0 0 0 0 0 0 0 0 
0 0 0 0 0 0 0 0 0 0 0 0 0 0 0 0 0 0 0 0 0 0 0 0 
0 0 0 0 0 0 0 0 0 0 0 0 0 0 0 0 0 0 0 0 0 0 0 0 
0 0 0 0 0 0 0 0 0 0 0 0 0 0 0 0 0 0 0 0 0 0 0 0 
0 0 0 0 0 0 0 0 0 0 0 0 0 0 0 0 0 0 0 0 0 0 0 0 
0 0 0 0 0 0 0 0 0 0 0 0 0 0 0 0 0 0 0 0 0 0 0 0 
0 0 0 0 0 0 0 0 0 0 0 0 0 0 0 0 0 0 0 0 0 0 0 0 
0 0 0 0 0 0 
0 0 0 0 0 0 0 0 0 0 0 0 0 0 0 0 0 0 0 0 0 0 0 0 
0 0 0 0 0 0 0 0 0 0 0 0 0 0 0 0 0 0 0 0 0 0 0 0 
0 0 0 0 0 0 0 0 0 0 0 0 0 0 0 0 0 0 0 0 0 0 0 0 
0 0 0 0 0 0 0 0 0 0 0 0 0 0 0 0 0 0 0 0 0 0 0 0 
0 0 0 0 0 0 0 0 0 0 0 0 0 0 0 0 0 0 0 0 0 0 0 0 
0 0 0 0 0 0 0 0 0 0 0 0 0 0 0 0 0 0 0 0 0 0 0 0 
0 0 0 0 0 0 0 0 0 0 0 0 0 0 0 0 0 0 0 0 0 0 0 0 
0 0 0 0 0 0 0 0 0 0 0 0 0 0 0 0 0 0 0 0 0 0 0 0 
0 0 0 0 0 0 0 0 0 0 0 0 0 0 0 0 0 0 0 0 0 0 0 0 
0 0 0 0 0 0 0 0 0 0 0 0 0 0 0 0 0 0 0 0 0 0 0 0 
0 0 0 0 0 0 0 0 0 0 0 0 0 0 0 0 0 0 0 0 0 0 0 0 
0 0 0 0 0 0 14 9 9 30 20 20 44 28 29 59 37 38 72 45 45 88 55 56 
97 59 60 101 60 62 104 61 62 106 61 62 112 64 65 114 62 65 106 58 59 104 55 56 
102 53 55 95 49 51 91 46 48 76 37 38 62 29 30 49 22 23 34 15 16 17 7 8 
0 0 0 0 0 0 0 0 0 0 0 0 0 0 0 0 0 0 0 0 0 0 0 0 
0 0 0 0 0 0 0 0 0 0 0 0 0 0 0 0 0 0 0 0 0 0 0 0 
0 0 0 0 0 0 0 0 0 0 0 0 0 0 0 0 0 0 0 0 0 0 0 0 
0 0 0 0 0 0 0 0 0 0 0 0 0 0 0 0 0 0 0 0 0 0 0 0 
0 0 0 0 0 0 0 0 0 0 0 0 0 0 0 0 0 0 0 0 0 0 0 0 
0 0 0 0 0 0 0 0 0 0 0 0 0 0 0 0 0 0 0 0 0 0 0 0 
0 0 0 0 0 0 0 0 0 0 0 0 0 0 0 0 0 0 0 0 0 0 0 0 
0 0 0 0 0 0 0 0 0 0 0 0 0 0 0 0 0 0 0 0 0 0 0 0 
0 0 0 0 0 0 0 0 0 0 0 0 0 0 0 0 0 0 0 0 0 0 0 0 
0 0 0 0 0 0 0 0 0 0 0 0 0 0 0 0 0 0 0 0 0 0 0 0 
0 0 0 0 0 0 0 0 0 0 0 0 0 0 0 0 0 0 0 0 0 0 0 0 
0 0 0 0 0 0 
