P3
186 186
255
0 0 0 0 0 0 0 0 0 0 0 0 0 0 0 0 0 0 0 0 0 0 0 0 
0 0 0 0 0 0 0 0 0 0 0 0 0 0 0 0 0 0 0 0 0 0 0 0 
0 0 0 0 0 0 0 0 0 0 0 0 0 0 0 0 0 0 0 0 0 0 0 0 
0 0 0 0 0 0 0 0 0 0 0 0 0 0 0 0 0 0 0 0 0 0 0 0 
0 0 0 0 0 0 0 0 0 0 0 0 0 0 0 0 0 0 0 0 0 0 0 0 
0 0 0 0 0 0 0 0 0 0 0 0 0 0 0 0 0 0 0 0 0 0 0 0 
0 0 0 0 0 0 0 0 0 0 0 0 0 0 0 0 0 0 0 0 0 0 0 0 
0 0 0 0 0 0 0 0 0 0 0 0 0 0 0 0 0 0 0 0 0 0 0 0 
0 0 0 0 0 0 0 0 0 0 0 0 0 0 0 0 0 0 0 0 0 0 0 0 
0 0 0 0 0 0 0 0 0 0 0 0 0 0 0 0 0 0 0 0 0 6 6 6 
12 12 12 18 18 18 25 21 21 55 35 36 74 43 44 92 51 53 110 60 62 128 69 71 
138 74 76 152 82 84 154 86 87 160 89 92 170 98 101 171 100 102 162 97 99 155 96 97 
154 97 98 139 89 91 130 87 87 113 78 78 95 68 68 75 56 56 57 44 45 23 21 21 
12 12 12 3 3 3 0 0 0 0 0 0 0 0 0 0 0 0 0 0 0 0 0 0 
0 0 0 0 0 0 0 0 0 0 0 0 0 0 0 0 0 0 0 0 0 0 0 0 
0 0 0 0 0 0 0 0 0 0 0 0 0 0 0 0 0 0 0 0 0 0 0 0 
0 0 0 0 0 0 0 0 0 0 0 0 0 0 0 0 0 0 0 0 0 0 0 0 
0 0 0 0 0 0 0 0 0 0 0 0 0 0 0 0 0 0 0 0 0 0 0 0 
0 0 0 0 0 0 0 0 0 0 0 0 0 0 0 0 0 0 0 0 0 0 0 0 
0 0 0 0 0 0 0 0 0 0 0 0 0 0 0 0 0 0 0 0 0 0 0 0 
0 0 0 0 0 0 0 0 0 0 0 0 0 0 0 0 0 0 0 0 0 0 0 0 
0 0 0 0 0 0 0 0 0 0 0 0 0 0 0 0 0 0 0 0 0 0 0 0 
0 0 0 0 0 0 0 0 0 0 0 0 0 0 0 0 0 0 0 0 0 0 0 0 
0 0 0 0 0 0 
0 0 0 0 0 0 0 0 0 0 0 0 0 0 0 0 0 0 0 0 0 0 0 0 
0 0 0 0 0 0 0 0 0 0 0 0 0 0 0 0 0 0 0 0 0 0 0 0 
0 0 0 0 0 0 0 0 0 0 0 0 0 0 0 0 0 0 0 0 0 0 0 0 
0 0 0 0 0 0 0 0 0 0 0 0 0 0 0 0 0 0 0 0 0 0 0 0 
0 0 0 0 0 0 0 0 0 0 0 0 0 0 0 0 0 0 0 0 0 0 0 0 
0 0 0 0 0 0 0 0 0 0 0 0 0 0 0 0 0 0 0 0 0 0 0 0 
0 0 0 0 0 0 0 0 0 0 0 0 0 0 0 0 0 0 0 0 0 0 0 0 
0 0 0 0 0 0 0 0 0 0 0 0 0 0 0 0 0 0 0 0 0 0 0 0 
0 0 0 0 0 0 0 0 0 0 0 0 0 0 0 0 0 0 0 0 0 0 0 0 
0 0 0 3 3 3 12 12 12 21 21 21 53 32 33 94 44 46 136 58 61 170 70 73 
200 81 86 231 95 99 254 105 110 255 107 112 255 111 116 255 113 118 255 115 120 255 119 123 
255 121 126 255 124 128 255 127 131 255 130 134 255 132 136 255 136 140 255 139 142 255 141 145 
255 146 149 255 148 151 255 153 155 255 155 158 255 158 161 255 163 165 255 166 168 255 169 171 
236 161 163 208 147 149 179 130 131 142 106 107 99 77 78 54 45 45 15 15 15 0 0 0 
0 0 0 0 0 0 0 0 0 0 0 0 0 0 0 0 0 0 0 0 0 0 0 0 
0 0 0 0 0 0 0 0 0 0 0 0 0 0 0 0 0 0 0 0 0 0 0 0 
0 0 0 0 0 0 0 0 0 0 0 0 0 0 0 0 0 0 0 0 0 0 0 0 
0 0 0 0 0 0 0 0 0 0 0 0 0 0 0 0 0 0 0 0 0 0 0 0 
0 0 0 0 0 0 0 0 0 0 0 0 0 0 0 0 0 0 0 0 0 0 0 0 
0 0 0 0 0 0 0 0 0 0 0 0 0 0 0 0 0 0 0 0 0 0 0 0 
0 0 0 0 0 0 0 0 0 0 0 0 0 0 0 0 0 0 0 0 0 0 0 0 
0 0 0 0 0 0 0 0 0 0 0 0 0 0 0 0 0 0 0 0 0 0 0 0 
0 0 0 0 0 0 0 0 0 0 0 0 0 0 0 0 0 0 0 0 0 0 0 0 
0 0 0 0 0 0 
0 0 0 0 0 0 0 0 0 0 0 0 0 0 0 0 0 0 0 0 0 0 0 0 
0 0 0 0 0 0 0 0 0 0 0 0 0 0 0 0 0 0 0 0 0 0 0 0 
0 0 0 0 0 0 0 0 0 0 0 0 0 0 0 0 0 0 0 0 0 0 0 0 
0 0 0 0 0 0 0 0 0 0 0 0 0 0 0 0 0 0 0 0 0 0 0 0 
0 0 0 0 0 0 0 0 0 0 0 0 0 0 0 0 0 0 0 0 0 0 0 0 
0 0 0 0 0 0 0 0 0 0 0 0 0 0 0 0 0 0 0 0 0 0 0 0 
0 0 0 0 0 0 0 0 0 0 0 0 0 0 0 0 0 0 0 0 0 0 0 0 
0 0 0 0 0 0 0 0 0 0 0 0 0 0 0 0 0 0 0 0 0 0 0 0 
0 0 0 0 0 0 0 0 0 0 0 0 0 0 0 6 6 6 16 16 16 42 26 27 
95 40 41 147 52 55 200 67 72 243 81 88 255 86 92 255 88 94 255 91 97 255 93 99 
255 95 100 255 98 103 255 100 105 252 101 106 236 99 104 220 96 100 203 93 97 187 90 94 
175 88 91 163 86 88 164 88 91 157 87 89 151 87 89 151 89 91 155 92 94 166 98 100 
166 101 102 177 107 109 188 114 117 204 124 126 220 134 137 235 145 148 251 156 159 255 161 164 
255 166 168 255 169 171 255 172 174 255 176 178 255 180 181 255 183 184 248 184 185 212 162 163 
160 125 126 103 84 85 44 38 38 6 6 6 0 0 0 0 0 0 0 0 0 0 0 0 
0 0 0 0 0 0 0 0 0 0 0 0 0 0 0 0 0 0 0 0 0 0 0 0 
0 0 0 0 0 0 0 0 0 0 0 0 0 0 0 0 0 0 0 0 0 0 0 0 
0 0 0 0 0 0 0 0 0 0 0 0 0 0 0 0 0 0 0 0 0 0 0 0 
0 0 0 0 0 0 0 0 0 0 0 0 0 0 0 0 0 0 0 0 0 0 0 0 
0 0 0 0 0 0 0 0 0 0 0 0 0 0 0 0 0 0 0 0 0 0 0 0 
0 0 0 0 0 0 0 0 0 0 0 0 0 0 0 0 0 0 0 0 0 0 0 0 
0 0 0 0 0 0 0 0 0 0 0 0 0 0 0 0 0 0 0 0 0 0 0 0 
0 0 0 0 0 0 0 0 0 0 0 0 0 0 0 0 0 0 0 0 0 0 0 0 
0 0 0 0 0 0 
0 0 0 0 0 0 0 0 0 0 0 0 0 0 0 0 0 0 0 0 0 0 0 0 
0 0 0 0 0 0 0 0 0 0 0 0 0 0 0 0 0 0 0 0 0 0 0 0 
0 0 0 0 0 0 0 0 0 0 0 0 0 0 0 0 0 0 0 0 0 0 0 0 
0 0 0 0 0 0 0 0 0 0 0 0 0 0 0 0 0 0 0 0 0 0 0 0 
0 0 0 0 0 0 0 0 0 0 0 0 0 0 0 0 0 0 0 0 0 0 0 0 
0 0 0 0 0 0 0 0 0 0 0 0 0 0 0 0 0 0 0 0 0 0 0 0 
0 0 0 0 0 0 0 0 0 0 0 0 0 0 0 0 0 0 0 0 0 0 0 0 
0 0 0 0 0 0 0 0 0 0 0 0 0 0 0 0 0 0 0 0 0 0 0 0 
0 0 0 3 3 3 15 15 15 35 24 25 97 36 38 161 48 52 221 63 68 255 72 78 
255 74 81 255 76 82 255 77 84 255 80 86 254 82 88 224 77 83 185 70 74 148 63 66 
121 58 60 93 52 54 65 45 46 43 41 41 40 40 40 42 42 42 41 41 41 42 42 42 
43 43 43 44 44 44 44 45 45 46 46 46 46 47 47 47 47 47 48 49 49 49 49 49 
50 51 51 51 51 51 53 53 53 54 54 55 55 55 55 57 57 57 60 59 59 81 70 71 
107 83 84 133 98 99 158 113 114 189 133 134 224 155 156 253 174 176 255 180 181 255 183 184 
255 186 187 255 191 192 255 194 195 233 182 182 177 144 144 106 88 89 34 30 30 0 0 0 
0 0 0 0 0 0 0 0 0 0 0 0 0 0 0 0 0 0 0 0 0 0 0 0 
0 0 0 0 0 0 0 0 0 0 0 0 0 0 0 0 0 0 0 0 0 0 0 0 
0 0 0 0 0 0 0 0 0 0 0 0 0 0 0 0 0 0 0 0 0 0 0 0 
0 0 0 0 0 0 0 0 0 0 0 0 0 0 0 0 0 0 0 0 0 0 0 0 
0 0 0 0 0 0 0 0 0 0 0 0 0 0 0 0 0 0 0 0 0 0 0 0 
0 0 0 0 0 0 0 0 0 0 0 0 0 0 0 0 0 0 0 0 0 0 0 0 
0 0 0 0 0 0 0 0 0 0 0 0 0 0 0 0 0 0 0 0 0 0 0 0 
0 0 0 0 0 0 0 0 0 0 0 0 0 0 0 0 0 0 0 0 0 0 0 0 
0 0 0 0 0 0 
0 0 0 0 0 0 0 0 0 0 0 0 0 0 0 0 0 0 0 0 0 0 0 0 
0 0 0 0 0 0 0 0 0 0 0 0 0 0 0 0 0 0 0 0 0 0 0 0 
0 0 0 0 0 0 0 0 0 0 0 0 0 0 0 0 0 0 0 0 0 0 0 0 
0 0 0 0 0 0 0 0 0 0 0 0 0 0 0 0 0 0 0 0 0 0 0 0 
0 0 0 0 0 0 0 0 0 0 0 0 0 0 0 0 0 0 0 0 0 0 0 0 
0 0 0 0 0 0 0 0 0 0 0 0 0 0 0 0 0 0 0 0 0 0 0 0 
0 0 0 0 0 0 0 0 0 0 0 0 0 0 0 0 0 0 0 0 0 0 0 0 
0 0 0 0 0 0 0 0 0 0 0 0 0 0 0 0 0 0 3 3 3 17 17 17 
54 27 28 128 37 40 197 49 54 251 61 69 255 63 70 255 65 72 255 66 73 255 68 75 
228 66 72 178 59 63 126 51 54 83 46 47 46 39 39 38 38 38 39 39 39 39 39 39 
40 41 41 40 40 40 41 41 41 42 42 42 41 41 41 44 44 44 44 44 45 44 44 44 
45 45 45 47 47 47 47 47 47 48 48 48 49 49 49 50 50 50 51 51 52 52 52 52 
53 54 54 55 55 55 55 56 56 56 56 56 58 58 58 59 59 59 60 60 61 61 61 61 
62 62 63 64 65 65 65 65 66 68 68 68 69 69 69 75 73 73 106 90 91 144 113 114 
186 138 140 228 167 168 255 186 187 255 189 190 255 194 195 255 198 198 254 201 202 214 176 177 
142 120 120 59 52 52 3 3 3 0 0 0 0 0 0 0 0 0 0 0 0 0 0 0 
0 0 0 0 0 0 0 0 0 0 0 0 0 0 0 0 0 0 0 0 0 0 0 0 
0 0 0 0 0 0 0 0 0 0 0 0 0 0 0 0 0 0 0 0 0 0 0 0 
0 0 0 0 0 0 0 0 0 0 0 0 0 0 0 0 0 0 0 0 0 0 0 0 
0 0 0 0 0 0 0 0 0 0 0 0 0 0 0 0 0 0 0 0 0 0 0 0 
0 0 0 0 0 0 0 0 0 0 0 0 0 0 0 0 0 0 0 0 0 0 0 0 
0 0 0 0 0 0 0 0 0 0 0 0 0 0 0 0 0 0 0 0 0 0 0 0 
0 0 0 0 0 0 0 0 0 0 0 0 0 0 0 0 0 0 0 0 0 0 0 0 
0 0 0 0 0 0 
0 0 0 0 0 0 0 0 0 0 0 0 0 0 0 0 0 0 0 0 0 0 0 0 
0 0 0 0 0 0 0 0 0 0 0 0 0 0 0 0 0 0 0 0 0 0 0 0 
0 0 0 0 0 0 0 0 0 0 0 0 0 0 0 0 0 0 0 0 0 0 0 0 
0 0 0 0 0 0 0 0 0 0 0 0 0 0 0 0 0 0 0 0 0 0 0 0 
0 0 0 0 0 0 0 0 0 0 0 0 0 0 0 0 0 0 0 0 0 0 0 0 
0 0 0 0 0 0 0 0 0 0 0 0 0 0 0 0 0 0 0 0 0 0 0 0 
0 0 0 0 0 0 0 0 0 0 0 0 0 0 0 0 0 0 0 0 0 0 0 0 
0 0 0 0 0 0 0 0 0 3 3 3 17 17 17 49 25 26 124 32 36 204 45 51 
255 54 61 255 55 63 255 57 64 255 58 65 233 56 64 171 50 55 109 43 46 56 36 37 
35 35 35 35 35 35 35 35 35 35 35 35 36 36 36 37 37 37 37 37 37 38 38 38 
38 39 39 39 39 39 40 40 40 40 40 40 42 42 42 41 41 41 43 43 43 43 43 43 
44 44 44 45 45 45 46 46 46 47 47 47 47 48 48 49 49 49 49 49 50 50 50 50 
52 52 52 52 52 52 53 53 54 55 55 55 56 56 56 58 58 58 59 59 59 60 60 61 
61 62 62 63 63 63 64 65 65 67 67 67 68 69 69 69 69 70 71 71 72 72 73 73 
74 74 75 75 76 76 92 87 87 134 111 113 182 142 143 233 175 176 255 193 194 255 198 198 
255 201 202 255 204 205 222 185 185 140 119 119 52 46 46 0 0 0 0 0 0 0 0 0 
0 0 0 0 0 0 0 0 0 0 0 0 0 0 0 0 0 0 0 0 0 0 0 0 
0 0 0 0 0 0 0 0 0 0 0 0 0 0 0 0 0 0 0 0 0 0 0 0 
0 0 0 0 0 0 0 0 0 0 0 0 0 0 0 0 0 0 0 0 0 0 0 0 
0 0 0 0 0 0 0 0 0 0 0 0 0 0 0 0 0 0 0 0 0 0 0 0 
0 0 0 0 0 0 0 0 0 0 0 0 0 0 0 0 0 0 0 0 0 0 0 0 
0 0 0 0 0 0 0 0 0 0 0 0 0 0 0 0 0 0 0 0 0 0 0 0 
0 0 0 0 0 0 0 0 0 0 0 0 0 0 0 0 0 0 0 0 0 0 0 0 
0 0 0 0 0 0 
0 0 0 0 0 0 0 0 0 0 0 0 0 0 0 0 0 0 0 0 0 0 0 0 
0 0 0 0 0 0 0 0 0 0 0 0 0 0 0 0 0 0 0 0 0 0 0 0 
0 0 0 0 0 0 0 0 0 0 0 0 0 0 0 0 0 0 0 0 0 0 0 0 
0 0 0 0 0 0 0 0 0 0 0 0 0 0 0 0 0 0 0 0 0 0 0 0 
0 0 0 0 0 0 0 0 0 0 0 0 0 0 0 0 0 0 0 0 0 0 0 0 
0 0 0 0 0 0 0 0 0 0 0 0 0 0 0 0 0 0 0 0 0 0 0 0 
0 0 0 0 0 0 0 0 0 0 0 0 0 0 0 0 0 0 0 0 0 0 0 0 
0 0 0 9 9 9 30 24 24 100 29 32 193 38 44 255 47 55 255 48 56 255 50 58 
255 51 59 208 48 55 138 44 48 76 39 41 36 35 35 36 36 36 36 36 36 37 37 37 
38 38 38 38 38 38 38 39 39 38 39 39 40 40 40 39 39 40 39 39 39 40 40 40 
41 41 41 42 42 42 43 43 43 43 43 43 44 44 44 44 44 44 45 45 46 46 46 46 
47 47 47 49 49 49 49 49 49 50 50 50 51 51 51 51 52 52 53 53 53 54 54 54 
55 55 55 57 57 57 57 57 57 58 59 59 59 59 60 61 61 61 62 63 63 63 63 64 
65 65 65 66 67 67 69 69 69 70 70 71 71 72 72 72 73 73 74 74 75 76 76 77 
78 78 78 80 80 81 81 82 82 84 84 84 86 86 87 87 88 88 115 104 106 162 133 134 
213 167 168 254 196 197 255 201 202 255 204 205 255 208 208 216 182 182 112 97 97 15 13 13 
0 0 0 0 0 0 0 0 0 0 0 0 0 0 0 0 0 0 0 0 0 0 0 0 
0 0 0 0 0 0 0 0 0 0 0 0 0 0 0 0 0 0 0 0 0 0 0 0 
0 0 0 0 0 0 0 0 0 0 0 0 0 0 0 0 0 0 0 0 0 0 0 0 
0 0 0 0 0 0 0 0 0 0 0 0 0 0 0 0 0 0 0 0 0 0 0 0 
0 0 0 0 0 0 0 0 0 0 0 0 0 0 0 0 0 0 0 0 0 0 0 0 
0 0 0 0 0 0 0 0 0 0 0 0 0 0 0 0 0 0 0 0 0 0 0 0 
0 0 0 0 0 0 0 0 0 0 0 0 0 0 0 0 0 0 0 0 0 0 0 0 
0 0 0 0 0 0 
0 0 0 0 0 0 0 0 0 0 0 0 0 0 0 0 0 0 0 0 0 0 0 0 
0 0 0 0 0 0 0 0 0 0 0 0 0 0 0 0 0 0 0 0 0 0 0 0 
0 0 0 0 0 0 0 0 0 0 0 0 0 0 0 0 0 0 0 0 0 0 0 0 
0 0 0 0 0 0 0 0 0 0 0 0 0 0 0 0 0 0 0 0 0 0 0 0 
0 0 0 0 0 0 0 0 0 0 0 0 0 0 0 0 0 0 0 0 0 0 0 0 
0 0 0 0 0 0 0 0 0 0 0 0 0 0 0 0 0 0 0 0 0 0 0 0 
0 0 0 0 0 0 0 0 0 0 0 0 0 0 0 0 0 0 0 0 0 12 12 12 
55 25 26 147 28 33 237 39 48 255 42 51 255 44 52 255 45 53 211 43 50 137 40 43 
62 34 35 34 34 34 33 33 34 34 34 34 35 35 35 35 35 35 35 35 35 36 36 36 
35 35 35 36 36 36 37 37 37 38 38 38 38 38 39 37 38 38 39 40 40 39 39 39 
40 40 40 39 39 39 38 38 38 36 36 36 36 36 37 34 34 35 35 35 35 35 35 36 
35 35 36 35 36 36 37 38 38 38 39 39 38 40 40 42 42 43 42 43 43 44 45 45 
46 47 48 49 49 50 51 52 52 53 54 54 55 56 56 57 57 58 60 60 61 62 62 63 
64 64 64 65 66 66 68 68 68 69 69 70 70 71 71 73 73 73 74 74 75 76 76 77 
78 78 78 80 80 81 80 81 81 82 83 83 86 86 86 87 87 87 89 89 90 91 92 92 
93 94 94 111 104 105 165 138 139 219 174 174 254 199 200 255 204 205 255 208 208 247 206 207 
171 146 147 54 46 46 0 0 0 0 0 0 0 0 0 0 0 0 0 0 0 0 0 0 
0 0 0 0 0 0 0 0 0 0 0 0 0 0 0 0 0 0 0 0 0 0 0 0 
0 0 0 0 0 0 0 0 0 0 0 0 0 0 0 0 0 0 0 0 0 0 0 0 
0 0 0 0 0 0 0 0 0 0 0 0 0 0 0 0 0 0 0 0 0 0 0 0 
0 0 0 0 0 0 0 0 0 0 0 0 0 0 0 0 0 0 0 0 0 0 0 0 
0 0 0 0 0 0 0 0 0 0 0 0 0 0 0 0 0 0 0 0 0 0 0 0 
0 0 0 0 0 0 0 0 0 0 0 0 0 0 0 0 0 0 0 0 0 0 0 0 
0 0 0 0 0 0 
0 0 0 0 0 0 0 0 0 0 0 0 0 0 0 0 0 0 0 0 0 0 0 0 
0 0 0 0 0 0 0 0 0 0 0 0 0 0 0 0 0 0 0 0 0 0 0 0 
0 0 0 0 0 0 0 0 0 0 0 0 0 0 0 0 0 0 0 0 0 0 0 0 
0 0 0 0 0 0 0 0 0 0 0 0 0 0 0 0 0 0 0 0 0 0 0 0 
0 0 0 0 0 0 0 0 0 0 0 0 0 0 0 0 0 0 0 0 0 0 0 0 
0 0 0 0 0 0 0 0 0 0 0 0 0 0 0 0 0 0 0 0 0 0 0 0 
0 0 0 0 0 0 0 0 0 0 0 0 0 0 0 17 17 17 76 26 28 178 31 36 
254 38 46 255 39 47 255 39 48 239 40 48 158 38 43 70 35 36 33 33 33 33 33 33 
34 34 34 34 34 34 33 33 34 34 34 34 35 35 35 35 35 35 35 35 35 36 36 36 
36 36 36 36 37 36 37 37 37 37 37 37 33 33 33 30 30 30 28 29 29 26 26 26 
24 24 24 23 23 24 25 25 26 26 27 27 27 28 28 28 28 29 30 30 31 32 32 33 
33 33 34 35 35 36 35 35 36 37 37 38 39 40 40 40 41 41 42 42 43 44 44 45 
45 46 47 48 48 49 49 50 51 51 51 52 53 54 55 55 56 57 58 59 60 60 61 62 
62 63 64 65 66 67 67 68 69 70 70 72 71 71 73 74 74 76 74 75 76 76 76 77 
77 78 78 80 81 81 82 83 83 84 84 84 86 86 87 89 89 89 90 91 91 92 92 92 
95 95 96 96 96 97 99 99 100 100 101 101 123 115 115 183 152 153 241 190 191 255 203 203 
255 206 207 255 211 212 204 175 175 81 69 69 1 1 1 0 0 0 0 0 0 0 0 0 
0 0 0 0 0 0 0 0 0 0 0 0 0 0 0 0 0 0 0 0 0 0 0 0 
0 0 0 0 0 0 0 0 0 0 0 0 0 0 0 0 0 0 0 0 0 0 0 0 
0 0 0 0 0 0 0 0 0 0 0 0 0 0 0 0 0 0 0 0 0 0 0 0 
0 0 0 0 0 0 0 0 0 0 0 0 0 0 0 0 0 0 0 0 0 0 0 0 
0 0 0 0 0 0 0 0 0 0 0 0 0 0 0 0 0 0 0 0 0 0 0 0 
0 0 0 0 0 0 0 0 0 0 0 0 0 0 0 0 0 0 0 0 0 0 0 0 
0 0 0 0 0 0 
0 0 0 0 0 0 0 0 0 0 0 0 0 0 0 0 0 0 0 0 0 0 0 0 
0 0 0 0 0 0 0 0 0 0 0 0 0 0 0 0 0 0 0 0 0 0 0 0 
0 0 0 0 0 0 0 0 0 0 0 0 0 0 0 0 0 0 0 0 0 0 0 0 
0 0 0 0 0 0 0 0 0 0 0 0 0 0 0 0 0 0 0 0 0 0 0 0 
0 0 0 0 0 0 0 0 0 0 0 0 0 0 0 0 0 0 0 0 0 0 0 0 
0 0 0 0 0 0 0 0 0 0 0 0 0 0 0 0 0 0 0 0 0 0 0 0 
0 0 0 0 0 0 5 5 5 19 19 19 89 23 26 201 29 35 255 34 43 255 35 44 
255 36 44 203 36 42 111 34 37 38 32 32 32 32 32 32 32 32 32 32 33 32 32 32 
34 34 34 33 33 33 34 34 34 34 34 34 34 34 34 35 35 35 36 36 36 33 33 33 
28 28 28 25 25 25 21 21 21 19 19 19 18 18 19 20 21 21 21 21 22 21 22 22 
22 23 23 25 25 25 25 26 26 27 27 28 27 27 28 29 29 29 30 31 31 32 33 33 
33 34 34 34 35 35 36 36 36 37 38 38 39 40 41 41 42 43 42 43 43 45 45 46 
46 47 47 49 49 50 51 51 53 52 53 54 54 55 56 56 57 58 60 61 62 61 62 63 
64 65 66 66 68 69 69 70 71 70 71 73 74 75 77 77 78 79 79 80 82 81 82 84 
83 84 85 84 84 85 84 84 85 85 85 86 87 87 88 88 89 89 91 92 92 93 93 94 
94 94 95 97 98 98 100 100 101 103 103 103 104 105 105 107 108 108 111 111 111 155 137 138 
215 175 175 255 203 203 255 206 207 255 210 210 226 193 193 104 90 90 7 7 7 0 0 0 
0 0 0 0 0 0 0 0 0 0 0 0 0 0 0 0 0 0 0 0 0 0 0 0 
0 0 0 0 0 0 0 0 0 0 0 0 0 0 0 0 0 0 0 0 0 0 0 0 
0 0 0 0 0 0 0 0 0 0 0 0 0 0 0 0 0 0 0 0 0 0 0 0 
0 0 0 0 0 0 0 0 0 0 0 0 0 0 0 0 0 0 0 0 0 0 0 0 
0 0 0 0 0 0 0 0 0 0 0 0 0 0 0 0 0 0 0 0 0 0 0 0 
0 0 0 0 0 0 0 0 0 0 0 0 0 0 0 0 0 0 0 0 0 0 0 0 
0 0 0 0 0 0 
0 0 0 0 0 0 0 0 0 0 0 0 0 0 0 0 0 0 0 0 0 0 0 0 
0 0 0 0 0 0 0 0 0 0 0 0 0 0 0 0 0 0 0 0 0 0 0 0 
0 0 0 0 0 0 0 0 0 0 0 0 0 0 0 0 0 0 0 0 0 0 0 0 
0 0 0 0 0 0 0 0 0 0 0 0 0 0 0 0 0 0 0 0 0 0 0 0 
0 0 0 0 0 0 0 0 0 0 0 0 0 0 0 0 0 0 0 0 0 0 0 0 
0 0 0 0 0 0 0 0 0 0 0 0 0 0 0 0 0 0 0 0 0 0 0 0 
6 6 6 23 23 23 82 19 22 203 27 34 255 32 40 255 32 41 253 33 42 181 33 38 
81 32 34 31 31 31 32 32 32 33 33 33 32 32 32 33 33 33 32 32 33 33 33 33 
33 33 33 34 34 34 34 34 34 32 32 32 29 29 29 22 22 23 18 18 18 16 16 16 
16 16 17 17 17 18 17 18 18 19 19 19 19 20 20 20 21 21 21 21 21 22 22 22 
23 23 23 25 25 26 25 25 26 26 27 27 27 28 28 29 29 30 30 31 31 32 33 33 
33 34 34 35 35 36 37 37 38 37 38 38 39 40 40 42 42 43 44 44 45 45 46 47 
48 48 49 49 50 51 51 51 52 53 53 54 56 57 58 56 58 59 60 61 62 62 63 64 
65 66 67 67 68 69 70 71 72 72 73 74 75 76 78 78 79 80 80 81 83 84 85 86 
87 89 90 89 91 93 93 94 96 94 96 97 95 96 97 94 95 96 92 93 93 94 95 95 
95 95 96 99 99 100 100 100 101 103 103 104 105 105 106 108 108 109 110 110 111 113 114 114 
116 116 117 142 132 133 204 169 169 252 199 200 255 206 207 255 210 210 227 192 192 102 88 88 
4 4 4 0 0 0 0 0 0 0 0 0 0 0 0 0 0 0 0 0 0 0 0 0 
0 0 0 0 0 0 0 0 0 0 0 0 0 0 0 0 0 0 0 0 0 0 0 0 
0 0 0 0 0 0 0 0 0 0 0 0 0 0 0 0 0 0 0 0 0 0 0 0 
0 0 0 0 0 0 0 0 0 0 0 0 0 0 0 0 0 0 0 0 0 0 0 0 
0 0 0 0 0 0 0 0 0 0 0 0 0 0 0 0 0 0 0 0 0 0 0 0 
0 0 0 0 0 0 0 0 0 0 0 0 0 0 0 0 0 0 0 0 0 0 0 0 
0 0 0 0 0 0 
0 0 0 0 0 0 0 0 0 0 0 0 0 0 0 0 0 0 0 0 0 0 0 0 
0 0 0 0 0 0 0 0 0 0 0 0 0 0 0 0 0 0 0 0 0 0 0 0 
0 0 0 0 0 0 0 0 0 0 0 0 0 0 0 0 0 0 0 0 0 0 0 0 
0 0 0 0 0 0 0 0 0 0 0 0 0 0 0 0 0 0 0 0 0 0 0 0 
0 0 0 0 0 0 0 0 0 0 0 0 0 0 0 0 0 0 0 0 0 0 0 0 
0 0 0 0 0 0 0 0 0 0 0 0 0 0 0 0 0 0 3 3 3 20 20 20 
70 19 21 195 24 31 255 29 38 255 30 39 251 30 39 165 31 36 61 31 32 31 31 31 
32 32 32 31 31 31 32 32 32 32 32 32 32 32 32 32 32 32 32 32 32 33 33 33 
32 33 33 28 28 28 20 20 20 14 14 14 13 13 13 14 14 14 15 15 15 16 16 16 
16 17 17 18 18 18 18 18 19 19 19 20 20 20 20 21 21 22 21 22 22 22 22 23 
24 24 25 25 26 26 26 26 27 27 27 28 30 30 30 30 30 30 32 33 33 32 33 33 
34 35 35 36 36 36 36 37 38 39 39 40 40 41 42 41 42 42 45 45 46 46 47 47 
48 48 50 50 51 52 52 52 54 54 55 56 56 57 58 57 58 59 61 62 63 63 64 65 
67 68 69 68 69 70 71 72 73 72 73 74 76 77 78 78 80 81 83 84 86 85 86 88 
88 89 90 92 93 94 95 96 98 98 100 101 101 102 104 105 107 109 108 110 112 106 107 109 
103 104 105 101 101 102 100 101 101 104 105 105 106 106 107 109 109 110 113 113 114 115 115 116 
118 118 119 120 121 121 122 123 123 135 130 131 194 164 164 249 198 199 255 204 205 255 210 210 
221 187 187 90 78 79 0 0 0 0 0 0 0 0 0 0 0 0 0 0 0 0 0 0 
0 0 0 0 0 0 0 0 0 0 0 0 0 0 0 0 0 0 0 0 0 0 0 0 
0 0 0 0 0 0 0 0 0 0 0 0 0 0 0 0 0 0 0 0 0 0 0 0 
0 0 0 0 0 0 0 0 0 0 0 0 0 0 0 0 0 0 0 0 0 0 0 0 
0 0 0 0 0 0 0 0 0 0 0 0 0 0 0 0 0 0 0 0 0 0 0 0 
0 0 0 0 0 0 0 0 0 0 0 0 0 0 0 0 0 0 0 0 0 0 0 0 
0 0 0 0 0 0 
0 0 0 0 0 0 0 0 0 0 0 0 0 0 0 0 0 0 0 0 0 0 0 0 
0 0 0 0 0 0 0 0 0 0 0 0 0 0 0 0 0 0 0 0 0 0 0 0 
0 0 0 0 0 0 0 0 0 0 0 0 0 0 0 0 0 0 0 0 0 0 0 0 
0 0 0 0 0 0 0 0 0 0 0 0 0 0 0 0 0 0 0 0 0 0 0 0 
0 0 0 0 0 0 0 0 0 0 0 0 0 0 0 0 0 0 0 0 0 0 0 0 
0 0 0 0 0 0 0 0 0 0 0 0 0 0 0 17 17 17 46 21 22 170 21 27 
255 28 37 255 28 37 252 29 37 172 30 35 61 32 33 32 32 32 31 31 32 32 32 32 
32 32 32 32 32 32 32 32 32 33 33 33 32 32 32 33 33 33 29 29 29 20 20 20 
14 14 14 12 12 13 14 14 14 15 15 15 15 15 16 16 16 16 16 16 16 16 16 17 
17 17 18 18 18 18 19 19 19 20 20 20 20 21 21 23 23 23 23 23 24 24 24 24 
24 25 25 26 26 27 27 28 28 28 29 29 30 30 31 31 31 32 33 33 34 34 34 35 
35 36 37 37 38 38 38 39 39 41 41 42 43 43 44 43 44 45 45 46 47 47 47 48 
49 50 51 51 52 52 54 54 55 54 55 56 57 58 59 60 61 62 62 64 65 65 66 67 
68 69 70 71 72 73 72 74 75 75 76 78 78 79 80 80 82 84 84 85 86 87 90 91 
90 91 93 94 95 97 96 97 99 101 102 104 104 105 107 107 109 111 110 112 114 114 116 118 
117 119 121 121 123 125 117 119 121 112 113 114 107 108 108 110 111 111 114 115 116 117 117 118 
120 120 121 121 122 123 124 125 126 125 125 126 127 127 128 135 130 131 197 164 164 251 198 199 
255 204 205 255 208 208 199 169 169 53 46 46 0 0 0 0 0 0 0 0 0 0 0 0 
0 0 0 0 0 0 0 0 0 0 0 0 0 0 0 0 0 0 0 0 0 0 0 0 
0 0 0 0 0 0 0 0 0 0 0 0 0 0 0 0 0 0 0 0 0 0 0 0 
0 0 0 0 0 0 0 0 0 0 0 0 0 0 0 0 0 0 0 0 0 0 0 0 
0 0 0 0 0 0 0 0 0 0 0 0 0 0 0 0 0 0 0 0 0 0 0 0 
0 0 0 0 0 0 0 0 0 0 0 0 0 0 0 0 0 0 0 0 0 0 0 0 
0 0 0 0 0 0 
0 0 0 0 0 0 0 0 0 0 0 0 0 0 0 0 0 0 0 0 0 0 0 0 
0 0 0 0 0 0 0 0 0 0 0 0 0 0 0 0 0 0 0 0 0 0 0 0 
0 0 0 0 0 0 0 0 0 0 0 0 0 0 0 0 0 0 0 0 0 0 0 0 
0 0 0 0 0 0 0 0 0 0 0 0 0 0 0 0 0 0 0 0 0 0 0 0 
0 0 0 0 0 0 0 0 0 0 0 0 0 0 0 0 0 0 0 0 0 0 0 0 
0 0 0 0 0 0 0 0 0 9 9 9 29 22 22 132 16 21 247 27 35 255 27 36 
255 27 36 181 28 34 61 29 30 29 29 29 29 29 29 30 30 30 29 29 29 29 29 29 
29 29 29 30 30 30 30 30 30 29 29 29 20 20 20 12 12 12 9 9 9 9 9 9 
10 10 10 10 11 11 12 12 12 12 12 12 14 14 14 12 12 12 14 14 14 15 15 15 
16 16 16 15 15 16 16 16 17 17 17 17 19 19 19 19 19 19 20 20 21 21 21 22 
23 23 23 23 24 24 25 25 26 26 26 27 28 28 28 29 29 30 30 31 31 32 32 33 
35 35 35 35 36 36 36 36 37 38 38 39 40 41 41 42 42 43 44 45 45 47 47 48 
48 49 50 50 50 51 51 52 53 54 55 56 56 57 58 59 60 61 61 62 63 64 65 66 
66 67 68 69 70 71 71 72 73 74 75 76 76 77 78 80 81 82 83 84 85 86 87 88 
88 89 91 92 93 95 95 97 99 99 100 102 102 103 105 106 108 110 108 110 112 113 114 116 
116 117 120 121 122 124 126 127 130 128 131 133 130 132 134 122 124 125 115 116 117 116 116 117 
118 119 119 121 122 123 122 122 123 123 124 124 123 123 124 119 120 120 116 117 117 127 122 122 
199 163 164 254 199 200 255 204 205 253 207 207 161 136 136 22 19 19 0 0 0 0 0 0 
0 0 0 0 0 0 0 0 0 0 0 0 0 0 0 0 0 0 0 0 0 0 0 0 
0 0 0 0 0 0 0 0 0 0 0 0 0 0 0 0 0 0 0 0 0 0 0 0 
0 0 0 0 0 0 0 0 0 0 0 0 0 0 0 0 0 0 0 0 0 0 0 0 
0 0 0 0 0 0 0 0 0 0 0 0 0 0 0 0 0 0 0 0 0 0 0 0 
0 0 0 0 0 0 0 0 0 0 0 0 0 0 0 0 0 0 0 0 0 0 0 0 
0 0 0 0 0 0 
0 0 0 0 0 0 0 0 0 0 0 0 0 0 0 0 0 0 0 0 0 0 0 0 
0 0 0 0 0 0 0 0 0 0 0 0 0 0 0 0 0 0 0 0 0 0 0 0 
0 0 0 0 0 0 0 0 0 0 0 0 0 0 0 0 0 0 0 0 0 0 0 0 
0 0 0 0 0 0 0 0 0 0 0 0 0 0 0 0 0 0 0 0 0 0 0 0 
0 0 0 0 0 0 0 0 0 0 0 0 0 0 0 0 0 0 0 0 0 0 0 0 
0 0 0 3 3 3 21 21 21 74 16 18 221 24 32 255 26 35 255 26 35 213 27 34 
86 28 31 30 30 30 30 30 30 30 30 30 30 30 30 29 29 30 30 30 30 30 30 30 
31 31 31 28 28 28 18 18 18 9 9 9 9 9 10 9 9 9 9 9 10 10 10 10 
11 11 12 11 11 11 12 12 12 13 13 13 14 14 14 13 14 14 15 15 16 16 16 16 
16 16 17 18 18 18 18 18 18 19 20 20 20 20 20 20 21 21 22 22 22 24 24 24 
24 24 25 25 26 26 26 27 27 28 28 29 28 29 29 31 31 32 32 32 33 34 34 35 
34 35 35 37 38 38 38 38 39 40 41 42 42 43 43 43 44 45 45 45 46 47 48 49 
48 49 50 51 52 53 53 54 55 56 57 58 58 59 60 60 61 62 62 63 64 65 66 68 
68 69 70 71 72 73 72 73 75 75 77 78 78 79 81 81 83 84 85 86 88 87 89 90 
91 93 95 94 96 97 99 100 102 101 102 104 105 106 108 108 109 111 111 113 115 115 117 119 
120 122 124 122 124 127 127 129 131 131 132 135 135 138 140 138 140 143 144 146 148 137 138 140 
126 127 127 122 122 123 123 124 125 124 125 125 122 123 123 120 120 121 116 117 117 113 114 114 
110 110 111 136 124 125 218 174 175 255 199 200 255 203 203 237 196 196 96 82 82 0 0 0 
0 0 0 0 0 0 0 0 0 0 0 0 0 0 0 0 0 0 0 0 0 0 0 0 
0 0 0 0 0 0 0 0 0 0 0 0 0 0 0 0 0 0 0 0 0 0 0 0 
0 0 0 0 0 0 0 0 0 0 0 0 0 0 0 0 0 0 0 0 0 0 0 0 
0 0 0 0 0 0 0 0 0 0 0 0 0 0 0 0 0 0 0 0 0 0 0 0 
0 0 0 0 0 0 0 0 0 0 0 0 0 0 0 0 0 0 0 0 0 0 0 0 
0 0 0 0 0 0 
0 0 0 0 0 0 0 0 0 0 0 0 0 0 0 0 0 0 0 0 0 0 0 0 
0 0 0 0 0 0 0 0 0 0 0 0 0 0 0 0 0 0 0 0 0 0 0 0 
0 0 0 0 0 0 0 0 0 0 0 0 0 0 0 0 0 0 0 0 0 0 0 0 
0 0 0 0 0 0 0 0 0 0 0 0 0 0 0 0 0 0 0 0 0 0 0 0 
0 0 0 0 0 0 0 0 0 0 0 0 0 0 0 0 0 0 0 0 0 0 0 0 
12 12 12 35 20 21 158 18 23 255 25 34 255 25 34 239 26 35 120 27 31 31 29 29 
30 30 30 29 29 29 29 29 29 30 30 30 30 30 30 29 29 29 30 30 30 26 26 26 
15 15 15 8 8 8 8 8 8 8 8 8 10 10 10 9 9 9 10 10 10 11 11 11 
11 11 11 12 12 12 13 13 13 14 14 14 13 13 13 14 15 15 16 16 16 15 15 15 
16 16 17 17 17 18 18 18 18 19 19 20 21 21 21 21 21 21 23 23 24 24 24 24 
24 25 25 26 26 27 27 27 28 30 30 30 30 30 31 31 32 32 32 32 33 35 35 35 
36 36 37 37 38 39 39 40 40 40 41 41 43 43 44 45 46 46 46 46 47 48 49 51 
49 50 51 52 52 54 54 55 56 56 57 58 60 61 62 61 62 63 64 65 66 67 68 69 
69 70 71 72 73 74 75 76 77 76 77 79 81 83 84 83 84 85 87 88 89 89 90 92 
92 93 95 95 96 98 99 100 102 102 104 106 105 107 109 110 112 114 114 115 117 117 118 121 
122 123 125 124 126 128 128 130 132 132 134 137 137 139 141 141 143 146 146 149 151 151 153 156 
156 158 161 148 150 153 131 133 134 124 125 125 121 121 122 117 118 118 114 115 115 112 113 113 
109 110 110 106 107 107 104 105 105 153 132 133 238 184 185 255 199 200 255 203 203 189 155 156 
33 29 29 0 0 0 0 0 0 0 0 0 0 0 0 0 0 0 0 0 0 0 0 0 
0 0 0 0 0 0 0 0 0 0 0 0 0 0 0 0 0 0 0 0 0 0 0 0 
0 0 0 0 0 0 0 0 0 0 0 0 0 0 0 0 0 0 0 0 0 0 0 0 
0 0 0 0 0 0 0 0 0 0 0 0 0 0 0 0 0 0 0 0 0 0 0 0 
0 0 0 0 0 0 0 0 0 0 0 0 0 0 0 0 0 0 0 0 0 0 0 0 
0 0 0 0 0 0 
0 0 0 0 0 0 0 0 0 0 0 0 0 0 0 0 0 0 0 0 0 0 0 0 
0 0 0 0 0 0 0 0 0 0 0 0 0 0 0 0 0 0 0 0 0 0 0 0 
0 0 0 0 0 0 0 0 0 0 0 0 0 0 0 0 0 0 0 0 0 0 0 0 
0 0 0 0 0 0 0 0 0 0 0 0 0 0 0 0 0 0 0 0 0 0 0 0 
0 0 0 0 0 0 0 0 0 0 0 0 0 0 0 0 0 0 0 0 0 20 20 20 
79 16 18 230 24 32 255 25 34 255 25 34 178 27 33 50 30 30 30 30 30 31 31 31 
31 31 31 30 30 30 30 30 30 31 31 31 30 30 30 26 26 26 16 16 16 9 9 9 
9 9 9 9 9 9 10 10 10 9 9 10 11 11 11 10 10 11 12 12 12 12 12 12 
12 12 12 13 13 13 13 13 13 14 14 14 15 16 16 15 16 16 17 17 17 18 18 18 
18 18 18 19 19 19 20 21 21 21 21 21 21 22 22 22 23 23 24 24 24 26 26 27 
25 26 26 27 28 28 30 30 30 30 30 31 31 32 32 33 33 34 33 34 34 35 36 36 
38 39 39 39 39 40 40 41 42 42 43 43 45 46 47 46 46 47 48 49 50 49 50 51 
53 53 54 54 55 56 56 58 59 58 60 61 62 63 64 64 65 66 67 68 69 69 70 71 
71 73 74 73 74 76 77 78 79 79 81 83 83 84 85 85 86 88 88 89 91 91 92 94 
95 97 98 98 100 101 102 103 105 104 106 108 109 110 112 112 113 115 117 119 121 119 121 123 
124 126 128 127 129 131 132 133 136 137 139 141 140 142 145 145 147 149 149 151 154 154 156 159 
157 159 162 160 162 165 157 159 162 143 145 147 127 127 128 117 117 118 114 114 115 112 113 113 
108 109 109 107 107 108 104 104 105 101 101 102 108 104 105 189 152 152 254 194 195 255 198 198 
244 196 196 103 85 86 0 0 0 0 0 0 0 0 0 0 0 0 0 0 0 0 0 0 
0 0 0 0 0 0 0 0 0 0 0 0 0 0 0 0 0 0 0 0 0 0 0 0 
0 0 0 0 0 0 0 0 0 0 0 0 0 0 0 0 0 0 0 0 0 0 0 0 
0 0 0 0 0 0 0 0 0 0 0 0 0 0 0 0 0 0 0 0 0 0 0 0 
0 0 0 0 0 0 0 0 0 0 0 0 0 0 0 0 0 0 0 0 0 0 0 0 
0 0 0 0 0 0 
0 0 0 0 0 0 0 0 0 0 0 0 0 0 0 0 0 0 0 0 0 0 0 0 
0 0 0 0 0 0 0 0 0 0 0 0 0 0 0 0 0 0 0 0 0 0 0 0 
0 0 0 0 0 0 0 0 0 0 0 0 0 0 0 0 0 0 0 0 0 0 0 0 
0 0 0 0 0 0 0 0 0 0 0 0 0 0 0 0 0 0 0 0 0 0 0 0 
0 0 0 0 0 0 0 0 0 0 0 0 0 0 0 9 9 9 29 22 22 147 18 23 
255 25 34 255 25 34 230 25 33 98 28 31 29 29 29 29 29 29 29 29 29 30 30 30 
30 30 30 30 30 30 30 30 30 27 27 27 15 15 15 7 7 8 8 8 8 8 8 8 
8 8 8 9 9 9 9 9 9 10 10 10 10 10 10 11 11 11 10 10 10 11 11 11 
12 12 12 12 12 12 13 13 14 13 13 13 14 15 15 16 16 16 16 16 17 17 17 18 
18 18 18 19 19 19 19 20 20 20 20 21 21 22 22 22 23 23 24 25 25 24 25 25 
26 26 27 27 28 29 29 29 29 30 30 31 31 32 32 33 33 34 35 35 35 35 36 37 
38 38 39 38 39 39 41 42 42 43 43 44 45 46 46 47 47 48 48 49 51 51 51 52 
52 53 54 54 56 57 57 58 59 59 60 61 62 63 64 64 65 66 67 68 69 69 70 71 
72 73 74 75 75 77 77 79 80 80 81 83 83 84 86 87 88 89 89 90 92 93 94 96 
95 97 98 99 101 103 102 104 106 106 108 110 109 111 113 114 115 117 117 118 121 122 123 125 
124 126 128 129 131 133 132 134 137 138 140 143 141 143 146 147 149 151 150 152 155 155 158 160 
158 160 163 157 160 163 153 156 158 147 150 153 144 147 149 132 134 136 116 117 118 109 109 110 
107 108 108 105 105 105 102 103 103 99 100 100 98 98 98 96 96 97 130 115 116 229 173 174 
255 194 195 255 198 198 179 144 145 18 15 15 0 0 0 0 0 0 0 0 0 0 0 0 
0 0 0 0 0 0 0 0 0 0 0 0 0 0 0 0 0 0 0 0 0 0 0 0 
0 0 0 0 0 0 0 0 0 0 0 0 0 0 0 0 0 0 0 0 0 0 0 0 
0 0 0 0 0 0 0 0 0 0 0 0 0 0 0 0 0 0 0 0 0 0 0 0 
0 0 0 0 0 0 0 0 0 0 0 0 0 0 0 0 0 0 0 0 0 0 0 0 
0 0 0 0 0 0 
0 0 0 0 0 0 0 0 0 0 0 0 0 0 0 0 0 0 0 0 0 0 0 0 
0 0 0 0 0 0 0 0 0 0 0 0 0 0 0 0 0 0 0 0 0 0 0 0 
0 0 0 0 0 0 0 0 0 0 0 0 0 0 0 0 0 0 0 0 0 0 0 0 
0 0 0 0 0 0 0 0 0 0 0 0 0 0 0 0 0 0 0 0 0 0 0 0 
0 0 0 0 0 0 0 0 0 0 0 0 16 16 16 55 17 19 211 23 30 255 26 35 
255 25 34 176 27 33 44 30 30 30 30 30 28 28 28 29 29 29 30 30 30 31 31 31 
31 31 31 29 29 29 19 19 19 8 8 8 7 7 7 7 7 7 8 8 8 8 8 8 
8 9 9 10 10 10 10 10 10 10 10 10 10 10 10 11 11 11 11 11 11 11 11 11 
12 12 13 13 13 13 13 13 13 14 15 15 14 15 15 16 16 16 16 16 16 18 18 18 
19 19 19 19 20 20 21 21 21 21 21 22 22 22 22 23 23 23 24 24 25 25 25 26 
26 27 27 27 28 28 30 30 31 31 32 32 32 32 33 33 34 34 36 37 37 36 37 37 
39 39 40 40 40 41 42 43 43 43 44 45 45 46 47 47 47 48 49 50 50 51 52 53 
53 54 56 55 57 58 58 59 60 61 62 63 63 64 65 66 67 68 67 68 69 71 72 73 
73 74 76 76 78 79 78 79 81 81 82 83 84 85 87 88 89 91 92 93 94 95 96 97 
96 98 99 102 103 105 104 106 108 108 109 111 111 112 114 115 117 119 119 120 123 124 126 128 
126 128 130 131 132 135 135 137 139 140 142 145 143 145 147 148 150 153 152 155 158 157 159 162 
159 162 165 155 158 161 151 154 157 147 148 151 142 144 146 138 140 143 133 135 137 121 122 124 
109 110 110 104 104 105 101 102 102 99 99 99 96 97 97 93 94 94 91 91 92 94 92 93 
183 143 144 255 189 190 255 193 194 232 181 181 68 55 56 0 0 0 0 0 0 0 0 0 
0 0 0 0 0 0 0 0 0 0 0 0 0 0 0 0 0 0 0 0 0 0 0 0 
0 0 0 0 0 0 0 0 0 0 0 0 0 0 0 0 0 0 0 0 0 0 0 0 
0 0 0 0 0 0 0 0 0 0 0 0 0 0 0 0 0 0 0 0 0 0 0 0 
0 0 0 0 0 0 0 0 0 0 0 0 0 0 0 0 0 0 0 0 0 0 0 0 
0 0 0 0 0 0 
0 0 0 0 0 0 0 0 0 0 0 0 0 0 0 0 0 0 0 0 0 0 0 0 
0 0 0 0 0 0 0 0 0 0 0 0 0 0 0 0 0 0 0 0 0 0 0 0 
0 0 0 0 0 0 0 0 0 0 0 0 0 0 0 0 0 0 0 0 0 0 0 0 
0 0 0 0 0 0 0 0 0 0 0 0 0 0 0 0 0 0 0 0 0 0 0 0 
0 0 0 0 0 0 0 0 0 22 22 22 94 17 20 245 28 36 255 27 36 243 27 36 
111 28 31 28 28 28 29 29 29 28 28 28 28 28 28 29 29 29 30 30 30 30 30 30 
21 21 21 9 9 9 7 7 7 6 6 7 6 6 6 7 7 7 8 8 8 7 7 7 
9 9 9 9 9 9 10 10 10 9 9 9 10 10 10 11 11 11 12 12 12 11 11 11 
13 13 13 13 13 13 13 13 13 15 15 15 15 15 15 15 15 16 16 16 17 17 17 17 
18 18 18 19 19 19 21 21 21 20 21 21 22 22 23 24 24 25 25 26 26 25 26 26 
27 27 28 27 28 29 30 30 31 31 31 32 33 33 34 33 34 34 36 36 37 37 38 39 
39 40 40 41 42 42 42 42 43 45 46 46 47 47 48 49 49 51 50 51 52 52 53 54 
55 56 57 56 57 58 59 60 61 61 62 63 63 65 66 66 67 68 68 69 70 72 73 74 
74 75 77 77 78 79 79 80 82 82 84 85 85 87 88 88 89 91 92 93 95 96 97 99 
98 99 101 102 104 106 105 106 108 109 111 113 112 114 116 116 117 120 120 122 124 125 127 129 
130 132 134 133 135 138 138 139 142 141 143 146 147 149 151 149 151 154 156 158 161 158 160 163 
157 159 162 153 155 158 148 150 153 144 147 149 140 142 145 136 137 140 131 133 136 127 129 131 
122 123 125 109 110 111 100 100 101 97 98 98 95 95 96 92 93 93 90 90 91 88 89 89 
86 87 87 132 112 113 239 174 176 255 189 190 252 191 192 123 97 98 0 0 0 0 0 0 
0 0 0 0 0 0 0 0 0 0 0 0 0 0 0 0 0 0 0 0 0 0 0 0 
0 0 0 0 0 0 0 0 0 0 0 0 0 0 0 0 0 0 0 0 0 0 0 0 
0 0 0 0 0 0 0 0 0 0 0 0 0 0 0 0 0 0 0 0 0 0 0 0 
0 0 0 0 0 0 0 0 0 0 0 0 0 0 0 0 0 0 0 0 0 0 0 0 
0 0 0 0 0 0 
0 0 0 0 0 0 0 0 0 0 0 0 0 0 0 0 0 0 0 0 0 0 0 0 
0 0 0 0 0 0 0 0 0 0 0 0 0 0 0 0 0 0 0 0 0 0 0 0 
0 0 0 0 0 0 0 0 0 0 0 0 0 0 0 0 0 0 0 0 0 0 0 0 
0 0 0 0 0 0 0 0 0 0 0 0 0 0 0 0 0 0 0 0 0 0 0 0 
0 0 0 2 2 2 26 23 23 146 21 26 255 30 38 255 29 38 208 29 35 59 29 30 
29 29 29 30 30 30 30 30 30 30 30 30 29 30 30 30 30 30 27 27 27 12 12 12 
7 7 7 8 8 8 8 8 8 8 8 8 8 8 8 9 9 9 8 8 8 8 9 9 
10 10 10 9 9 9 10 10 10 10 10 10 11 11 12 11 11 11 13 13 13 12 12 13 
13 13 13 13 14 14 14 15 15 15 15 16 16 16 16 17 17 17 18 18 18 18 18 19 
19 20 20 20 20 21 21 22 22 23 23 23 24 24 24 24 24 25 25 26 26 27 28 28 
28 29 29 31 31 32 31 32 32 32 33 33 34 35 35 35 36 36 36 37 37 39 39 40 
41 41 42 42 43 43 44 44 45 46 46 47 48 48 49 50 51 51 51 52 53 53 55 56 
56 57 58 58 59 60 61 62 63 64 65 66 66 67 68 68 69 70 70 72 73 73 74 76 
76 77 78 79 80 82 82 83 84 85 86 88 89 90 92 91 93 94 95 96 97 97 99 100 
102 103 105 104 106 108 109 110 112 112 113 115 116 118 120 119 120 123 123 125 128 128 129 132 
132 133 136 135 137 139 139 142 145 143 146 148 149 150 153 152 155 158 158 160 163 160 162 165 
156 158 161 151 153 156 147 149 152 143 146 148 138 140 143 135 137 139 130 131 134 127 129 131 
121 123 126 118 120 122 111 113 114 99 101 101 95 96 96 92 92 93 90 91 91 87 88 88 
86 87 87 83 84 84 96 90 91 206 153 154 255 184 186 255 188 189 177 136 137 11 8 8 
0 0 0 0 0 0 0 0 0 0 0 0 0 0 0 0 0 0 0 0 0 0 0 0 
0 0 0 0 0 0 0 0 0 0 0 0 0 0 0 0 0 0 0 0 0 0 0 0 
0 0 0 0 0 0 0 0 0 0 0 0 0 0 0 0 0 0 0 0 0 0 0 0 
0 0 0 0 0 0 0 0 0 0 0 0 0 0 0 0 0 0 0 0 0 0 0 0 
0 0 0 0 0 0 
0 0 0 0 0 0 0 0 0 0 0 0 0 0 0 0 0 0 0 0 0 0 0 0 
0 0 0 0 0 0 0 0 0 0 0 0 0 0 0 0 0 0 0 0 0 0 0 0 
0 0 0 0 0 0 0 0 0 0 0 0 0 0 0 0 0 0 0 0 0 0 0 0 
0 0 0 0 0 0 0 0 0 0 0 0 0 0 0 0 0 0 0 0 0 0 0 0 
3 3 3 41 25 25 195 28 34 255 32 41 255 31 40 168 31 36 37 31 31 31 31 31 
31 31 31 32 32 32 31 31 31 32 32 32 31 31 31 22 22 22 10 10 10 8 8 8 
9 9 9 9 9 9 9 9 9 9 9 9 10 10 10 10 10 10 11 11 11 11 11 11 
11 11 11 11 11 12 13 13 13 12 12 13 14 14 14 13 13 14 14 14 14 16 16 16 
15 15 16 16 16 16 17 17 17 18 18 18 18 18 19 19 19 20 20 20 20 21 21 21 
21 21 21 23 23 23 24 24 24 24 24 25 26 26 27 26 27 27 28 29 29 30 30 31 
31 31 32 33 33 34 34 34 35 35 35 36 37 37 38 38 38 39 39 40 40 41 42 43 
43 43 44 45 46 47 46 47 48 49 49 50 50 51 52 53 53 54 55 56 57 56 57 58 
58 59 61 61 62 63 65 66 67 67 68 69 69 70 71 71 72 73 74 75 76 77 78 80 
80 81 82 81 82 85 85 86 88 88 90 91 92 93 95 95 96 98 98 99 101 101 102 104 
105 106 108 108 109 111 112 114 116 115 117 119 119 120 123 122 124 127 128 130 132 130 132 134 
135 137 140 138 140 143 143 146 149 147 149 152 151 154 157 157 159 162 161 163 166 162 164 167 
156 159 162 151 154 157 148 150 152 142 144 147 139 140 143 132 134 137 131 133 135 125 127 129 
123 124 126 118 119 122 115 116 118 110 112 115 102 103 104 93 94 94 92 92 92 89 90 90 
87 87 87 84 85 85 82 83 83 81 81 82 169 128 130 255 180 181 255 184 186 218 163 164 
35 27 27 0 0 0 0 0 0 0 0 0 0 0 0 0 0 0 0 0 0 0 0 0 
0 0 0 0 0 0 0 0 0 0 0 0 0 0 0 0 0 0 0 0 0 0 0 0 
0 0 0 0 0 0 0 0 0 0 0 0 0 0 0 0 0 0 0 0 0 0 0 0 
0 0 0 0 0 0 0 0 0 0 0 0 0 0 0 0 0 0 0 0 0 0 0 0 
0 0 0 0 0 0 
0 0 0 0 0 0 0 0 0 0 0 0 0 0 0 0 0 0 0 0 0 0 0 0 
0 0 0 0 0 0 0 0 0 0 0 0 0 0 0 0 0 0 0 0 0 0 0 0 
0 0 0 0 0 0 0 0 0 0 0 0 0 0 0 0 0 0 0 0 0 0 0 0 
0 0 0 0 0 0 0 0 0 0 0 0 0 0 0 0 0 0 0 0 0 9 9 9 
55 24 25 220 32 38 255 34 43 249 34 42 117 31 34 31 31 31 31 31 31 30 30 30 
30 30 30 31 31 31 30 30 30 28 28 28 13 13 13 8 8 8 7 7 7 8 8 9 
9 9 9 9 9 9 9 9 9 9 9 10 9 9 9 9 9 9 10 11 11 11 11 11 
11 11 11 11 11 11 12 12 12 13 13 13 13 13 13 13 13 13 14 14 15 15 15 15 
16 16 16 15 16 16 17 17 17 17 18 18 18 18 18 19 19 19 19 19 20 20 21 21 
21 21 22 22 23 23 23 23 24 25 25 26 26 26 26 27 27 28 28 28 29 30 30 30 
31 31 31 32 33 33 33 34 34 35 36 36 37 37 37 38 39 39 40 41 42 42 42 43 
43 44 44 46 46 47 48 48 49 49 49 50 51 52 52 53 53 54 55 56 57 57 58 59 
59 60 61 62 63 64 64 65 66 66 67 68 69 70 72 71 72 73 74 75 77 78 79 80 
80 81 83 83 84 86 86 87 89 90 91 92 93 94 96 95 96 98 99 101 102 101 102 104 
105 107 109 108 110 112 112 114 116 116 117 120 121 122 124 123 124 127 128 130 133 134 135 138 
137 139 141 141 144 147 145 148 150 150 152 155 153 155 158 158 160 163 161 163 166 157 159 162 
153 155 158 149 150 153 145 147 149 140 142 145 137 139 141 131 133 136 128 130 132 123 125 128 
120 122 124 115 117 119 112 114 116 108 109 111 106 107 109 100 100 102 90 91 92 87 87 88 
85 85 85 82 83 83 81 82 82 80 80 80 77 78 78 129 105 106 244 170 172 255 180 181 
237 171 172 54 40 40 0 0 0 0 0 0 0 0 0 0 0 0 0 0 0 0 0 0 
0 0 0 0 0 0 0 0 0 0 0 0 0 0 0 0 0 0 0 0 0 0 0 0 
0 0 0 0 0 0 0 0 0 0 0 0 0 0 0 0 0 0 0 0 0 0 0 0 
0 0 0 0 0 0 0 0 0 0 0 0 0 0 0 0 0 0 0 0 0 0 0 0 
0 0 0 0 0 0 
0 0 0 0 0 0 0 0 0 0 0 0 0 0 0 0 0 0 0 0 0 0 0 0 
0 0 0 0 0 0 0 0 0 0 0 0 0 0 0 0 0 0 0 0 0 0 0 0 
0 0 0 0 0 0 0 0 0 0 0 0 0 0 0 0 0 0 0 0 0 0 0 0 
0 0 0 0 0 0 0 0 0 0 0 0 0 0 0 0 0 0 9 9 9 72 22 24 
236 36 44 255 37 45 236 35 43 79 31 33 29 29 29 29 29 29 30 30 30 30 30 30 
30 30 30 30 30 30 21 22 22 8 8 8 7 7 7 7 7 7 7 7 7 8 8 8 
8 8 8 8 8 8 8 8 8 9 9 9 9 9 9 9 9 9 9 9 9 9 9 9 
10 10 11 10 10 10 10 10 11 11 11 11 12 12 13 12 12 12 13 13 13 13 13 14 
15 15 15 15 15 15 16 16 17 16 16 17 17 17 17 18 18 18 19 19 19 20 20 20 
21 22 22 22 22 22 23 23 24 24 24 25 25 26 26 26 27 27 27 28 28 29 29 30 
31 31 32 32 32 33 34 34 35 34 35 35 37 37 38 38 39 39 40 41 41 41 41 42 
43 43 44 44 45 46 46 47 48 48 49 50 51 51 53 53 54 55 55 56 57 57 58 59 
60 61 62 61 63 64 65 66 67 66 68 69 69 70 71 71 72 74 75 75 77 78 79 80 
80 81 83 83 84 85 86 88 89 89 90 92 93 95 96 96 97 99 99 100 102 104 105 107 
106 108 110 110 112 114 113 115 117 118 119 122 121 123 125 125 127 129 128 130 132 133 135 138 
136 138 141 142 144 147 146 148 150 150 152 155 155 157 160 159 162 165 160 162 165 155 157 160 
151 153 156 146 148 150 142 144 146 137 138 141 133 135 137 129 131 133 126 127 130 121 122 124 
118 119 121 114 115 117 110 111 113 106 108 110 101 103 104 98 99 101 95 96 98 88 88 90 
84 84 84 81 81 82 79 79 79 78 78 78 75 76 76 74 75 75 99 86 88 230 158 160 
255 175 177 248 176 177 85 62 63 0 0 0 0 0 0 0 0 0 0 0 0 0 0 0 
0 0 0 0 0 0 0 0 0 0 0 0 0 0 0 0 0 0 0 0 0 0 0 0 
0 0 0 0 0 0 0 0 0 0 0 0 0 0 0 0 0 0 0 0 0 0 0 0 
0 0 0 0 0 0 0 0 0 0 0 0 0 0 0 0 0 0 0 0 0 0 0 0 
0 0 0 0 0 0 
0 0 0 0 0 0 0 0 0 0 0 0 0 0 0 0 0 0 0 0 0 0 0 0 
0 0 0 0 0 0 0 0 0 0 0 0 0 0 0 0 0 0 0 0 0 0 0 0 
0 0 0 0 0 0 0 0 0 0 0 0 0 0 0 0 0 0 0 0 0 0 0 0 
0 0 0 0 0 0 0 0 0 0 0 0 0 0 0 12 12 12 93 25 28 248 41 48 
255 40 48 221 38 44 59 31 32 30 30 30 30 30 30 30 30 30 30 30 30 30 30 30 
29 29 29 16 16 16 7 7 7 7 7 7 7 7 7 7 7 7 7 7 8 8 8 8 
8 8 8 7 7 8 8 8 9 9 9 9 9 9 9 9 10 10 10 10 10 10 10 10 
11 11 11 11 11 11 11 11 11 12 12 12 13 13 13 13 13 14 14 14 14 14 14 14 
15 16 16 16 16 16 17 17 17 17 17 17 19 19 19 19 19 20 20 21 21 20 20 21 
21 22 22 23 23 24 24 24 24 25 25 25 27 27 28 28 28 29 29 29 29 30 30 30 
31 32 32 33 34 34 34 35 35 36 36 36 37 38 38 39 39 40 41 41 42 41 42 42 
45 45 46 45 46 47 48 49 50 50 51 52 52 52 54 54 55 56 57 58 59 59 60 61 
61 62 63 63 64 65 66 67 68 69 70 71 70 71 72 73 75 77 76 77 79 80 81 83 
82 83 85 85 86 88 88 89 90 92 93 94 94 95 98 97 99 101 100 101 103 104 106 108 
108 110 112 112 113 115 115 116 118 120 121 123 123 124 127 127 128 131 130 133 135 135 138 140 
139 140 143 144 146 148 148 150 152 153 155 158 156 158 161 160 163 166 158 160 163 153 155 158 
148 150 153 144 146 148 138 140 143 135 137 139 131 133 136 127 129 131 123 125 127 119 121 123 
114 116 118 112 114 116 108 109 111 105 106 108 101 102 104 98 99 101 94 95 96 92 93 95 
86 88 89 82 82 82 80 80 80 77 77 78 74 75 75 73 74 74 72 72 72 86 79 79 
213 145 146 255 172 174 254 174 176 110 79 80 0 0 0 0 0 0 0 0 0 0 0 0 
0 0 0 0 0 0 0 0 0 0 0 0 0 0 0 0 0 0 0 0 0 0 0 0 
0 0 0 0 0 0 0 0 0 0 0 0 0 0 0 0 0 0 0 0 0 0 0 0 
0 0 0 0 0 0 0 0 0 0 0 0 0 0 0 0 0 0 0 0 0 0 0 0 
0 0 0 0 0 0 
0 0 0 0 0 0 0 0 0 0 0 0 0 0 0 0 0 0 0 0 0 0 0 0 
0 0 0 0 0 0 0 0 0 0 0 0 0 0 0 0 0 0 0 0 0 0 0 0 
0 0 0 0 0 0 0 0 0 0 0 0 0 0 0 0 0 0 0 0 0 0 0 0 
0 0 0 0 0 0 0 0 0 0 0 0 17 17 17 101 26 28 253 43 51 255 43 50 
201 40 46 47 33 33 32 32 32 33 33 33 32 32 32 33 33 33 32 32 32 30 30 30 
14 14 14 8 8 8 9 9 9 9 9 9 9 9 9 8 8 8 9 9 9 10 10 10 
9 9 10 9 9 9 12 12 12 11 11 11 11 11 11 12 12 12 12 12 12 12 13 13 
13 13 13 13 13 14 14 14 14 14 14 15 15 15 15 16 16 16 16 16 17 17 17 17 
18 18 18 17 18 18 18 18 19 20 20 20 21 21 21 22 22 22 22 22 22 24 24 24 
25 25 25 25 25 25 27 27 28 28 28 29 29 30 30 29 30 30 31 32 32 31 31 32 
34 34 35 35 35 36 38 38 39 39 40 40 39 40 41 41 42 43 44 44 45 46 46 47 
46 47 48 49 50 51 51 52 53 53 54 55 56 56 57 57 58 59 59 60 61 62 63 65 
65 66 67 67 68 69 68 69 71 71 72 74 74 75 77 77 77 79 79 80 81 82 83 85 
85 86 88 89 91 92 91 92 94 95 96 98 97 98 100 102 103 105 105 106 108 108 109 111 
111 112 114 115 117 119 118 120 123 123 125 127 125 127 130 129 131 133 135 137 140 139 141 144 
144 146 149 147 150 152 152 155 158 156 158 161 161 163 166 162 164 167 156 158 161 153 155 158 
148 150 152 144 146 148 139 140 143 135 138 140 131 133 135 128 129 132 123 124 126 120 121 123 
115 117 119 113 114 116 108 110 112 105 107 109 101 102 104 99 101 102 95 96 98 92 93 94 
88 89 91 85 86 88 80 81 81 77 78 78 76 76 77 74 74 74 72 73 73 71 71 71 
76 72 72 193 133 135 255 167 169 255 170 172 126 88 89 0 0 0 0 0 0 0 0 0 
0 0 0 0 0 0 0 0 0 0 0 0 0 0 0 0 0 0 0 0 0 0 0 0 
0 0 0 0 0 0 0 0 0 0 0 0 0 0 0 0 0 0 0 0 0 0 0 0 
0 0 0 0 0 0 0 0 0 0 0 0 0 0 0 0 0 0 0 0 0 0 0 0 
0 0 0 0 0 0 
0 0 0 0 0 0 0 0 0 0 0 0 0 0 0 0 0 0 0 0 0 0 0 0 
0 0 0 0 0 0 0 0 0 0 0 0 0 0 0 0 0 0 0 0 0 0 0 0 
0 0 0 0 0 0 0 0 0 0 0 0 0 0 0 0 0 0 0 0 0 0 0 0 
0 0 0 0 0 0 0 0 0 16 16 16 111 26 29 253 47 54 255 45 53 187 40 45 
34 29 30 28 28 28 28 28 28 28 28 28 28 28 28 28 28 28 22 22 22 7 7 7 
6 6 6 5 5 5 6 6 6 5 5 5 6 6 6 5 5 6 6 6 6 7 7 7 
7 7 7 6 6 7 7 7 7 8 8 8 7 8 8 9 9 9 9 9 9 9 9 9 
9 9 9 11 11 11 10 10 10 11 11 11 11 11 12 12 12 12 13 13 13 14 14 14 
14 14 14 16 16 16 17 17 17 16 16 17 17 17 18 19 19 19 19 19 20 21 21 21 
21 21 22 23 23 23 24 24 24 25 25 26 26 26 27 28 28 28 29 29 29 30 31 31 
31 32 32 33 34 34 35 35 35 36 37 37 37 37 38 39 39 40 40 41 42 43 43 44 
44 45 45 47 47 48 48 49 50 51 51 52 52 53 54 55 56 57 57 58 59 60 61 62 
62 63 64 64 65 66 67 68 69 69 70 72 71 72 73 75 76 77 77 78 80 81 82 83 
82 83 84 87 88 89 91 93 94 93 94 96 97 99 100 99 100 102 103 105 107 106 108 110 
111 112 114 113 115 117 118 119 121 122 123 125 126 127 130 129 131 133 133 135 138 138 139 142 
143 145 147 147 149 151 151 153 156 155 157 160 159 161 164 158 160 163 151 153 156 147 150 152 
143 145 147 139 141 144 134 136 138 130 132 135 125 127 129 123 125 127 118 120 123 115 116 119 
110 112 114 107 109 111 104 105 107 100 101 103 97 98 100 93 94 96 90 91 93 86 88 90 
84 85 87 81 82 83 78 79 81 74 75 75 73 73 73 70 71 71 69 69 70 67 68 68 
66 66 66 65 64 64 176 120 122 255 163 165 255 167 169 138 94 95 0 0 0 0 0 0 
0 0 0 0 0 0 0 0 0 0 0 0 0 0 0 0 0 0 0 0 0 0 0 0 
0 0 0 0 0 0 0 0 0 0 0 0 0 0 0 0 0 0 0 0 0 0 0 0 
0 0 0 0 0 0 0 0 0 0 0 0 0 0 0 0 0 0 0 0 0 0 0 0 
0 0 0 0 0 0 
0 0 0 0 0 0 0 0 0 0 0 0 0 0 0 0 0 0 0 0 0 0 0 0 
0 0 0 0 0 0 0 0 0 0 0 0 0 0 0 0 0 0 0 0 0 0 0 0 
0 0 0 0 0 0 0 0 0 0 0 0 0 0 0 0 0 0 0 0 0 0 0 0 
0 0 0 0 0 0 16 16 16 113 28 31 255 50 57 255 49 56 175 40 45 32 28 28 
29 29 29 29 29 29 29 29 29 29 29 29 29 29 29 20 20 20 7 7 7 6 6 6 
6 6 6 6 6 6 6 6 6 5 5 5 6 6 6 7 7 7 7 7 7 7 7 7 
7 7 7 8 8 8 8 8 8 8 8 8 9 9 9 9 9 9 9 9 10 10 10 10 
10 10 11 11 11 11 11 11 12 12 12 12 13 13 13 13 14 14 14 14 14 15 15 15 
14 14 15 16 16 16 16 16 16 18 18 18 18 19 19 19 19 19 20 20 20 21 21 21 
22 22 22 24 24 25 24 24 25 26 27 27 26 27 27 28 29 29 29 29 30 31 32 32 
32 32 33 34 34 35 35 36 36 37 38 38 38 39 39 41 41 42 42 43 43 44 45 46 
46 46 47 47 48 49 49 50 50 52 52 53 53 54 55 56 57 58 59 60 61 61 62 63 
63 65 66 65 66 68 68 69 71 70 71 72 74 74 76 77 78 79 80 81 83 82 83 85 
85 87 88 88 90 91 92 93 95 95 96 97 98 99 101 102 103 105 106 107 109 108 110 112 
112 114 116 115 117 119 120 122 124 123 125 127 129 131 133 133 134 137 136 138 140 139 142 145 
145 147 149 149 150 153 153 155 158 156 159 162 159 162 165 156 158 161 150 152 155 145 148 150 
141 144 146 136 138 141 133 135 137 129 131 133 126 127 130 121 122 124 117 118 121 113 114 116 
110 111 113 105 107 109 102 104 106 98 100 102 95 96 98 92 93 95 90 92 93 86 87 89 
83 84 86 81 82 83 77 79 81 74 75 76 72 72 73 69 69 70 69 69 69 66 67 67 
65 66 66 65 65 65 63 62 62 166 112 113 255 160 162 255 163 165 142 95 96 0 0 0 
0 0 0 0 0 0 0 0 0 0 0 0 0 0 0 0 0 0 0 0 0 0 0 0 
0 0 0 0 0 0 0 0 0 0 0 0 0 0 0 0 0 0 0 0 0 0 0 0 
0 0 0 0 0 0 0 0 0 0 0 0 0 0 0 0 0 0 0 0 0 0 0 0 
0 0 0 0 0 0 
0 0 0 0 0 0 0 0 0 0 0 0 0 0 0 0 0 0 0 0 0 0 0 0 
0 0 0 0 0 0 0 0 0 0 0 0 0 0 0 0 0 0 0 0 0 0 0 0 
0 0 0 0 0 0 0 0 0 0 0 0 0 0 0 0 0 0 0 0 0 0 0 0 
0 0 0 16 16 16 109 28 31 255 53 60 255 52 59 166 42 46 32 29 29 28 28 28 
29 29 29 29 29 29 29 29 29 29 29 29 16 16 16 5 5 5 5 5 5 6 6 6 
6 6 6 5 5 5 4 4 4 6 6 6 6 6 7 6 6 6 6 6 6 7 7 7 
7 7 8 7 7 7 7 7 7 7 8 8 9 9 9 8 8 8 9 9 9 10 10 10 
11 11 11 11 11 11 11 11 11 12 12 13 12 12 12 12 12 12 13 13 13 15 15 15 
15 15 15 16 16 16 16 16 17 17 17 18 18 19 19 19 19 20 20 20 20 21 21 22 
23 23 24 24 24 24 24 25 25 26 26 27 27 27 28 29 30 30 29 30 30 31 32 32 
33 33 34 34 35 35 36 36 37 38 38 39 39 39 40 41 42 42 43 43 44 44 45 45 
47 47 48 48 49 50 52 52 53 51 52 53 55 56 57 57 58 59 60 61 62 61 62 63 
64 65 66 67 68 69 69 70 71 72 73 74 75 76 77 77 79 80 80 82 83 83 84 85 
86 87 89 88 89 91 92 94 96 96 97 99 99 101 103 102 103 105 105 107 109 109 111 113 
114 115 117 117 118 121 121 122 125 124 126 128 129 131 133 133 135 137 138 139 142 143 145 147 
146 148 150 151 153 156 155 158 160 160 162 165 157 159 162 151 153 156 147 150 152 143 145 147 
138 140 143 134 137 139 130 132 135 126 128 130 123 125 127 118 120 122 116 117 120 111 113 115 
108 110 112 103 105 107 101 102 104 97 98 100 94 95 97 90 91 93 87 89 91 84 86 87 
81 82 83 78 79 81 76 77 79 73 73 75 71 72 73 68 69 70 67 67 67 66 66 66 
63 63 63 62 63 63 60 61 61 59 59 60 157 106 107 255 155 158 255 158 161 138 90 92 
0 0 0 0 0 0 0 0 0 0 0 0 0 0 0 0 0 0 0 0 0 0 0 0 
0 0 0 0 0 0 0 0 0 0 0 0 0 0 0 0 0 0 0 0 0 0 0 0 
0 0 0 0 0 0 0 0 0 0 0 0 0 0 0 0 0 0 0 0 0 0 0 0 
0 0 0 0 0 0 
0 0 0 0 0 0 0 0 0 0 0 0 0 0 0 0 0 0 0 0 0 0 0 0 
0 0 0 0 0 0 0 0 0 0 0 0 0 0 0 0 0 0 0 0 0 0 0 0 
0 0 0 0 0 0 0 0 0 0 0 0 0 0 0 0 0 0 0 0 0 0 0 0 
9 9 9 99 28 31 253 56 63 255 55 62 167 44 49 31 30 30 29 29 29 28 28 28 
29 29 29 29 29 29 29 29 29 14 14 14 4 4 4 5 5 5 6 6 6 6 6 6 
6 6 6 6 6 6 6 6 6 6 6 6 7 7 7 6 6 6 7 7 7 7 7 7 
7 7 7 8 8 8 8 8 8 9 9 9 10 10 10 9 9 10 9 10 10 10 10 11 
10 10 10 11 11 12 12 12 12 12 12 12 12 13 12 14 14 14 14 15 15 15 15 16 
16 16 17 17 17 17 17 17 17 18 18 18 19 20 20 20 20 20 21 22 22 22 22 22 
23 23 24 24 24 25 25 26 26 26 27 27 29 29 30 29 29 30 31 31 32 32 32 33 
34 34 35 35 36 36 37 38 38 38 38 39 41 41 42 42 43 43 44 45 46 45 46 47 
47 48 49 49 50 50 53 53 54 53 54 55 56 57 58 58 59 60 62 63 64 63 64 65 
66 67 68 68 69 70 71 72 73 73 74 76 77 78 79 78 79 81 82 84 85 85 86 88 
88 89 91 91 93 95 94 96 97 99 100 102 102 103 105 105 106 108 107 108 110 112 114 116 
115 117 119 120 122 124 123 125 127 127 129 131 132 133 136 135 138 140 139 141 144 144 147 149 
149 151 154 153 156 159 157 159 162 159 162 165 156 158 161 150 152 155 147 148 151 141 143 145 
137 139 142 133 135 137 130 131 134 125 126 129 121 123 125 117 118 120 114 116 118 109 110 112 
107 108 110 102 104 106 99 101 103 96 98 99 92 93 95 90 91 92 86 87 88 83 84 86 
80 81 82 78 79 81 74 75 77 72 73 75 68 70 71 67 69 70 65 66 67 66 66 66 
64 64 65 63 63 63 61 61 61 59 59 59 58 58 58 156 102 104 255 151 154 255 155 158 
125 80 81 0 0 0 0 0 0 0 0 0 0 0 0 0 0 0 0 0 0 0 0 0 
0 0 0 0 0 0 0 0 0 0 0 0 0 0 0 0 0 0 0 0 0 0 0 0 
0 0 0 0 0 0 0 0 0 0 0 0 0 0 0 0 0 0 0 0 0 0 0 0 
0 0 0 0 0 0 
0 0 0 0 0 0 0 0 0 0 0 0 0 0 0 0 0 0 0 0 0 0 0 0 
0 0 0 0 0 0 0 0 0 0 0 0 0 0 0 0 0 0 0 0 0 0 0 0 
0 0 0 0 0 0 0 0 0 0 0 0 0 0 0 0 0 0 0 0 0 9 9 9 
91 32 34 253 60 66 255 59 65 176 48 52 33 30 30 31 31 31 30 30 30 31 31 31 
30 30 30 30 30 30 14 14 14 7 7 7 6 6 6 8 8 8 7 7 7 7 7 8 
8 8 8 8 8 8 7 7 7 8 8 9 8 8 8 8 8 8 9 9 9 8 8 9 
8 8 8 9 9 9 9 9 9 11 11 11 11 11 11 11 11 11 12 12 12 13 13 13 
12 12 12 14 14 14 13 13 13 14 14 14 15 15 15 15 15 15 16 16 16 18 18 18 
19 19 19 18 18 19 19 19 20 21 21 21 21 21 22 22 22 22 23 23 24 24 24 25 
26 26 26 26 27 27 28 28 29 28 29 30 30 31 31 32 32 33 33 34 34 34 35 35 
36 36 37 38 38 39 40 40 41 41 42 42 42 44 44 45 45 46 47 48 48 48 48 49 
50 51 52 52 52 53 54 56 57 56 57 59 59 60 61 61 62 63 64 65 66 66 67 68 
68 69 70 72 73 74 74 75 76 77 78 80 79 80 81 83 84 86 85 86 88 89 90 91 
91 92 94 95 96 98 97 98 101 102 103 105 104 106 108 108 110 112 111 113 115 115 117 119 
118 119 122 123 124 126 127 129 131 131 133 135 134 136 139 139 140 143 142 144 147 148 150 152 
152 154 157 157 159 162 161 163 166 159 161 164 155 157 160 149 151 154 144 147 149 140 142 145 
136 138 141 132 134 137 128 130 132 125 127 129 119 121 123 117 118 121 112 114 116 109 111 113 
105 106 108 103 104 106 100 101 103 95 96 98 92 94 96 89 90 92 86 88 89 84 85 86 
80 81 83 77 78 80 74 75 76 71 73 74 69 70 71 67 69 70 65 66 67 64 65 65 
64 65 65 62 62 62 62 62 62 61 61 61 58 59 59 58 58 58 164 104 106 255 148 151 
255 151 154 109 68 69 0 0 0 0 0 0 0 0 0 0 0 0 0 0 0 0 0 0 
0 0 0 0 0 0 0 0 0 0 0 0 0 0 0 0 0 0 0 0 0 0 0 0 
0 0 0 0 0 0 0 0 0 0 0 0 0 0 0 0 0 0 0 0 0 0 0 0 
0 0 0 0 0 0 
0 0 0 0 0 0 0 0 0 0 0 0 0 0 0 0 0 0 0 0 0 0 0 0 
0 0 0 0 0 0 0 0 0 0 0 0 0 0 0 0 0 0 0 0 0 0 0 0 
0 0 0 0 0 0 0 0 0 0 0 0 0 0 0 0 0 0 6 6 6 70 27 29 
247 62 68 255 62 68 187 52 56 34 30 30 30 30 30 29 29 29 29 29 29 29 29 29 
29 29 29 12 12 12 6 6 6 6 6 6 6 6 6 6 6 6 6 6 6 6 6 6 
6 6 6 7 7 7 7 7 7 7 7 7 7 7 7 7 7 7 7 7 7 8 8 8 
8 8 8 8 8 8 9 9 9 9 9 9 9 9 10 11 11 11 10 10 11 11 11 11 
11 11 12 13 13 13 14 14 14 14 14 14 15 15 15 15 16 16 15 15 16 17 17 17 
17 17 17 18 18 18 19 19 19 19 20 20 21 21 21 21 22 22 23 23 23 23 24 24 
25 25 26 26 26 27 27 27 28 28 28 28 30 30 31 31 32 32 33 33 34 34 35 35 
36 37 37 36 38 38 39 40 40 41 42 42 42 43 43 45 46 47 46 46 47 48 49 50 
50 51 51 53 53 54 53 54 55 56 57 58 59 60 61 61 62 63 63 64 65 66 67 68 
69 70 71 71 72 73 73 74 76 77 78 79 78 80 81 83 84 85 85 86 88 88 90 92 
92 93 94 96 97 98 97 99 101 102 103 105 104 106 108 109 110 112 112 113 115 116 118 120 
119 121 123 124 126 127 127 127 130 131 132 135 135 138 140 139 141 144 144 147 149 148 149 152 
153 155 158 157 159 162 159 161 164 155 158 161 149 151 154 146 147 150 140 143 145 137 139 142 
132 134 136 129 130 133 126 127 129 122 124 126 117 119 121 114 117 119 110 111 113 107 108 110 
102 104 106 100 101 103 96 98 99 94 95 96 90 91 93 88 89 91 84 85 87 81 82 83 
78 79 81 75 76 78 72 73 75 69 70 71 67 68 69 65 66 67 62 63 64 60 61 62 
59 60 61 60 61 62 60 60 61 59 59 59 57 58 58 56 56 56 56 55 55 173 106 108 
255 144 148 253 146 149 82 49 50 0 0 0 0 0 0 0 0 0 0 0 0 0 0 0 
0 0 0 0 0 0 0 0 0 0 0 0 0 0 0 0 0 0 0 0 0 0 0 0 
0 0 0 0 0 0 0 0 0 0 0 0 0 0 0 0 0 0 0 0 0 0 0 0 
0 0 0 0 0 0 
0 0 0 0 0 0 0 0 0 0 0 0 0 0 0 0 0 0 0 0 0 0 0 0 
0 0 0 0 0 0 0 0 0 0 0 0 0 0 0 0 0 0 0 0 0 0 0 0 
0 0 0 0 0 0 0 0 0 0 0 0 0 0 0 3 3 3 54 29 30 235 63 68 
255 66 72 202 56 62 37 32 32 30 30 30 31 31 31 31 31 31 31 31 31 30 30 30 
13 13 13 8 8 8 7 7 7 7 7 7 9 9 9 8 8 8 7 7 7 8 8 8 
8 8 8 8 8 8 7 7 8 9 9 9 9 9 9 9 9 9 9 9 10 10 10 10 
10 10 10 10 10 10 11 11 11 11 11 11 12 12 12 11 11 11 13 13 13 13 13 13 
13 13 13 14 15 15 15 15 15 15 15 16 16 16 16 16 16 16 17 17 17 18 18 19 
18 18 19 19 19 19 20 21 21 21 21 21 22 22 22 24 24 24 24 24 25 26 26 26 
26 27 27 28 28 29 29 29 30 31 31 32 32 32 33 33 34 34 34 35 36 36 36 36 
38 39 40 40 40 41 41 42 42 43 44 44 45 45 46 47 48 49 49 49 50 50 51 53 
52 53 54 55 56 57 57 58 59 58 59 61 61 62 63 64 65 66 66 67 68 68 69 70 
71 72 73 73 75 76 77 77 79 79 80 82 81 82 84 84 85 87 87 89 91 91 92 94 
96 97 99 99 100 102 102 103 105 103 104 107 107 109 111 110 112 114 115 116 119 118 119 122 
123 124 126 126 127 129 129 131 133 132 134 137 138 140 143 141 143 146 147 149 151 150 152 155 
156 158 161 158 160 163 157 159 162 154 156 159 148 150 153 144 146 148 139 141 144 137 138 141 
131 133 136 128 130 133 124 126 128 121 122 124 116 118 121 113 114 116 109 111 113 106 108 110 
102 103 105 99 100 102 95 96 98 91 92 95 88 90 92 86 88 89 82 83 84 79 80 82 
77 78 79 74 74 76 71 72 73 68 69 70 67 68 69 65 66 67 63 64 65 60 61 62 
59 60 61 57 57 59 60 60 60 60 60 60 58 58 59 57 57 58 55 55 56 55 55 55 
188 109 112 255 140 144 248 141 145 53 31 31 0 0 0 0 0 0 0 0 0 0 0 0 
0 0 0 0 0 0 0 0 0 0 0 0 0 0 0 0 0 0 0 0 0 0 0 0 
0 0 0 0 0 0 0 0 0 0 0 0 0 0 0 0 0 0 0 0 0 0 0 0 
0 0 0 0 0 0 
0 0 0 0 0 0 0 0 0 0 0 0 0 0 0 0 0 0 0 0 0 0 0 0 
0 0 0 0 0 0 0 0 0 0 0 0 0 0 0 0 0 0 0 0 0 0 0 0 
0 0 0 0 0 0 0 0 0 0 0 0 2 2 2 38 25 26 217 62 66 255 69 75 
221 62 67 47 33 33 30 30 30 30 30 30 30 30 30 30 30 30 30 30 30 12 12 12 
7 7 7 6 6 6 6 6 6 6 6 6 7 7 7 7 7 7 7 7 7 8 8 8 
7 7 7 6 6 6 8 8 8 8 8 8 8 8 8 8 8 8 9 9 9 9 9 9 
10 10 10 9 10 10 10 10 10 10 10 10 10 10 10 11 11 11 11 11 11 12 12 12 
13 13 13 12 13 13 14 14 14 14 14 14 15 15 15 15 15 15 16 16 16 17 17 17 
17 17 17 18 18 18 19 20 20 21 21 21 21 21 22 23 23 23 24 24 24 24 24 25 
26 26 27 27 28 28 28 28 28 29 29 30 30 31 31 32 32 33 33 34 34 35 36 36 
36 38 38 38 38 39 40 40 41 42 43 44 44 44 45 47 47 48 49 49 50 51 52 53 
53 53 54 54 55 57 56 57 59 60 61 62 62 63 65 64 65 66 67 68 69 69 70 72 
71 73 74 74 75 77 78 79 80 79 80 82 83 84 86 86 87 89 90 91 93 92 93 94 
96 97 99 96 98 100 102 103 105 104 105 107 107 108 110 109 111 113 113 115 117 117 118 120 
121 123 125 124 125 128 129 130 133 131 134 136 137 139 141 139 142 144 145 146 149 148 150 153 
153 155 158 156 159 162 152 154 157 148 150 153 143 144 147 139 140 142 134 136 139 130 132 134 
127 128 131 122 123 126 118 120 122 115 116 118 112 113 115 108 109 111 105 106 108 101 103 105 
98 100 102 93 95 96 91 93 94 87 88 89 84 85 87 82 83 85 80 81 82 77 78 80 
74 75 77 71 72 74 69 70 71 67 68 69 65 67 68 62 63 64 60 61 62 58 59 60 
56 57 58 53 54 55 54 54 54 57 58 58 57 57 57 55 55 56 55 55 55 53 54 54 
58 55 56 209 115 117 255 137 141 236 132 135 34 20 20 0 0 0 0 0 0 0 0 0 
0 0 0 0 0 0 0 0 0 0 0 0 0 0 0 0 0 0 0 0 0 0 0 0 
0 0 0 0 0 0 0 0 0 0 0 0 0 0 0 0 0 0 0 0 0 0 0 0 
0 0 0 0 0 0 
0 0 0 0 0 0 0 0 0 0 0 0 0 0 0 0 0 0 0 0 0 0 0 0 
0 0 0 0 0 0 0 0 0 0 0 0 0 0 0 0 0 0 0 0 0 0 0 0 
0 0 0 0 0 0 0 0 0 0 0 0 26 24 24 191 58 62 255 73 79 237 69 74 
61 36 36 30 30 30 29 29 29 30 30 30 30 30 30 30 30 30 13 13 13 6 6 6 
6 6 6 6 6 6 6 6 6 7 7 7 7 7 7 7 7 7 7 7 7 7 7 7 
6 6 6 7 7 7 8 8 8 7 7 7 8 8 8 8 8 8 9 9 9 9 9 9 
9 9 9 9 9 9 9 9 9 10 10 10 9 9 9 11 11 11 11 11 11 12 12 12 
12 12 12 13 13 13 14 14 14 14 14 14 14 14 14 16 16 16 16 16 17 16 16 17 
17 17 18 19 19 19 19 19 19 21 21 21 21 21 21 23 23 24 23 23 23 24 25 25 
25 26 26 27 27 28 28 28 29 29 29 30 30 30 31 31 32 32 33 33 34 35 35 36 
37 37 38 38 39 39 40 41 42 42 42 43 45 46 46 46 47 48 49 50 51 51 51 53 
53 54 55 55 57 58 58 59 60 60 61 62 63 65 66 65 66 67 68 69 70 69 70 72 
72 73 74 75 76 78 78 79 80 80 81 83 84 85 86 86 88 89 90 91 93 91 92 94 
96 97 99 98 99 101 101 102 104 103 104 106 106 108 110 108 110 112 111 113 115 115 117 119 
118 120 122 123 125 128 126 128 131 132 132 135 134 136 139 139 141 144 143 145 147 148 150 153 
150 153 156 149 152 155 146 148 151 141 143 146 138 140 143 132 134 137 130 131 133 125 127 130 
122 124 126 117 119 121 114 115 117 110 112 113 107 109 111 103 104 107 100 102 104 97 98 99 
94 95 97 90 92 94 88 89 91 83 85 87 81 83 84 78 79 80 77 77 78 73 74 76 
71 72 73 69 70 71 66 67 68 65 66 67 62 63 64 61 62 62 58 59 60 55 56 57 
54 55 56 53 54 55 50 50 51 51 52 53 56 56 56 54 54 54 53 54 54 52 52 52 
51 51 51 66 57 57 226 119 123 255 134 137 217 118 122 11 6 6 0 0 0 0 0 0 
0 0 0 0 0 0 0 0 0 0 0 0 0 0 0 0 0 0 0 0 0 0 0 0 
0 0 0 0 0 0 0 0 0 0 0 0 0 0 0 0 0 0 0 0 0 0 0 0 
0 0 0 0 0 0 
0 0 0 0 0 0 0 0 0 0 0 0 0 0 0 0 0 0 0 0 0 0 0 0 
0 0 0 0 0 0 0 0 0 0 0 0 0 0 0 0 0 0 0 0 0 0 0 0 
0 0 0 0 0 0 0 0 0 22 22 22 140 47 49 255 77 82 251 75 80 83 41 42 
31 31 31 31 31 31 31 31 31 32 32 32 31 31 31 16 16 16 7 7 7 7 7 7 
7 7 7 7 7 7 7 7 7 9 9 9 8 8 8 8 8 8 8 8 8 8 8 8 
8 8 8 9 9 9 9 9 9 8 8 8 8 8 8 9 9 9 9 9 9 9 9 9 
9 10 9 9 9 9 10 10 10 11 11 11 11 11 11 11 11 12 12 12 12 13 13 13 
13 13 14 14 14 14 15 15 15 15 16 16 15 15 15 16 16 16 16 16 16 17 18 18 
17 17 18 18 19 19 20 20 21 21 22 22 21 21 22 23 24 24 24 24 24 24 24 25 
25 26 26 27 27 27 27 28 29 29 30 30 31 31 32 32 33 33 34 35 35 35 36 36 
38 38 39 39 39 40 41 42 42 44 45 46 45 46 47 48 49 50 51 52 52 52 52 53 
55 56 57 58 59 60 61 62 63 62 63 64 65 66 67 66 67 69 70 71 72 72 73 74 
74 75 77 78 79 80 80 81 83 83 84 85 87 88 90 89 90 91 92 93 94 96 97 98 
97 99 100 101 102 104 102 104 106 104 105 107 106 107 110 108 110 112 111 113 115 114 116 118 
117 118 121 122 123 126 123 125 128 128 130 133 132 134 136 137 138 141 140 141 144 144 146 149 
147 149 151 142 144 147 139 141 143 135 136 139 131 133 135 126 128 130 123 125 128 120 121 123 
116 118 120 111 113 115 109 111 112 105 107 109 103 104 106 99 100 102 96 97 99 92 93 95 
89 90 91 86 87 88 84 85 86 81 82 84 77 78 80 76 76 78 73 74 76 71 72 72 
68 69 71 66 67 67 64 65 66 63 64 66 61 62 63 60 61 61 58 58 60 57 58 59 
54 55 56 53 53 54 51 51 52 49 50 51 49 49 51 56 56 56 54 54 54 53 53 53 
52 52 52 50 50 50 81 61 62 242 122 126 255 130 134 174 96 97 0 0 0 0 0 0 
0 0 0 0 0 0 0 0 0 0 0 0 0 0 0 0 0 0 0 0 0 0 0 0 
0 0 0 0 0 0 0 0 0 0 0 0 0 0 0 0 0 0 0 0 0 0 0 0 
0 0 0 0 0 0 
0 0 0 0 0 0 0 0 0 0 0 0 0 0 0 0 0 0 0 0 0 0 0 0 
0 0 0 0 0 0 0 0 0 0 0 0 0 0 0 0 0 0 0 0 0 0 0 0 
0 0 0 0 0 0 14 14 14 89 33 35 255 81 86 255 80 85 122 49 51 29 29 29 
29 29 29 29 29 29 29 29 29 29 29 29 17 17 17 6 6 6 5 5 5 5 5 5 
5 5 5 5 5 5 5 5 5 6 6 6 6 6 6 6 6 6 6 6 6 6 6 6 
5 5 5 7 7 7 6 6 6 6 6 6 6 6 6 7 7 7 7 7 7 7 7 7 
8 8 8 8 8 8 7 7 8 9 9 9 9 9 10 9 9 10 10 10 10 10 10 10 
11 11 11 11 11 12 12 12 12 13 13 13 14 14 14 14 14 14 14 14 14 16 16 16 
15 15 15 17 17 17 17 18 18 19 19 20 20 20 21 20 20 21 21 21 21 21 22 22 
24 24 25 24 25 25 26 26 27 27 27 27 28 28 29 29 29 30 31 31 32 33 34 34 
35 36 36 37 37 38 39 40 41 40 41 42 44 44 45 46 47 48 49 49 50 51 51 52 
54 55 56 57 58 59 59 60 61 62 63 64 64 65 66 66 68 69 68 69 71 71 73 74 
75 75 77 77 78 79 80 81 83 83 84 86 85 87 88 88 90 92 91 93 95 94 95 97 
96 97 99 97 98 100 100 101 102 100 102 104 101 103 105 104 105 107 104 106 108 108 110 111 
110 112 114 113 115 118 116 118 120 121 122 125 124 126 128 128 129 132 130 133 135 134 136 139 
136 138 140 131 133 135 127 129 131 123 125 127 119 121 123 117 118 121 111 112 115 109 111 112 
105 107 108 102 103 106 98 99 101 96 96 98 92 94 96 90 92 94 86 88 89 84 85 86 
81 82 84 78 80 81 75 76 78 74 75 75 70 71 72 69 70 70 66 67 67 64 65 66 
61 62 63 60 61 62 59 60 61 58 59 60 57 58 59 56 57 57 54 55 55 53 54 55 
51 52 53 49 50 51 47 48 49 47 48 49 44 45 45 46 46 47 52 53 53 51 51 51 
49 49 49 48 48 48 47 47 47 108 69 71 255 124 128 255 127 131 117 63 64 0 0 0 
0 0 0 0 0 0 0 0 0 0 0 0 0 0 0 0 0 0 0 0 0 0 0 0 
0 0 0 0 0 0 0 0 0 0 0 0 0 0 0 0 0 0 0 0 0 0 0 0 
0 0 0 0 0 0 
0 0 0 0 0 0 0 0 0 0 0 0 0 0 0 0 0 0 0 0 0 0 0 0 
0 0 0 0 0 0 0 0 0 0 0 0 0 0 0 0 0 0 0 0 0 0 0 0 
0 0 0 6 6 6 52 28 28 244 82 86 255 84 88 171 63 66 30 30 30 30 30 30 
30 30 30 31 31 31 30 30 30 22 22 22 7 7 7 6 6 6 6 6 6 5 5 5 
7 7 7 6 6 6 7 7 7 7 8 8 7 7 7 7 7 7 8 8 8 8 8 8 
40 40 40 39 39 39 36 36 36 36 36 36 38 38 39 36 36 36 36 36 36 38 39 39 
38 38 38 38 38 38 39 39 39 37 37 37 41 41 41 41 41 41 40 40 40 41 41 42 
38 38 38 41 41 41 41 41 41 40 40 40 40 41 41 42 42 42 42 42 42 42 43 43 
44 45 45 44 44 44 45 45 45 45 45 46 46 46 46 46 46 47 47 47 48 47 47 47 
53 53 53 51 51 51 50 50 50 52 53 53 52 52 52 53 53 53 53 53 53 57 57 58 
62 62 63 59 60 60 47 47 48 42 42 43 46 46 47 48 49 50 51 51 52 53 54 56 
55 56 57 60 61 62 62 63 64 65 66 67 66 67 68 69 70 71 70 71 72 73 74 76 
76 78 79 80 81 83 82 83 84 85 86 88 88 90 91 91 92 93 92 94 96 116 117 118 
108 108 110 111 113 114 115 116 118 120 121 122 115 116 118 120 121 123 123 123 124 122 122 124 
128 128 130 130 130 132 131 132 134 136 137 138 137 138 140 140 141 143 145 147 148 148 150 151 
144 144 146 143 144 145 135 135 137 132 134 135 132 133 135 129 130 130 124 125 126 124 125 126 
119 120 122 113 114 115 112 113 113 107 108 109 103 104 104 103 103 104 100 100 101 97 97 99 
96 97 97 95 96 96 94 95 96 89 90 90 86 87 88 86 86 87 79 80 81 81 81 82 
81 82 82 70 71 72 57 58 58 55 56 57 55 56 57 53 54 55 54 55 56 52 53 54 
52 52 53 49 50 50 48 49 50 46 46 47 44 45 46 42 43 43 48 48 49 51 51 51 
50 50 50 48 48 49 48 48 48 47 47 47 152 82 84 255 121 126 252 123 127 62 32 33 
0 0 0 0 0 0 0 0 0 0 0 0 0 0 0 0 0 0 0 0 0 0 0 0 
0 0 0 0 0 0 0 0 0 0 0 0 0 0 0 0 0 0 0 0 0 0 0 0 
0 0 0 0 0 0 
0 0 0 0 0 0 0 0 0 0 0 0 0 0 0 0 0 0 0 0 0 0 0 0 
0 0 0 0 0 0 0 0 0 0 0 0 0 0 0 0 0 0 0 0 0 0 0 0 
0 0 0 26 23 23 206 74 76 255 87 92 212 75 79 39 33 33 30 30 30 30 30 30 
30 30 30 30 30 30 25 25 25 7 7 7 5 5 5 6 6 6 6 6 6 6 6 6 
6 6 6 7 7 7 7 7 7 8 8 8 7 7 7 7 7 7 8 8 8 7 7 7 
13 13 13 166 166 166 188 188 188 187 187 187 188 188 188 187 187 187 188 188 188 189 189 189 
186 186 186 189 189 189 189 189 189 186 186 186 186 186 186 188 188 188 188 188 188 188 188 188 
188 188 188 188 188 188 188 188 188 190 190 190 188 188 188 188 188 188 188 188 188 189 189 189 
190 190 190 188 188 188 188 188 188 188 188 188 188 188 188 189 189 189 188 188 188 189 189 189 
189 189 189 189 189 189 190 190 190 189 189 189 191 191 191 191 191 191 191 191 191 193 193 193 
191 191 191 215 215 215 67 68 69 42 42 42 44 45 46 48 48 49 51 51 52 54 55 56 
56 57 58 61 62 63 62 63 64 65 66 67 67 68 70 70 71 72 72 73 74 75 75 77 
77 78 79 80 82 84 83 85 86 86 88 90 89 90 92 92 93 95 95 96 98 141 141 142 
205 205 205 206 206 206 209 209 209 206 206 206 209 209 209 211 211 211 212 212 212 209 209 209 
212 212 212 212 212 212 217 217 217 215 215 215 218 218 218 219 219 219 218 218 218 218 218 218 
217 217 217 219 219 219 218 218 218 216 216 216 215 215 215 212 212 212 212 212 212 212 212 212 
209 209 209 209 209 209 209 209 209 206 206 206 207 207 207 204 204 204 204 204 204 205 205 205 
200 200 200 200 200 200 203 203 203 201 201 201 200 200 200 198 198 198 200 200 200 211 211 211 
192 192 192 64 65 65 53 54 55 53 53 54 52 53 54 52 52 53 51 52 53 50 51 51 
51 51 52 48 49 50 47 47 48 45 46 46 44 44 45 41 42 42 40 40 41 46 46 47 
49 49 49 49 49 49 48 48 49 46 47 47 48 47 47 195 95 99 255 118 122 229 110 113 
15 7 8 0 0 0 0 0 0 0 0 0 0 0 0 0 0 0 0 0 0 0 0 0 
0 0 0 0 0 0 0 0 0 0 0 0 0 0 0 0 0 0 0 0 0 0 0 0 
0 0 0 0 0 0 
0 0 0 0 0 0 0 0 0 0 0 0 0 0 0 0 0 0 0 0 0 0 0 0 
0 0 0 0 0 0 0 0 0 0 0 0 0 0 0 0 0 0 0 0 0 0 0 0 
20 20 20 140 53 55 255 92 96 245 87 91 63 38 39 30 30 30 30 30 30 30 30 30 
30 30 30 27 27 27 8 8 8 6 6 6 6 6 6 6 6 6 6 6 6 6 6 6 
6 6 6 7 7 7 7 7 7 6 6 6 6 6 6 7 7 7 7 7 7 7 7 7 
7 7 7 7 7 7 130 130 130 192 192 192 172 172 172 164 164 164 162 162 162 164 164 164 
162 162 162 164 164 164 164 164 164 160 160 160 163 163 163 163 163 163 162 162 162 165 165 165 
166 166 166 162 162 162 165 165 165 165 165 165 163 163 163 165 165 165 165 165 165 165 165 165 
166 166 166 167 167 167 164 164 164 164 164 164 165 165 165 166 166 166 165 165 165 166 166 166 
164 164 164 168 168 168 169 169 169 168 168 168 165 165 165 165 165 165 166 166 166 167 167 167 
179 179 179 194 194 194 35 36 36 41 41 42 44 45 46 48 48 48 50 51 52 55 56 57 
58 59 60 61 62 63 63 64 65 66 67 68 69 70 71 70 72 73 73 74 76 77 78 79 
79 80 82 82 83 85 85 86 88 88 89 90 92 93 94 93 94 96 94 96 97 95 97 99 
197 198 198 197 197 197 188 188 188 187 187 187 193 193 193 192 192 192 196 196 196 192 192 192 
195 195 195 200 200 200 200 200 200 204 204 204 205 205 205 203 203 203 208 208 208 204 204 204 
205 205 205 204 204 204 203 203 203 196 196 196 199 199 199 196 196 196 195 195 195 195 195 195 
193 193 193 190 190 190 188 188 188 186 186 186 186 186 186 186 186 186 182 182 182 183 183 183 
182 182 182 181 181 181 176 176 176 177 177 177 177 177 177 180 180 180 217 217 217 160 161 161 
52 53 54 51 51 52 50 51 52 49 50 51 52 53 53 50 51 52 51 52 53 50 50 51 
49 49 50 47 48 49 46 46 47 44 45 46 42 43 43 41 41 42 40 40 41 39 40 40 
46 47 47 48 48 48 47 47 47 46 46 46 46 46 46 61 49 50 235 106 110 255 114 119 
173 84 86 0 0 0 0 0 0 0 0 0 0 0 0 0 0 0 0 0 0 0 0 0 
0 0 0 0 0 0 0 0 0 0 0 0 0 0 0 0 0 0 0 0 0 0 0 0 
0 0 0 0 0 0 
0 0 0 0 0 0 0 0 0 0 0 0 0 0 0 0 0 0 0 0 0 0 0 0 
0 0 0 0 0 0 0 0 0 0 0 0 0 0 0 0 0 0 0 0 0 9 9 9 
72 33 34 253 95 99 255 95 99 117 53 55 28 28 28 28 28 28 29 29 29 29 29 29 
28 28 28 10 10 10 5 5 5 5 5 5 4 4 4 4 4 4 5 5 5 5 5 5 
6 6 6 5 5 5 5 5 5 6 6 6 5 5 5 6 6 6 7 7 7 7 7 7 
6 6 6 5 5 5 6 6 6 90 90 90 197 197 197 174 174 174 161 161 161 161 161 161 
162 162 162 162 162 162 161 161 161 161 161 161 162 162 162 161 161 161 161 161 161 162 162 162 
162 162 162 161 161 161 162 162 162 162 162 162 162 162 162 162 162 162 162 162 162 162 162 162 
162 162 162 163 163 163 161 161 161 162 162 162 163 163 163 164 164 164 162 162 162 162 162 162 
163 163 163 163 163 163 163 163 163 163 163 163 162 162 162 163 163 163 164 164 164 163 163 163 
182 182 182 136 136 136 34 34 35 38 39 40 43 43 44 46 46 47 50 51 52 54 55 56 
58 59 60 61 62 63 64 65 66 65 66 68 68 69 70 71 72 73 74 74 76 77 78 79 
79 81 83 82 83 84 85 87 88 88 89 91 91 92 94 93 95 96 94 95 97 96 97 99 
156 156 158 195 195 195 187 187 187 181 181 181 183 183 183 188 188 188 188 188 188 188 188 188 
191 191 191 193 193 193 193 193 193 193 193 193 197 197 197 198 198 198 199 199 199 198 198 198 
196 196 196 196 196 196 193 193 193 191 191 191 189 189 189 188 188 188 187 187 187 185 185 185 
182 182 182 184 184 184 181 181 181 181 181 181 181 181 181 179 179 179 178 178 178 180 180 180 
175 175 175 171 171 171 171 171 171 170 170 170 179 179 179 219 219 219 123 124 125 45 46 46 
45 46 47 46 46 47 47 48 49 48 48 49 47 48 49 48 49 49 47 48 49 47 47 48 
46 47 48 46 46 47 43 44 44 42 42 43 40 41 41 39 39 40 37 38 38 35 36 36 
35 35 35 46 46 46 45 45 45 45 45 45 44 44 44 42 42 42 101 59 60 255 108 113 
255 112 117 95 45 46 0 0 0 0 0 0 0 0 0 0 0 0 0 0 0 0 0 0 
0 0 0 0 0 0 0 0 0 0 0 0 0 0 0 0 0 0 0 0 0 0 0 0 
0 0 0 0 0 0 
0 0 0 0 0 0 0 0 0 0 0 0 0 0 0 0 0 0 0 0 0 0 0 0 
0 0 0 0 0 0 0 0 0 0 0 0 0 0 0 0 0 0 0 0 0 31 24 24 
227 90 93 255 99 102 183 76 78 28 28 28 27 27 27 28 28 28 28 28 28 28 28 28 
14 14 14 3 3 3 4 4 4 3 3 3 3 3 3 3 3 3 4 4 4 3 3 3 
4 4 4 5 5 5 4 4 4 5 5 5 5 5 5 4 4 4 4 4 5 5 5 5 
5 5 5 4 4 5 4 4 5 5 5 5 55 55 55 194 194 194 179 179 179 164 164 164 
165 165 165 164 164 164 163 163 163 164 164 164 165 165 165 164 164 164 163 163 163 164 164 164 
166 166 166 165 165 165 165 165 165 162 162 162 165 165 165 164 164 164 163 163 163 163 163 163 
162 162 162 163 163 163 163 163 163 164 164 164 165 165 165 162 162 162 164 164 164 165 165 165 
166 166 166 165 165 165 165 165 165 165 165 165 164 164 164 166 166 166 165 165 165 169 169 169 
205 205 205 68 69 69 34 34 35 38 38 39 42 42 43 46 47 48 50 51 52 54 55 56 
58 59 60 60 61 62 64 65 66 65 66 67 68 69 71 70 71 72 74 75 76 76 77 78 
80 81 82 81 83 84 86 87 88 89 91 92 90 91 93 94 96 97 95 96 98 97 98 100 
104 105 107 200 200 200 185 185 185 189 189 189 190 190 190 193 193 193 191 191 191 195 195 195 
198 198 198 197 197 197 201 201 201 198 198 198 204 204 204 203 203 203 202 202 202 200 200 200 
201 201 201 201 201 201 195 195 195 195 195 195 195 195 195 193 193 193 188 188 188 188 188 188 
186 186 186 186 186 186 184 184 184 185 185 185 182 182 182 184 184 184 181 181 181 179 179 179 
182 182 182 175 175 175 175 175 175 187 187 187 217 217 218 91 91 91 41 42 42 42 43 43 
42 43 44 44 45 46 45 46 47 46 47 48 46 47 47 46 47 48 45 46 47 45 45 46 
44 45 46 43 43 44 42 42 43 40 40 41 39 39 40 37 38 38 35 36 36 34 34 35 
32 32 33 35 35 36 44 44 44 44 44 44 43 43 43 41 41 41 40 40 40 161 76 79 
255 106 111 244 104 109 27 12 12 0 0 0 0 0 0 0 0 0 0 0 0 0 0 0 
0 0 0 0 0 0 0 0 0 0 0 0 0 0 0 0 0 0 0 0 0 0 0 0 
0 0 0 0 0 0 
0 0 0 0 0 0 0 0 0 0 0 0 0 0 0 0 0 0 0 0 0 0 0 0 
0 0 0 0 0 0 0 0 0 0 0 0 0 0 0 0 0 0 19 19 19 149 63 65 
255 103 106 235 95 98 45 33 34 29 29 29 28 28 28 29 29 29 28 28 28 22 22 22 
4 4 4 5 5 5 4 4 4 5 5 5 4 4 4 4 4 4 5 5 5 5 5 5 
6 6 6 6 6 6 5 5 5 5 5 5 5 5 5 6 6 6 6 6 6 6 6 6 
6 6 6 6 6 6 7 7 7 6 6 6 6 6 6 27 27 27 179 179 179 179 179 179 
162 162 162 160 160 160 161 161 161 159 159 159 159 159 159 159 159 159 159 159 159 159 159 159 
159 159 159 160 160 160 161 161 161 161 161 161 160 160 160 162 162 162 161 161 161 163 163 163 
161 161 161 163 163 163 163 163 163 162 162 162 161 161 161 161 161 161 162 162 162 160 160 160 
162 162 162 161 161 161 162 162 162 163 163 163 163 163 163 162 162 162 164 164 164 173 173 173 
211 211 211 28 28 29 33 34 34 39 39 39 43 43 44 47 48 49 52 53 54 55 56 57 
59 60 61 62 63 64 65 67 68 68 69 70 71 72 73 74 74 76 76 77 78 78 80 82 
82 83 84 85 87 88 87 89 90 91 92 94 94 96 97 97 98 100 98 99 101 99 100 102 
97 99 101 185 185 186 194 194 194 187 187 187 185 185 185 190 190 190 191 191 191 189 189 189 
193 193 193 197 197 197 198 198 198 198 198 198 200 200 200 203 203 203 199 199 199 198 198 198 
195 195 195 192 192 192 193 193 193 192 192 192 189 189 189 191 191 191 188 188 188 184 184 184 
185 185 185 187 187 187 183 183 183 178 178 178 179 179 179 176 176 176 175 175 175 176 176 176 
173 173 173 178 178 178 195 195 195 209 209 209 68 69 69 39 40 41 40 41 41 42 42 43 
43 43 44 44 45 46 45 45 46 46 46 47 46 47 48 46 47 47 46 46 47 46 47 47 
46 47 48 43 43 44 42 42 43 40 41 41 38 39 39 36 37 38 35 36 36 34 34 34 
33 34 34 30 31 31 38 38 38 43 43 43 42 42 42 42 42 42 41 41 41 45 41 42 
220 91 95 255 103 108 183 79 82 0 0 0 0 0 0 0 0 0 0 0 0 0 0 0 
0 0 0 0 0 0 0 0 0 0 0 0 0 0 0 0 0 0 0 0 0 0 0 0 
0 0 0 0 0 0 
0 0 0 0 0 0 0 0 0 0 0 0 0 0 0 0 0 0 0 0 0 0 0 0 
0 0 0 0 0 0 0 0 0 0 0 0 0 0 0 6 6 6 67 35 35 254 107 111 
255 106 109 106 55 56 31 31 31 31 31 31 30 30 30 30 30 30 28 28 28 8 8 8 
6 6 6 7 7 7 6 6 6 7 7 7 7 7 7 6 6 6 6 6 6 8 8 8 
8 8 8 7 7 7 8 8 8 8 8 8 7 7 7 8 8 9 9 9 9 8 8 8 
7 7 7 8 8 9 8 8 8 7 7 7 7 8 8 7 7 7 12 12 12 164 164 164 
183 183 183 166 166 166 162 162 162 164 164 164 164 164 164 163 163 163 162 162 162 163 163 163 
164 164 164 165 165 165 163 163 163 162 162 162 162 162 162 162 162 162 164 164 164 165 165 165 
162 162 162 162 162 162 163 163 163 165 165 165 165 165 165 165 165 165 164 164 164 165 165 165 
163 163 163 165 165 165 165 165 165 165 165 165 168 168 168 165 165 165 165 165 165 178 178 178 
186 186 186 29 29 30 35 35 36 40 40 41 45 46 46 51 52 53 55 56 56 60 61 61 
63 64 65 65 67 68 68 69 71 72 73 74 73 74 75 77 78 79 79 80 82 83 84 85 
85 86 87 88 89 90 91 92 94 94 95 97 98 99 101 100 101 103 101 102 104 102 104 106 
101 103 105 175 176 176 198 198 198 194 194 194 196 196 196 193 193 193 196 196 196 199 199 199 
201 201 201 199 199 199 199 199 199 204 204 204 207 207 207 208 208 208 204 204 204 203 203 203 
201 201 201 199 199 199 197 197 197 194 194 194 192 192 192 191 191 191 192 192 192 190 190 190 
187 187 187 189 189 189 184 184 184 184 184 184 184 184 184 181 181 181 179 179 179 179 179 179 
182 182 182 202 202 202 194 194 194 53 53 54 39 39 40 41 41 42 42 42 43 44 44 45 
45 45 46 46 47 48 47 48 49 48 48 49 48 49 50 48 48 49 48 48 49 47 48 49 
46 46 47 43 44 45 43 43 44 41 41 42 39 40 40 37 38 38 36 36 37 35 35 36 
34 34 35 32 32 33 32 32 33 43 43 43 44 44 44 43 43 43 43 43 43 42 42 42 
89 53 54 254 98 103 255 100 105 86 36 37 0 0 0 0 0 0 0 0 0 0 0 0 
0 0 0 0 0 0 0 0 0 0 0 0 0 0 0 0 0 0 0 0 0 0 0 0 
0 0 0 0 0 0 
0 0 0 0 0 0 0 0 0 0 0 0 0 0 0 0 0 0 0 0 0 0 0 0 
0 0 0 0 0 0 0 0 0 0 0 0 0 0 0 28 25 25 214 95 97 255 110 113 
187 85 87 30 30 30 30 30 30 30 30 30 30 30 30 30 30 30 12 12 12 6 6 6 
6 6 6 6 6 6 6 6 6 6 6 6 7 7 7 5 5 5 6 6 6 6 6 6 
7 7 7 7 7 7 7 7 7 7 7 7 7 7 7 8 8 8 7 7 7 7 7 8 
8 8 8 8 8 8 8 8 8 8 8 8 7 7 7 7 7 7 7 7 8 7 7 7 
140 140 141 194 194 194 176 176 176 173 173 173 172 172 172 170 170 170 170 170 170 172 172 172 
169 169 169 171 171 171 170 170 170 170 170 170 173 173 173 173 173 173 171 171 171 171 171 171 
171 171 171 170 170 170 173 173 173 173 173 173 176 176 176 172 172 172 173 173 173 168 168 168 
173 173 173 175 175 175 176 176 176 173 173 173 175 175 175 176 176 176 174 174 174 186 186 186 
165 165 165 29 29 30 34 35 35 40 40 41 46 46 47 51 52 53 55 56 57 60 61 62 
62 63 64 66 67 68 68 70 71 72 73 74 73 75 77 77 78 80 79 80 82 83 84 85 
84 86 88 88 90 92 93 94 96 95 96 97 99 100 102 101 103 105 103 104 106 103 104 106 
104 106 107 168 169 170 209 209 209 203 203 203 204 204 204 207 207 207 206 206 206 208 208 208 
209 209 209 207 207 207 212 212 212 212 212 212 215 215 215 213 213 213 213 213 213 209 209 209 
211 211 211 210 210 210 209 209 209 201 201 201 204 204 204 202 202 202 198 198 198 199 199 199 
197 197 197 196 196 196 192 192 192 192 192 192 192 192 192 189 189 189 188 188 188 194 194 194 
214 214 214 172 172 172 43 43 44 38 39 39 40 40 41 41 42 42 43 44 44 44 44 45 
46 47 48 46 47 47 48 49 49 48 48 49 48 49 50 47 48 48 47 48 49 46 47 47 
45 45 46 43 43 44 42 43 43 40 40 41 38 39 39 35 36 36 35 36 36 33 34 34 
31 31 32 31 32 32 29 29 30 31 31 31 43 43 43 43 43 43 42 42 42 41 41 41 
40 40 40 164 70 74 255 95 100 235 92 97 16 6 7 0 0 0 0 0 0 0 0 0 
0 0 0 0 0 0 0 0 0 0 0 0 0 0 0 0 0 0 0 0 0 0 0 0 
0 0 0 0 0 0 
0 0 0 0 0 0 0 0 0 0 0 0 0 0 0 0 0 0 0 0 0 0 0 0 
0 0 0 0 0 0 0 0 0 0 0 0 16 16 16 122 58 59 255 115 117 244 109 112 
55 39 39 30 30 30 30 30 30 30 30 30 31 31 31 20 20 20 6 6 6 5 5 5 
6 6 6 6 6 6 6 6 6 5 5 5 6 6 6 5 5 5 7 7 7 7 7 7 
7 7 7 7 7 7 7 7 7 6 6 6 7 7 8 9 9 9 7 7 7 8 8 9 
8 8 8 8 8 8 8 8 8 8 8 8 9 9 9 8 8 8 8 8 8 8 8 8 
7 8 8 113 113 113 195 195 195 176 176 176 170 170 170 169 169 169 169 169 169 169 169 169 
168 168 168 168 168 168 169 169 169 168 168 168 168 168 168 169 169 169 170 170 170 170 170 170 
168 168 168 170 170 170 170 170 170 171 171 171 174 174 174 172 172 172 171 171 171 169 169 169 
169 169 169 171 171 171 171 171 171 175 175 175 175 175 175 175 175 175 172 172 172 185 185 185 
148 148 148 30 30 31 35 35 36 40 41 42 46 46 47 52 53 53 56 58 59 61 61 62 
64 65 66 67 68 70 70 71 73 73 74 75 77 78 79 79 80 81 82 83 85 85 86 87 
89 90 91 90 92 94 94 95 97 97 98 100 100 102 104 102 103 105 105 107 109 105 107 109 
106 106 109 161 162 163 209 209 209 201 201 201 202 202 202 202 202 202 205 205 205 203 203 203 
205 205 205 209 209 209 210 210 210 210 210 210 213 213 213 209 209 209 213 213 213 207 207 207 
206 206 206 205 205 205 201 201 201 199 199 199 198 198 198 194 194 194 194 194 194 191 191 191 
198 198 198 190 190 190 192 192 192 188 188 188 189 189 189 184 184 184 191 191 191 216 216 216 
149 149 150 37 37 38 38 39 40 39 40 41 41 42 42 43 44 44 45 46 47 46 47 48 
48 49 50 49 49 50 49 50 51 48 49 50 48 49 50 47 47 49 47 48 48 46 46 47 
44 45 45 43 43 44 41 41 42 40 41 41 37 38 38 35 36 37 35 35 36 33 34 34 
32 32 33 31 31 32 29 29 30 28 28 29 34 34 34 42 43 43 42 42 42 41 41 41 
40 40 40 50 41 42 230 84 90 255 93 99 153 61 63 0 0 0 0 0 0 0 0 0 
0 0 0 0 0 0 0 0 0 0 0 0 0 0 0 0 0 0 0 0 0 0 0 0 
0 0 0 0 0 0 
0 0 0 0 0 0 0 0 0 0 0 0 0 0 0 0 0 0 0 0 0 0 0 0 
0 0 0 0 0 0 0 0 0 3 3 3 41 29 29 242 113 115 255 118 120 129 69 70 
30 30 30 31 31 31 31 31 31 31 31 31 29 29 29 8 8 8 7 7 7 8 8 8 
7 7 7 7 7 7 7 7 7 7 7 7 7 7 7 8 8 8 8 8 8 9 9 9 
8 8 8 9 9 9 8 8 8 8 8 8 9 9 9 10 10 10 10 10 10 10 10 10 
10 10 10 10 10 10 9 9 9 10 10 10 10 10 10 9 9 10 10 10 10 10 10 11 
9 9 9 9 9 9 96 96 96 190 190 190 172 172 172 164 164 164 163 163 163 164 164 164 
164 164 164 164 164 164 163 163 163 163 163 163 167 167 167 165 165 165 163 163 163 164 164 164 
166 166 166 165 165 165 165 165 165 166 166 166 164 164 164 169 169 169 167 167 167 165 165 165 
165 165 165 166 166 166 167 167 167 168 168 168 167 167 167 169 169 169 165 165 165 179 179 179 
147 148 148 31 31 31 37 37 37 42 43 43 48 49 50 54 55 56 59 59 60 62 63 64 
67 68 69 69 70 71 73 74 75 75 76 78 79 80 81 80 81 84 84 85 87 86 87 89 
90 91 93 93 94 95 97 98 100 99 101 102 103 105 107 104 107 109 108 109 111 107 108 111 
108 110 112 162 162 163 203 203 203 195 195 195 195 195 195 199 199 199 198 198 198 201 201 201 
199 199 199 201 201 201 202 202 202 207 207 207 206 206 206 203 203 203 202 202 202 200 200 200 
199 199 199 193 193 193 195 195 195 194 194 194 193 193 193 188 188 188 190 190 190 186 186 186 
188 188 188 185 185 185 188 188 188 181 181 181 184 184 184 185 185 185 220 220 221 134 134 134 
37 38 39 39 39 40 41 42 42 43 43 44 44 46 46 47 47 48 48 49 50 50 51 51 
50 51 52 52 52 53 50 51 52 51 52 53 50 50 51 49 49 50 48 48 49 46 46 47 
45 45 46 43 44 45 41 41 42 41 41 42 38 39 39 37 38 38 35 36 36 33 33 34 
31 32 32 31 31 32 29 29 29 28 29 29 27 28 28 40 40 40 42 43 43 41 42 42 
41 41 41 41 41 41 109 54 56 255 88 94 252 90 96 43 16 17 0 0 0 0 0 0 
0 0 0 0 0 0 0 0 0 0 0 0 0 0 0 0 0 0 0 0 0 0 0 0 
0 0 0 0 0 0 
0 0 0 0 0 0 0 0 0 0 0 0 0 0 0 0 0 0 0 0 0 0 0 0 
0 0 0 0 0 0 0 0 0 19 19 19 157 78 79 255 122 124 221 107 109 32 30 30 
29 29 29 29 29 29 29 29 29 29 29 29 12 12 12 5 5 5 5 5 5 6 6 6 
4 4 4 5 5 5 5 5 5 5 5 5 5 5 5 6 6 6 6 6 6 6 6 6 
6 6 6 6 6 6 6 6 6 6 6 7 7 7 7 7 7 7 7 7 7 7 7 8 
8 8 8 8 8 8 8 8 8 8 8 8 8 8 8 8 8 8 9 9 9 9 9 9 
8 8 8 9 9 9 7 8 8 84 84 84 189 189 189 177 177 177 169 169 169 168 168 168 
169 169 169 170 170 170 168 168 168 168 168 168 169 169 169 168 168 168 166 166 166 169 169 169 
170 170 170 167 167 167 167 167 167 172 172 172 171 171 171 169 169 169 171 171 171 170 170 170 
169 169 169 172 172 172 173 173 173 172 172 172 170 170 170 172 172 172 172 172 172 184 184 184 
156 156 156 30 30 31 35 36 36 42 43 43 47 48 49 53 54 55 57 59 59 61 62 63 
65 66 67 67 68 69 72 73 74 74 75 77 77 78 79 79 81 83 83 84 85 85 87 88 
89 90 92 92 93 95 96 97 99 99 101 103 103 104 106 105 107 109 107 109 111 108 109 111 
106 107 110 173 173 174 208 208 208 201 201 201 202 202 202 203 203 203 200 200 200 206 206 206 
210 210 210 209 209 209 212 212 212 210 210 210 214 214 214 209 209 209 209 209 209 206 206 206 
206 206 206 202 202 202 202 202 202 198 198 198 199 199 199 198 198 198 191 191 191 194 194 194 
193 193 193 194 194 194 191 191 191 188 188 188 191 191 191 222 222 222 118 119 119 37 38 38 
38 39 40 41 41 42 42 43 44 44 45 45 46 46 47 48 48 49 49 50 51 50 51 52 
50 51 52 51 52 53 49 50 51 49 50 51 48 48 48 46 47 48 45 45 46 44 45 45 
41 42 43 40 41 41 38 39 39 37 37 38 35 36 36 34 34 34 32 32 33 30 31 31 
28 28 29 29 29 29 27 27 28 25 26 26 24 25 25 26 26 27 40 40 40 39 39 39 
39 39 39 39 39 39 38 38 38 200 71 76 255 85 91 190 69 73 0 0 0 0 0 0 
0 0 0 0 0 0 0 0 0 0 0 0 0 0 0 0 0 0 0 0 0 0 0 0 
0 0 0 0 0 0 
0 0 0 0 0 0 0 0 0 0 0 0 0 0 0 0 0 0 0 0 0 0 0 0 
0 0 0 0 0 0 3 3 3 61 38 38 254 127 129 255 125 127 95 57 57 29 29 29 
29 29 29 29 29 29 29 29 29 21 21 21 6 6 6 5 5 5 5 5 5 6 6 6 
5 5 5 5 5 5 5 5 5 6 6 6 6 6 6 7 7 7 6 6 6 6 6 6 
6 6 6 7 7 7 6 6 6 7 7 7 8 8 8 7 7 7 7 7 7 8 8 8 
9 9 9 9 9 9 8 9 9 10 10 10 9 9 9 10 10 10 10 10 10 10 10 10 
9 9 9 9 9 9 9 9 9 9 9 9 73 73 73 196 196 196 173 173 173 165 165 165 
165 165 165 163 163 163 165 165 165 163 163 163 163 163 163 163 163 163 165 165 165 165 165 165 
166 166 166 164 164 164 164 164 164 167 167 167 164 164 164 165 165 165 165 165 165 165 165 165 
164 164 164 168 168 168 169 169 169 165 165 165 169 169 169 169 169 169 168 168 168 179 179 179 
171 171 172 31 31 31 36 36 37 42 43 44 48 49 49 53 54 55 58 59 60 62 63 64 
67 68 69 70 71 72 72 74 76 76 77 79 79 81 83 82 83 84 85 86 88 88 90 92 
90 91 92 95 96 97 97 99 100 101 102 104 103 105 107 108 109 111 108 109 112 110 112 114 
113 114 116 181 181 181 203 203 203 195 195 195 199 199 199 201 201 201 201 201 201 202 202 202 
202 202 202 203 203 203 204 204 204 205 205 205 204 204 204 203 203 203 198 198 198 197 197 197 
195 195 195 197 197 197 194 194 194 193 193 193 192 192 192 190 190 190 185 185 185 190 190 190 
187 187 187 186 186 186 180 180 180 190 190 190 220 220 220 109 109 110 38 38 39 40 41 41 
42 42 43 44 44 45 45 47 47 48 49 49 49 51 52 51 52 53 52 53 54 52 53 54 
52 52 53 52 53 54 51 52 53 51 51 52 47 49 49 45 46 47 45 45 46 43 44 45 
41 42 42 40 40 41 38 39 39 36 37 37 35 36 36 33 34 34 32 32 33 30 31 31 
30 30 31 27 27 28 26 27 27 25 25 26 24 24 25 23 23 23 31 32 32 39 39 39 
38 39 39 38 38 38 38 38 38 76 45 46 253 81 87 255 83 89 76 25 27 0 0 0 
0 0 0 0 0 0 0 0 0 0 0 0 0 0 0 0 0 0 0 0 0 0 0 0 
0 0 0 0 0 0 
0 0 0 0 0 0 0 0 0 0 0 0 0 0 0 0 0 0 0 0 0 0 0 0 
0 0 0 0 0 0 21 21 21 186 97 99 255 130 132 191 100 102 30 30 30 31 31 31 
30 30 30 30 30 30 29 29 29 10 10 10 7 7 7 5 5 5 6 6 6 7 7 7 
6 6 6 6 6 6 6 6 6 6 6 6 7 7 7 7 7 7 7 7 7 7 7 7 
7 7 7 7 7 7 6 6 6 8 8 8 8 8 8 8 8 8 8 8 8 9 9 9 
9 9 9 8 8 8 10 10 10 10 10 10 11 11 11 10 10 10 11 11 11 11 11 11 
11 11 11 11 11 11 10 10 10 9 9 10 9 10 10 75 75 75 184 184 184 171 171 171 
164 164 164 162 162 162 161 161 161 162 162 162 162 162 162 163 163 163 161 161 161 162 162 162 
164 164 164 164 164 164 163 163 163 165 165 165 163 163 163 163 163 163 164 164 164 164 164 164 
163 163 163 163 163 163 165 165 165 165 165 165 166 166 166 167 167 167 165 165 165 172 172 172 
182 182 182 34 34 35 37 38 38 43 44 44 49 50 50 55 56 57 60 61 62 64 65 66 
67 68 70 71 72 74 76 76 78 78 79 80 82 83 85 85 86 87 86 88 89 91 92 94 
93 94 96 96 98 100 99 100 103 104 105 107 106 107 109 108 111 113 108 110 113 111 112 115 
123 124 125 197 197 197 196 196 196 189 189 189 194 194 194 199 199 199 196 196 196 200 200 200 
203 203 203 200 200 200 199 199 199 202 202 202 200 200 200 198 198 198 198 198 198 194 194 194 
196 196 196 193 193 193 191 191 191 185 185 185 184 184 184 188 188 188 185 185 185 182 182 182 
183 183 183 181 181 181 187 187 187 219 219 219 108 108 108 39 39 40 40 41 42 44 44 45 
45 46 47 48 49 50 50 50 51 52 53 53 52 53 54 54 55 56 54 55 56 54 55 55 
54 55 56 52 53 54 52 52 53 49 50 51 48 49 50 47 47 48 45 46 46 43 44 45 
41 42 42 39 40 41 38 38 39 36 36 37 35 36 36 34 34 35 32 33 33 31 31 32 
30 30 30 28 28 29 27 27 28 26 26 27 25 25 25 23 23 24 23 23 24 39 39 39 
40 40 40 38 38 38 39 39 39 37 37 37 168 61 65 255 78 85 216 71 76 2 1 1 
0 0 0 0 0 0 0 0 0 0 0 0 0 0 0 0 0 0 0 0 0 0 0 0 
0 0 0 0 0 0 
0 0 0 0 0 0 0 0 0 0 0 0 0 0 0 0 0 0 0 0 0 0 0 0 
0 0 0 5 5 5 66 39 40 255 135 136 255 133 135 73 49 50 30 30 30 30 30 30 
30 30 30 29 29 29 19 19 19 6 6 6 6 6 6 6 6 6 5 5 5 6 6 6 
6 6 6 6 6 6 6 6 6 6 6 6 7 7 7 7 7 7 6 6 6 7 7 7 
7 7 7 7 7 7 8 8 8 8 8 8 7 7 7 8 8 9 9 9 9 9 9 9 
8 8 8 9 10 10 9 9 9 10 10 10 11 11 11 11 11 11 10 10 10 11 11 11 
11 11 11 11 11 12 11 11 11 11 11 11 10 11 11 10 11 11 76 77 77 187 187 187 
174 174 174 164 164 164 164 164 164 164 164 164 165 165 165 165 165 165 165 165 165 164 164 164 
164 164 164 169 169 169 166 166 166 168 168 168 166 166 166 166 166 166 165 165 165 168 168 168 
167 167 167 165 165 165 167 167 167 170 170 170 167 167 167 170 170 170 169 169 169 169 169 169 
189 189 189 99 99 99 36 37 38 43 44 44 49 50 50 55 56 57 61 62 63 64 65 67 
68 70 71 73 74 76 76 77 78 79 80 82 82 83 85 86 87 89 88 89 90 92 93 95 
95 96 98 97 99 101 102 103 105 105 107 109 108 109 112 110 111 113 112 114 115 112 113 114 
149 149 150 206 206 206 198 198 198 195 195 195 197 197 197 203 203 203 204 204 204 206 206 206 
204 204 204 205 205 205 207 207 207 206 206 206 199 199 199 198 198 198 198 198 198 195 195 195 
195 195 195 194 194 194 194 194 194 194 194 194 190 190 190 192 192 192 188 188 188 186 186 186 
185 185 185 189 189 189 222 222 222 111 112 113 39 39 40 40 41 42 43 44 44 46 47 48 
49 49 50 51 51 53 52 53 54 53 54 55 55 56 57 55 56 57 56 57 58 55 55 56 
53 54 55 52 53 54 50 51 52 48 49 50 48 49 50 45 46 47 44 45 46 42 43 43 
40 41 41 39 39 40 37 38 38 35 36 36 34 34 35 33 33 34 32 32 33 30 30 31 
28 28 29 27 28 28 25 25 26 25 25 26 23 23 23 22 22 22 21 22 22 28 28 28 
38 38 38 38 38 38 37 37 37 37 37 37 57 40 40 248 73 80 255 76 83 88 27 29 
0 0 0 0 0 0 0 0 0 0 0 0 0 0 0 0 0 0 0 0 0 0 0 0 
0 0 0 0 0 0 
0 0 0 0 0 0 0 0 0 0 0 0 0 0 0 0 0 0 0 0 0 0 0 0 
0 0 0 18 18 18 191 105 106 255 138 139 181 101 102 29 29 29 30 30 30 30 30 30 
30 30 30 27 27 27 7 7 7 5 5 5 5 5 5 4 4 4 6 6 6 5 5 5 
6 6 6 5 5 5 5 5 5 6 6 6 7 7 7 6 6 6 6 6 6 7 7 7 
6 6 6 7 7 7 7 7 7 8 8 8 7 7 7 8 8 8 9 9 9 9 9 9 
8 8 8 9 10 9 8 8 8 9 9 10 10 10 10 10 10 11 11 11 11 11 11 11 
10 10 10 12 12 12 11 11 12 12 12 12 13 13 13 12 12 12 11 11 12 86 86 87 
193 193 193 176 176 176 171 171 171 167 167 167 170 170 170 168 168 168 168 168 168 169 169 169 
169 169 169 172 172 172 173 173 173 172 172 172 173 173 173 171 171 171 169 169 169 174 174 174 
171 171 171 172 172 172 170 170 170 174 174 174 173 173 173 171 171 171 176 176 176 172 172 172 
187 187 187 166 166 167 39 40 41 42 43 44 49 50 51 54 55 56 60 61 61 64 65 66 
69 70 71 73 73 75 76 77 79 80 81 83 84 85 86 86 88 89 89 90 92 92 93 95 
96 97 99 99 100 102 103 104 106 106 107 109 107 109 111 110 112 114 112 113 116 122 124 125 
185 185 186 208 208 208 203 203 203 202 202 202 205 205 205 206 206 206 208 208 208 210 210 210 
211 211 211 210 210 210 209 209 209 210 210 210 206 206 206 205 205 205 204 204 204 204 204 204 
201 201 201 194 194 194 194 194 194 195 195 195 194 194 194 193 193 193 193 193 193 191 191 191 
193 193 193 216 216 216 120 121 121 39 39 40 41 42 42 43 44 44 47 48 48 49 50 51 
52 53 53 53 54 55 55 56 57 56 56 57 56 57 58 56 58 59 56 57 57 54 55 56 
54 55 56 50 51 52 51 51 52 48 49 50 47 47 48 45 46 46 42 43 44 40 41 41 
38 39 39 38 38 39 36 36 37 35 35 35 33 33 34 31 32 32 30 30 31 29 29 29 
27 27 28 26 26 27 24 25 25 24 24 24 23 23 24 22 22 22 20 20 20 19 19 20 
34 34 34 38 38 38 36 36 36 37 37 37 36 36 36 158 54 58 255 72 79 217 65 71 
4 1 1 0 0 0 0 0 0 0 0 0 0 0 0 0 0 0 0 0 0 0 0 0 
0 0 0 0 0 0 
0 0 0 0 0 0 0 0 0 0 0 0 0 0 0 0 0 0 0 0 0 0 0 0 
0 0 0 76 48 48 255 142 143 254 141 142 66 47 47 28 28 28 29 29 29 29 29 29 
29 29 29 14 14 14 4 4 4 5 5 5 5 5 5 4 4 4 5 5 5 4 4 4 
5 5 5 5 5 5 5 5 5 6 6 6 6 6 6 6 6 6 6 6 6 6 6 6 
6 6 6 6 6 7 6 6 6 7 7 7 7 7 7 6 6 7 9 9 9 8 8 8 
8 9 9 9 9 9 9 9 9 10 10 10 10 10 10 10 10 10 11 11 11 12 12 12 
11 11 11 11 12 12 12 12 12 12 13 12 12 12 12 13 13 13 12 12 12 11 11 11 
106 106 107 193 193 193 171 171 171 166 166 166 165 165 165 166 166 166 165 165 165 165 165 165 
165 165 165 168 168 168 167 167 167 166 166 166 169 169 169 172 172 172 168 168 168 169 169 169 
168 168 168 168 168 168 168 168 168 169 169 169 170 170 170 171 171 171 167 167 167 172 172 172 
178 178 178 194 194 194 105 106 106 41 42 43 47 48 49 53 54 54 59 60 61 64 65 66 
69 70 72 74 75 76 78 79 81 81 82 83 85 86 88 87 88 89 91 92 93 93 94 96 
97 99 100 100 101 103 104 106 108 106 108 110 109 111 113 110 111 113 113 114 116 141 141 143 
210 210 210 198 198 198 198 198 198 204 204 204 203 203 203 204 204 204 206 206 206 211 211 211 
210 210 210 209 209 209 207 207 207 208 208 208 201 201 201 201 201 201 200 200 200 197 197 197 
195 195 195 192 192 192 193 193 193 193 193 193 188 188 188 191 191 191 190 190 190 190 190 190 
220 220 220 140 140 141 40 40 41 41 42 43 44 45 45 47 48 48 49 50 51 52 53 54 
56 56 57 56 57 58 58 59 60 58 59 60 57 58 59 57 58 59 56 57 58 53 54 55 
51 52 53 52 52 53 49 50 50 47 48 49 45 45 46 43 44 45 41 43 43 40 40 41 
38 38 39 36 37 37 35 36 36 34 34 35 32 32 33 30 31 31 29 29 30 28 28 29 
26 27 27 25 26 26 24 24 25 22 23 24 22 22 22 21 21 21 20 21 21 19 19 19 
23 23 23 36 37 37 36 36 36 36 36 36 35 35 35 52 37 38 246 68 73 255 70 77 
96 27 29 0 0 0 0 0 0 0 0 0 0 0 0 0 0 0 0 0 0 0 0 0 
0 0 0 0 0 0 
0 0 0 0 0 0 0 0 0 0 0 0 0 0 0 0 0 0 0 0 0 0 0 0 
14 14 14 186 110 110 255 146 146 178 105 106 29 29 29 29 29 29 28 28 28 29 29 29 
25 25 25 5 5 5 5 5 5 5 5 5 5 5 5 5 5 5 5 5 5 4 4 4 
5 5 5 5 5 5 7 7 7 6 6 6 5 5 6 6 6 6 6 6 6 6 6 6 
6 6 6 7 7 7 7 7 7 7 7 7 7 7 7 7 7 7 8 8 8 8 8 8 
9 9 9 9 9 9 9 9 10 10 10 10 10 10 10 11 11 11 11 11 12 12 12 12 
13 13 13 12 12 13 12 12 12 13 13 13 12 12 13 13 13 14 13 13 13 13 13 13 
12 12 12 135 135 135 187 187 187 171 171 171 169 169 169 168 168 168 167 167 167 166 166 166 
172 172 172 170 170 170 169 169 169 170 170 170 169 169 169 170 170 170 170 170 170 173 173 173 
169 169 169 173 173 173 169 169 169 171 171 171 174 174 174 171 171 171 174 174 174 171 171 171 
175 175 175 186 186 186 168 169 169 50 52 52 46 47 48 52 53 54 57 58 59 64 64 65 
69 69 71 73 74 75 77 79 81 81 82 83 85 87 88 88 89 91 91 93 94 95 96 98 
98 99 101 103 104 106 106 107 109 107 109 111 109 111 113 111 112 115 125 126 129 185 185 185 
209 209 209 202 202 202 201 201 201 204 204 204 208 208 208 209 209 209 209 209 209 210 210 210 
211 211 211 213 213 213 210 210 210 207 207 207 202 202 202 202 202 202 202 202 202 196 196 196 
198 198 198 196 196 196 193 193 193 193 193 193 191 191 191 191 191 191 194 194 194 213 213 213 
165 165 165 40 40 41 41 42 43 45 45 46 46 47 47 50 51 51 52 54 54 56 57 58 
56 57 58 58 60 60 59 59 60 59 60 61 58 59 60 57 58 59 55 56 57 53 54 55 
52 53 54 50 51 52 47 48 49 46 46 47 44 45 45 43 43 44 40 41 41 39 39 40 
37 38 38 35 36 36 34 34 34 32 34 33 30 31 31 29 30 30 29 29 29 27 27 27 
26 26 27 24 25 25 23 23 23 22 22 22 21 21 21 20 20 20 19 19 20 18 18 18 
17 17 18 32 32 32 37 37 37 36 36 36 35 35 35 34 34 34 152 51 55 255 66 73 
216 59 65 1 0 0 0 0 0 0 0 0 0 0 0 0 0 0 0 0 0 0 0 0 
0 0 0 0 0 0 
0 0 0 0 0 0 0 0 0 0 0 0 0 0 0 0 0 0 0 0 0 0 0 0 
61 43 43 255 149 149 255 149 149 70 50 50 29 29 29 29 29 29 29 29 29 30 30 30 
14 14 14 6 6 6 5 5 5 5 5 5 6 6 6 6 6 6 6 6 6 6 6 6 
5 5 5 5 5 5 7 7 7 7 7 7 7 7 7 6 6 6 7 7 7 7 7 7 
7 7 8 8 8 8 7 7 7 8 8 8 7 7 8 9 9 9 8 8 8 8 9 9 
10 10 10 10 10 10 11 11 11 11 11 11 11 11 11 11 11 11 12 12 12 12 12 13 
14 14 14 15 15 15 13 14 14 15 15 15 16 16 16 15 15 15 15 15 15 14 14 15 
14 14 14 14 14 15 164 164 164 186 186 186 169 169 169 168 168 168 170 170 170 167 167 167 
167 167 167 168 168 168 171 171 171 169 169 169 171 171 171 172 172 172 172 172 172 171 171 171 
173 173 173 171 171 171 172 172 172 175 175 175 172 172 172 176 176 176 174 174 174 172 172 172 
172 172 172 176 176 176 195 195 195 119 119 120 44 46 46 51 52 52 57 58 58 63 64 66 
69 70 72 75 76 77 80 81 82 84 85 87 86 88 89 92 93 94 93 94 96 97 99 100 
100 102 104 104 106 108 106 108 110 109 110 112 111 112 115 116 117 119 147 147 148 212 212 212 
205 205 205 202 202 202 203 203 203 204 204 204 207 207 207 207 207 207 210 210 210 210 210 210 
208 208 208 208 208 208 207 207 207 203 203 203 201 201 201 201 201 201 198 198 198 199 199 199 
200 200 200 196 196 196 195 195 195 193 193 193 188 188 188 188 188 188 201 201 201 203 203 203 
47 47 47 43 43 44 45 46 47 48 49 50 51 52 52 54 55 56 57 57 58 60 60 61 
59 60 61 61 61 62 61 62 63 60 61 62 59 60 61 58 59 60 55 56 57 54 55 56 
51 52 53 50 50 51 47 48 49 46 46 47 44 45 46 42 43 43 41 41 42 39 39 40 
37 38 38 35 36 36 34 34 35 32 32 33 32 32 33 29 29 30 28 28 29 27 28 28 
26 27 27 25 25 26 23 23 24 23 23 23 21 21 21 21 21 21 19 19 19 19 19 19 
18 18 18 21 21 21 36 37 37 36 36 36 36 36 36 35 35 35 55 37 38 249 62 69 
255 64 71 75 19 21 0 0 0 0 0 0 0 0 0 0 0 0 0 0 0 0 0 0 
0 0 0 0 0 0 
0 0 0 0 0 0 0 0 0 0 0 0 0 0 0 0 0 0 0 0 0 8 8 8 
163 94 94 255 146 146 194 116 116 29 29 29 29 29 29 28 28 28 29 29 29 26 26 26 
5 5 5 5 5 5 5 5 5 5 5 5 4 4 4 5 5 5 5 5 5 6 6 6 
5 5 5 6 6 6 6 6 6 6 6 6 7 7 7 6 6 6 5 5 5 6 6 6 
7 7 7 7 7 7 7 7 7 7 7 7 8 8 8 8 8 8 7 7 7 9 9 9 
9 9 9 9 9 10 10 10 10 10 10 11 10 10 10 12 12 12 12 12 12 13 13 13 
14 14 14 14 14 14 15 15 15 14 14 15 15 15 16 16 16 16 16 16 16 16 16 16 
15 15 15 14 14 14 21 21 21 186 186 186 180 180 180 166 166 166 168 168 168 166 166 166 
168 168 168 169 169 169 168 168 168 169 169 169 169 169 169 168 168 168 170 170 170 166 166 166 
169 169 169 169 169 169 168 168 168 171 171 171 169 169 169 169 169 169 170 170 170 171 171 171 
172 172 172 171 171 171 185 185 185 176 177 177 61 62 62 48 49 50 55 56 57 62 63 64 
68 69 70 74 75 76 78 79 81 83 85 86 87 88 90 92 94 95 95 96 97 99 100 102 
102 104 106 105 106 108 107 108 110 108 110 112 108 110 112 126 128 130 188 188 188 203 203 203 
200 200 200 194 194 194 200 200 200 203 203 203 207 207 207 204 204 204 207 207 207 209 209 209 
206 206 206 208 208 208 201 201 201 201 201 201 201 201 201 199 199 199 196 196 196 194 194 194 
193 193 193 192 192 192 191 191 191 189 189 189 188 188 188 193 193 193 222 222 223 69 70 70 
43 43 44 46 46 47 49 49 50 51 52 53 54 55 56 57 58 59 60 61 62 61 63 63 
61 62 63 62 63 64 61 62 63 59 60 61 58 59 60 55 56 57 54 55 56 51 52 53 
51 51 52 48 49 50 46 46 47 44 45 45 43 43 44 40 41 41 39 40 40 37 37 38 
35 36 36 34 34 34 33 34 34 31 32 32 30 31 31 28 28 29 27 27 27 26 26 27 
25 25 26 24 24 24 23 23 23 21 21 22 20 21 21 19 19 20 19 20 20 17 17 18 
18 18 18 16 16 16 30 30 30 35 35 35 35 35 35 33 33 33 33 33 33 168 49 54 
255 61 68 191 49 55 0 0 0 0 0 0 0 0 0 0 0 0 0 0 0 0 0 0 
0 0 0 0 0 0 
0 0 0 0 0 0 0 0 0 0 0 0 0 0 0 0 0 0 0 0 0 45 34 34 
250 138 139 255 142 143 92 61 62 30 30 30 31 31 31 30 30 30 30 30 30 15 15 15 
6 6 6 6 6 6 7 7 7 6 6 6 7 7 7 6 6 6 6 6 6 7 7 7 
7 7 7 7 7 7 7 7 7 7 7 7 7 7 7 8 8 8 7 7 7 8 8 8 
8 8 8 9 9 9 8 8 8 9 9 10 9 9 9 9 9 9 8 9 9 10 10 10 
10 10 10 11 11 11 11 11 11 12 12 12 12 12 12 13 14 14 14 14 14 14 14 14 
15 15 15 15 15 15 16 16 16 17 17 17 17 17 17 17 17 18 18 18 18 17 17 17 
17 17 18 17 17 17 16 16 17 52 52 52 194 194 194 169 169 169 164 164 164 164 164 164 
163 163 163 164 164 164 164 164 164 164 164 164 164 164 164 166 166 166 167 167 167 167 167 167 
167 167 167 168 168 168 166 166 166 167 167 167 166 166 166 167 167 167 169 169 169 169 169 169 
168 168 168 166 166 166 177 177 177 188 188 188 131 132 132 48 48 50 54 55 55 62 62 63 
67 68 70 74 75 76 79 80 82 85 86 88 89 90 92 93 95 97 98 100 101 101 102 104 
104 106 108 107 109 111 109 111 113 111 112 114 119 120 121 150 151 151 205 205 205 193 193 193 
193 193 193 193 193 193 197 197 197 198 198 198 200 200 200 202 202 202 206 206 206 201 201 201 
205 205 205 202 202 202 197 197 197 195 195 195 200 200 200 194 194 194 192 192 192 191 191 191 
188 188 188 190 190 190 187 187 187 189 189 189 187 187 187 220 220 220 118 118 118 43 44 44 
46 46 47 48 49 50 52 53 54 55 55 57 58 59 61 61 61 62 62 62 64 63 64 66 
63 64 65 63 64 65 62 63 64 60 62 63 59 60 61 57 58 59 55 56 57 52 53 54 
51 51 53 48 49 50 47 47 48 45 46 47 43 43 44 41 42 43 39 40 40 37 38 38 
36 36 37 34 35 35 34 34 35 32 32 33 31 31 32 28 28 29 28 29 29 27 27 28 
25 25 26 24 24 25 23 23 24 22 22 22 21 21 21 20 20 20 20 20 20 18 18 18 
17 17 17 16 16 17 22 22 22 36 37 37 36 36 36 36 36 36 34 34 34 70 38 40 
255 57 65 255 59 67 50 12 13 0 0 0 0 0 0 0 0 0 0 0 0 0 0 0 
0 0 0 0 0 0 
0 0 0 0 0 0 0 0 0 0 0 0 0 0 0 0 0 0 6 6 6 130 72 73 
255 138 139 215 120 120 29 28 28 28 28 28 29 29 29 28 28 28 26 26 26 5 5 5 
4 4 4 4 4 4 5 5 5 5 5 5 4 4 4 5 5 5 4 4 4 5 5 5 
5 5 5 6 6 6 5 5 6 5 5 5 6 6 6 5 5 5 5 5 5 6 6 6 
7 7 7 7 7 7 7 7 7 7 7 7 7 7 7 8 8 8 9 9 9 8 8 8 
8 8 9 10 10 10 10 10 10 11 11 11 11 11 12 12 12 12 13 13 13 12 12 12 
13 13 13 15 15 15 14 14 15 16 16 17 17 17 17 16 16 16 18 18 18 17 17 17 
17 17 17 17 17 17 17 17 17 16 16 17 105 105 105 191 191 191 174 174 174 173 173 173 
175 175 175 174 174 174 177 177 177 175 175 175 176 176 176 177 177 177 175 175 175 175 175 175 
178 178 178 176 176 176 175 175 175 180 180 180 180 180 180 181 181 181 181 181 181 182 182 182 
182 182 182 182 182 182 186 186 186 191 191 191 193 193 193 75 75 76 52 52 53 58 59 60 
65 65 67 72 73 74 78 79 81 84 85 87 89 90 92 93 94 95 97 99 101 100 102 103 
104 105 107 106 107 109 108 110 112 108 110 112 130 131 133 206 206 206 212 212 212 205 205 205 
207 207 207 207 207 207 208 208 208 212 212 212 216 216 216 217 217 217 218 218 218 213 213 213 
215 215 215 214 214 214 208 208 208 213 213 213 206 206 206 203 203 203 204 204 204 202 202 202 
199 199 199 201 201 201 198 198 198 197 197 197 210 210 210 175 175 175 42 43 44 45 45 46 
48 48 49 51 51 52 54 54 56 57 57 59 60 61 62 62 63 64 62 63 65 63 64 65 
64 65 66 62 63 64 61 62 63 58 59 60 57 58 59 54 56 57 52 53 54 50 50 51 
48 49 49 47 47 48 45 45 46 43 43 44 40 41 41 39 39 40 37 37 38 34 35 36 
34 34 34 32 33 33 30 31 31 29 30 30 28 28 28 27 27 27 25 25 26 25 25 25 
24 24 24 23 23 23 21 21 22 20 21 21 19 19 20 17 18 18 17 17 18 17 18 18 
17 17 17 15 15 15 14 14 14 30 30 30 34 34 34 34 34 34 33 33 33 33 33 33 
189 48 53 255 56 64 159 38 42 0 0 0 0 0 0 0 0 0 0 0 0 0 0 0 
0 0 0 0 0 0 
0 0 0 0 0 0 0 0 0 0 0 0 0 0 0 0 0 0 22 21 21 227 119 121 
255 135 136 123 73 74 29 29 29 31 31 31 30 30 30 30 30 30 17 17 17 5 5 5 
6 6 6 5 5 5 6 6 6 6 6 6 6 6 6 6 6 6 5 5 5 6 6 6 
6 6 6 7 7 7 7 7 7 7 7 7 7 7 7 7 7 7 7 7 8 8 8 8 
7 7 7 8 8 8 8 8 9 9 9 9 9 9 9 9 9 9 10 10 10 10 10 10 
11 11 11 11 11 11 12 12 12 11 11 11 13 13 13 13 13 13 14 14 14 15 15 15 
14 14 14 15 15 15 17 17 17 17 18 18 17 18 18 19 19 20 18 18 18 19 19 20 
19 20 20 19 20 20 18 18 19 19 19 19 16 17 17 171 171 171 188 188 188 172 172 172 
171 171 171 172 172 172 175 175 175 172 172 172 172 172 172 174 174 174 174 174 174 175 175 175 
172 172 172 179 179 179 175 175 175 177 177 177 178 178 178 178 178 178 179 179 179 181 181 181 
175 175 175 180 180 180 181 181 181 179 179 179 195 195 195 150 151 151 50 51 52 57 58 59 
65 66 67 72 72 73 79 80 81 84 85 87 90 91 93 94 95 97 99 100 102 102 104 106 
106 108 110 108 110 112 108 110 112 118 119 122 167 167 168 212 212 212 202 202 202 208 208 208 
207 207 207 207 207 207 210 210 210 208 208 208 213 213 213 219 219 219 213 213 213 209 209 209 
208 208 208 212 212 212 205 205 205 206 206 206 201 201 201 201 201 201 199 199 199 198 198 198 
198 198 198 198 198 198 195 195 195 200 200 200 219 219 219 56 56 57 45 46 47 48 48 49 
50 52 53 54 55 57 58 59 60 60 61 63 63 64 65 64 64 66 65 66 66 64 65 66 
64 65 66 62 63 64 60 61 62 59 60 61 57 58 59 55 56 57 52 52 53 51 51 52 
47 48 49 46 46 47 44 45 46 43 43 44 41 41 42 39 40 41 37 38 38 36 36 37 
34 35 35 33 33 34 31 31 32 30 31 31 28 28 29 28 28 29 26 27 27 24 25 25 
23 23 24 23 23 24 22 22 22 21 22 22 20 20 20 19 19 19 18 18 18 17 17 18 
16 16 17 15 15 15 15 15 15 21 21 21 35 35 36 34 34 34 33 33 34 33 33 33 
97 38 41 255 53 61 246 53 60 13 3 3 0 0 0 0 0 0 0 0 0 0 0 0 
0 0 0 0 0 0 
0 0 0 0 0 0 0 0 0 0 0 0 0 0 0 0 0 0 82 47 47 255 130 132 
247 127 129 41 35 35 29 29 29 29 29 29 29 29 29 28 28 28 7 7 7 5 5 5 
5 5 5 5 5 5 5 5 5 5 5 5 5 5 5 5 5 5 5 5 5 5 5 5 
6 6 6 7 7 7 6 6 6 7 7 7 7 7 7 6 6 6 7 7 7 8 8 8 
7 7 7 7 7 7 8 8 8 9 9 9 8 8 8 9 9 9 9 9 9 9 9 10 
11 11 11 10 10 11 10 10 11 11 11 12 12 12 12 13 13 13 13 13 13 13 13 13 
13 14 14 14 14 15 16 16 16 17 18 18 18 18 18 19 19 19 18 18 19 20 20 20 
20 20 20 20 20 20 20 20 20 19 20 20 19 20 20 41 42 42 189 189 189 173 173 173 
166 166 166 167 167 167 168 168 168 167 167 167 167 167 167 168 168 168 170 170 170 171 171 171 
168 168 168 169 169 169 171 171 171 170 170 170 174 174 174 173 173 173 172 172 172 175 175 175 
174 174 174 173 173 173 178 178 178 174 174 174 182 182 182 193 193 193 88 88 89 54 55 56 
63 64 64 70 70 72 77 77 79 84 85 86 90 91 92 96 97 99 100 101 103 104 105 107 
106 107 109 109 111 113 107 109 111 131 132 133 205 205 205 201 201 201 198 198 198 201 201 201 
205 205 205 204 204 204 206 206 206 207 207 207 207 207 207 210 210 210 207 207 207 204 204 204 
207 207 207 203 203 203 198 198 198 198 198 198 199 199 199 197 197 197 198 198 198 194 194 194 
191 191 191 191 191 191 189 189 189 221 221 221 109 109 110 44 45 46 46 47 48 50 51 51 
54 54 55 57 58 59 61 61 62 62 63 65 64 64 65 65 66 68 64 66 67 63 64 65 
63 64 65 61 62 63 59 60 61 57 58 59 54 55 56 52 53 54 50 50 51 48 49 49 
47 47 48 44 45 45 43 43 44 40 41 41 40 40 41 38 38 39 36 37 37 35 36 36 
32 33 33 32 32 33 30 31 31 29 29 30 28 28 28 26 27 27 24 24 25 24 24 24 
23 24 24 22 22 23 21 22 22 20 20 21 18 19 19 17 17 18 17 17 17 16 16 16 
15 15 15 15 15 15 14 14 14 14 14 14 31 31 31 34 34 34 33 33 33 33 33 33 
35 32 32 231 48 55 255 51 59 102 21 24 0 0 0 0 0 0 0 0 0 0 0 0 
0 0 0 0 0 0 
0 0 0 0 0 0 0 0 0 0 0 0 0 0 0 14 14 14 176 88 89 255 127 129 
171 91 92 29 29 29 29 29 29 29 29 29 28 28 28 20 20 20 6 6 6 5 5 5 
5 5 5 5 5 5 5 5 5 5 5 5 5 5 5 5 5 5 6 6 6 7 7 7 
6 6 6 6 6 6 5 5 5 5 5 5 6 6 6 6 6 7 7 7 7 7 7 7 
7 7 7 7 7 8 8 8 8 8 8 8 8 8 8 8 8 8 9 9 9 9 9 9 
10 10 10 10 10 10 11 11 11 12 12 12 12 12 12 12 12 12 14 14 14 13 13 13 
15 15 15 16 16 16 17 17 17 17 17 17 18 18 19 19 19 19 19 20 20 20 20 20 
20 20 21 20 20 21 22 22 22 20 21 21 20 21 21 19 20 20 119 119 119 186 186 186 
167 167 167 163 163 163 165 165 165 163 163 163 168 168 168 166 166 166 167 167 167 168 168 168 
165 165 165 168 168 168 169 169 169 167 167 167 169 169 169 170 170 170 174 174 174 170 170 170 
170 170 170 173 173 173 174 174 174 177 177 177 175 175 175 185 185 185 156 156 156 57 57 58 
60 61 62 68 69 71 75 76 78 83 84 86 89 90 92 95 96 98 101 102 104 104 106 108 
105 107 109 108 110 112 122 123 125 169 170 170 205 205 205 194 194 194 198 198 198 197 197 197 
196 196 196 201 201 201 207 207 207 207 207 207 204 204 204 201 201 201 203 203 203 201 201 201 
202 202 202 201 201 201 192 192 192 197 197 197 192 192 192 192 192 192 194 194 194 190 190 190 
188 188 188 187 187 187 199 199 199 179 179 179 44 45 45 47 47 48 50 51 52 53 54 55 
56 58 59 60 62 62 63 64 65 64 65 66 65 65 67 65 66 67 65 66 67 66 67 68 
61 62 63 61 62 63 59 60 61 56 57 58 54 55 56 52 53 54 50 51 52 48 49 50 
46 46 47 44 45 45 41 41 42 40 40 41 38 39 39 37 38 38 36 36 37 33 34 34 
33 33 34 31 31 32 30 30 31 28 28 29 27 27 28 25 26 26 24 25 25 23 23 24 
22 22 23 21 21 21 21 21 21 19 20 20 19 19 19 17 17 17 16 16 17 15 15 16 
15 15 15 14 14 14 13 13 13 13 13 14 23 23 23 33 33 33 33 33 33 33 33 33 
31 31 31 144 40 44 255 49 57 207 43 49 0 0 0 0 0 0 0 0 0 0 0 0 
0 0 0 0 0 0 
0 0 0 0 0 0 0 0 0 0 0 0 0 0 0 37 27 28 251 121 123 255 124 126 
82 52 53 31 31 31 32 32 32 30 30 30 31 31 31 13 13 13 7 7 7 7 7 7 
7 7 7 7 7 7 7 7 7 7 7 7 8 8 8 7 7 7 8 8 8 9 9 9 
8 8 8 9 9 9 8 8 8 8 8 8 9 9 9 9 9 9 10 10 10 9 9 9 
9 9 9 10 10 10 10 10 10 10 10 10 11 11 11 11 11 11 12 12 13 12 12 12 
12 12 13 13 13 13 13 13 14 13 13 14 15 15 15 15 15 15 16 16 16 17 17 17 
17 17 18 18 18 18 19 19 19 19 19 19 21 21 21 21 22 22 22 22 22 23 24 24 
24 24 24 24 24 24 25 25 25 24 24 25 23 24 24 22 23 23 27 27 27 169 169 169 
181 181 181 171 171 171 169 169 169 172 172 172 176 176 176 175 175 175 175 175 175 171 171 171 
174 174 174 178 178 178 175 175 175 172 172 172 175 175 175 177 177 177 177 177 177 176 176 176 
186 186 186 180 180 180 180 180 180 177 177 177 181 181 181 189 189 189 200 200 200 105 105 106 
59 59 61 67 68 70 75 76 78 84 85 85 90 91 92 97 98 101 101 103 105 106 107 109 
107 109 111 111 113 116 139 139 140 213 213 213 203 203 203 203 203 203 206 206 206 207 207 207 
207 207 207 208 208 208 208 208 208 211 211 211 216 216 216 211 211 211 214 214 214 209 209 209 
207 207 207 207 207 207 203 203 203 203 203 203 202 202 202 197 197 197 195 195 195 197 197 197 
198 198 198 200 200 200 219 219 219 63 63 64 47 48 48 51 51 52 54 55 55 58 59 60 
61 61 63 64 65 66 67 67 69 68 69 70 68 69 71 67 69 70 67 68 69 65 66 68 
63 63 64 62 63 64 59 60 61 56 57 58 55 56 57 53 53 54 51 52 52 48 49 50 
46 46 47 45 45 46 43 44 44 41 41 42 41 41 42 37 38 38 36 37 37 34 35 35 
34 34 35 32 33 33 31 32 32 31 31 31 27 28 28 27 27 28 26 26 27 25 25 25 
24 24 24 23 24 24 22 22 22 21 22 22 20 20 20 19 19 19 19 19 19 17 17 17 
16 16 16 16 17 17 16 16 16 14 14 14 16 16 17 35 35 35 35 36 36 35 35 35 
35 35 35 61 35 36 254 46 54 255 47 55 42 8 9 0 0 0 0 0 0 0 0 0 
0 0 0 0 0 0 
0 0 0 0 0 0 0 0 0 0 0 0 3 3 3 108 55 56 255 119 121 225 109 110 
29 29 29 29 29 29 29 29 29 29 29 29 25 25 25 4 4 4 5 5 5 5 5 5 
5 5 5 5 5 5 5 5 5 5 5 5 5 5 5 5 5 5 6 6 6 6 6 6 
7 7 7 7 7 7 6 6 6 6 6 6 6 6 6 8 8 8 7 7 7 7 7 7 
7 7 8 8 8 8 8 8 8 8 8 8 9 9 9 9 9 9 10 11 11 10 10 10 
11 11 11 12 12 12 12 12 12 12 12 12 13 13 13 13 13 13 14 14 14 15 15 15 
16 16 16 16 16 16 17 17 18 18 18 18 19 19 19 20 20 20 20 21 21 21 21 21 
21 21 22 23 23 24 23 23 23 24 24 25 23 23 24 23 23 23 23 23 24 90 90 91 
192 192 192 171 171 171 170 170 170 169 169 169 171 171 171 171 171 171 171 171 171 173 173 173 
174 174 174 172 172 172 172 172 172 173 173 173 172 172 172 175 175 175 174 174 174 177 177 177 
179 179 179 175 175 175 179 179 179 179 179 179 179 179 179 183 183 183 191 191 191 172 172 172 
61 62 63 63 65 66 72 73 74 80 81 82 88 89 91 94 95 97 100 102 104 103 105 107 
106 106 108 122 122 125 178 178 179 208 208 208 199 199 199 198 198 198 201 201 201 206 206 206 
204 204 204 206 206 206 206 206 206 210 210 210 210 210 210 207 207 207 207 207 207 205 205 205 
204 204 204 199 199 199 202 202 202 201 201 201 197 197 197 194 194 194 192 192 192 195 195 195 
192 192 192 209 209 209 122 122 122 46 46 47 49 49 50 52 53 54 56 56 57 59 60 61 
62 63 64 64 65 66 67 68 69 68 68 69 67 68 69 66 68 68 65 66 67 63 64 65 
61 62 63 58 59 60 57 58 59 54 54 56 51 52 53 50 50 51 47 48 49 46 46 47 
44 45 45 42 43 43 40 41 41 38 39 39 38 38 39 36 36 37 34 35 35 33 33 34 
31 32 32 30 30 31 29 29 29 27 27 28 26 26 27 24 25 25 23 23 24 22 23 23 
21 21 21 20 20 20 20 20 20 19 19 19 17 17 17 16 16 17 16 16 17 15 16 15 
15 15 15 13 13 13 13 13 14 12 12 12 12 12 12 27 27 27 32 32 32 33 33 33 
31 31 31 32 32 32 199 41 47 255 45 53 132 24 28 0 0 0 0 0 0 0 0 0 
0 0 0 0 0 0 
0 0 0 0 0 0 0 0 0 0 0 0 14 14 14 186 86 87 255 116 118 150 77 78 
29 29 29 29 29 29 29 29 29 29 29 29 16 16 16 6 6 6 5 5 5 6 6 6 
6 6 6 5 5 5 6 6 6 6 6 6 6 6 6 6 6 6 7 7 7 6 6 6 
7 7 7 6 6 6 7 7 7 7 7 7 8 8 8 8 8 8 8 8 8 8 8 8 
8 8 8 9 9 9 9 9 9 9 10 10 9 9 9 10 10 10 10 10 10 11 11 11 
12 12 12 12 12 12 12 13 13 13 13 13 13 13 13 15 15 15 14 15 15 15 15 16 
16 16 16 17 17 17 18 18 18 19 19 19 20 21 21 22 22 22 21 22 22 23 23 23 
24 24 24 24 24 24 25 25 26 25 26 26 26 26 26 24 25 25 24 25 25 23 23 24 
158 158 158 182 182 182 171 171 171 173 173 173 172 172 172 172 172 172 171 171 171 175 175 175 
174 174 174 174 174 174 178 178 178 177 177 177 174 174 174 175 175 175 173 173 173 176 176 176 
178 178 178 179 179 179 178 178 178 178 178 178 184 184 184 181 181 181 184 184 184 198 198 198 
125 125 126 62 62 63 70 70 71 78 80 80 86 87 89 92 94 96 99 101 103 102 103 105 
108 109 111 140 140 141 209 209 209 203 203 203 200 200 200 200 200 200 205 205 205 204 204 204 
207 207 207 212 212 212 211 211 211 208 208 208 212 212 212 210 210 210 209 209 209 203 203 203 
207 207 207 206 206 206 200 200 200 200 200 200 200 200 200 195 195 195 196 196 196 194 194 194 
201 201 201 194 194 194 45 46 46 47 48 49 52 52 53 55 56 57 59 59 61 61 62 63 
65 66 67 66 67 69 68 69 70 67 68 70 67 68 69 66 67 68 64 66 67 63 64 65 
60 62 63 58 59 60 56 57 58 53 54 55 51 51 53 49 50 50 47 48 49 45 46 47 
44 45 46 43 44 44 40 40 41 38 39 40 36 37 37 35 36 36 33 34 34 32 32 33 
31 32 32 30 30 31 28 29 29 26 27 27 25 25 26 25 25 26 24 24 24 23 23 23 
21 22 22 21 21 21 19 20 20 19 19 19 17 17 17 17 17 17 15 16 16 15 15 16 
14 15 15 14 14 14 13 13 13 13 13 13 13 13 13 18 18 19 33 33 33 34 34 34 
33 33 33 31 31 31 123 36 39 255 42 51 218 40 46 0 0 0 0 0 0 0 0 0 
0 0 0 0 0 0 
0 0 0 0 0 0 0 0 0 0 0 0 38 26 27 251 111 113 255 113 116 75 47 47 
30 30 30 30 30 30 30 30 30 30 30 30 8 8 8 7 7 7 6 6 6 6 6 6 
5 5 5 6 6 6 6 6 6 6 6 6 5 5 5 6 6 6 7 7 7 7 7 7 
7 7 7 7 7 7 7 7 7 7 7 7 8 8 8 8 8 8 9 9 9 9 9 9 
9 9 9 9 9 9 9 9 9 10 10 10 10 10 10 11 11 11 11 11 11 12 12 12 
12 12 12 13 13 13 13 13 13 13 14 14 14 14 15 15 15 15 16 16 16 17 17 17 
17 17 18 18 18 19 19 19 19 19 20 20 21 21 21 22 22 22 23 23 23 24 24 25 
25 25 26 25 26 26 26 27 27 26 27 27 26 26 27 27 28 28 26 26 27 26 26 26 
69 69 70 184 184 184 173 173 173 169 169 169 171 171 171 169 169 169 165 165 165 168 168 168 
166 166 166 169 169 169 168 168 168 171 171 171 171 171 171 170 170 170 173 173 173 175 175 175 
174 174 174 173 173 173 178 178 178 174 174 174 180 180 180 178 178 178 180 180 180 184 184 184 
178 178 178 75 76 77 68 69 71 76 76 78 84 85 87 91 92 94 98 99 101 100 102 105 
122 123 125 185 185 186 198 198 198 195 195 195 197 197 197 196 196 196 200 200 200 204 204 204 
203 203 203 206 206 206 208 208 208 204 204 204 205 205 205 202 202 202 202 202 202 199 199 199 
198 198 198 196 196 196 191 191 191 193 193 193 192 192 192 190 190 190 189 189 189 189 189 189 
213 213 213 81 81 82 47 48 49 51 51 52 55 55 56 58 59 60 62 62 63 64 65 66 
68 68 69 68 69 71 69 71 72 69 70 71 68 69 70 66 67 68 63 64 65 62 64 65 
59 60 61 57 58 59 55 56 57 52 53 54 51 51 52 49 50 51 46 46 47 44 46 46 
42 42 43 42 43 43 40 41 41 38 38 39 36 36 37 36 36 36 33 34 34 31 32 32 
31 31 32 30 30 30 29 29 30 28 28 29 25 26 26 25 25 25 23 23 24 23 23 24 
21 21 21 20 20 21 19 19 19 19 19 20 17 17 18 17 17 17 17 17 17 15 16 16 
15 15 15 14 14 15 14 14 14 12 12 12 13 13 13 12 12 12 33 33 33 33 33 33 
34 34 34 32 32 32 52 34 34 253 40 49 255 41 50 45 7 9 0 0 0 0 0 0 
0 0 0 0 0 0 
0 0 0 0 0 0 0 0 0 0 0 0 110 52 53 255 109 112 223 99 101 30 30 30 
30 30 30 30 30 30 30 30 30 25 25 25 6 6 6 7 7 7 6 6 6 6 6 6 
6 6 6 6 6 6 5 5 5 6 6 6 6 6 6 8 8 8 7 7 7 7 7 7 
7 7 7 7 7 7 7 7 7 9 9 9 8 8 8 8 8 8 9 9 9 9 9 9 
9 9 9 9 9 9 9 10 10 11 11 11 10 10 11 11 11 11 11 11 11 12 12 12 
12 12 12 13 13 13 12 12 13 14 14 14 14 14 14 15 16 16 15 15 15 17 17 17 
17 18 18 18 18 18 18 18 19 20 21 21 21 21 22 22 23 23 23 23 24 24 24 24 
26 26 26 27 27 28 27 28 28 28 29 29 28 28 29 28 29 29 29 29 30 27 28 29 
26 27 27 146 146 146 190 190 190 174 174 174 173 173 173 176 176 176 171 171 171 172 172 172 
174 174 174 175 175 175 175 175 175 178 178 178 177 177 177 177 177 177 181 181 181 183 183 183 
184 184 184 183 183 183 183 183 183 181 181 181 182 182 182 185 185 185 187 187 187 188 188 188 
200 200 200 142 142 143 64 65 66 74 75 77 80 82 84 89 90 92 94 95 97 107 109 111 
150 150 150 213 213 213 202 202 202 204 204 204 207 207 207 207 207 207 208 208 208 210 210 210 
207 207 207 213 213 213 214 214 214 215 215 215 213 213 213 210 210 210 208 208 208 206 206 206 
201 201 201 203 203 203 202 202 202 200 200 200 201 201 201 198 198 198 197 197 197 206 206 206 
164 164 164 46 47 48 50 50 51 54 54 55 56 57 58 61 61 63 64 64 66 66 68 69 
68 69 71 70 71 72 68 70 71 69 70 71 67 69 70 64 66 67 64 65 66 61 62 63 
59 60 61 57 58 59 54 55 56 53 53 54 50 51 51 48 49 50 46 46 47 44 45 46 
42 43 43 41 41 42 39 40 41 37 38 38 35 36 36 34 34 35 33 33 34 32 32 33 
30 30 31 29 29 30 28 29 29 26 27 27 25 25 26 24 24 24 23 23 24 22 23 23 
21 22 22 20 20 20 18 19 19 18 19 19 17 17 17 16 16 16 16 16 17 15 16 16 
15 15 15 14 14 14 14 14 14 13 13 13 12 12 13 12 12 12 25 25 25 33 34 33 
33 33 33 33 33 33 32 32 32 197 36 43 255 39 47 131 21 25 0 0 0 0 0 0 
0 0 0 0 0 0 
0 0 0 0 0 0 0 0 0 12 12 12 177 75 76 255 106 109 151 72 73 30 30 30 
30 30 30 30 30 30 30 30 30 16 16 16 5 5 5 6 6 6 5 5 5 6 6 6 
7 7 7 6 6 6 6 6 6 6 6 6 6 6 6 7 7 7 7 7 7 7 7 7 
7 7 7 6 6 6 7 7 7 8 8 8 7 7 7 7 7 7 7 7 7 8 8 8 
9 9 9 9 9 9 10 10 10 10 10 10 10 10 11 11 11 11 11 11 11 11 11 11 
11 11 12 13 13 13 14 14 14 14 14 15 14 15 14 15 15 15 15 15 15 16 17 17 
18 18 19 19 19 19 19 20 20 20 20 20 21 21 21 22 22 22 24 24 25 24 24 25 
25 26 26 26 27 27 28 28 29 29 29 30 30 30 30 29 29 30 30 30 31 29 29 30 
28 28 29 52 53 53 180 180 180 173 173 173 166 166 166 167 167 167 166 166 166 166 166 166 
168 168 168 168 168 168 168 168 168 172 172 172 171 171 171 172 172 172 172 172 172 171 171 171 
176 176 176 175 175 175 177 177 177 177 177 177 174 174 174 178 178 178 180 180 180 181 181 181 
188 188 188 191 191 191 85 86 87 70 71 72 77 78 80 85 87 88 90 92 94 113 114 116 
196 196 196 200 200 200 194 194 194 195 195 195 195 195 195 197 197 197 200 200 200 198 198 198 
201 201 201 202 202 202 207 207 207 205 205 205 206 206 206 201 201 201 202 202 202 200 200 200 
199 199 199 200 200 200 195 195 195 190 190 190 190 190 190 185 185 185 194 194 194 213 213 213 
56 57 58 49 49 50 52 52 54 56 56 58 59 60 61 64 65 65 65 66 68 69 70 71 
70 71 72 70 72 73 68 70 71 69 69 70 65 66 67 64 65 66 62 63 64 59 60 61 
58 59 60 55 56 57 52 53 54 51 51 52 48 49 50 47 48 48 46 47 47 43 44 45 
41 42 42 40 41 41 37 37 38 36 36 37 34 34 34 33 33 34 32 33 33 31 31 32 
29 29 29 27 27 28 27 27 28 25 26 26 25 25 25 23 23 24 22 22 23 21 21 21 
19 19 20 19 19 19 18 18 19 17 17 18 18 18 18 16 16 16 15 15 15 14 14 14 
15 15 15 14 14 14 13 13 14 12 12 12 11 11 12 12 12 12 17 17 17 33 33 33 
32 32 32 32 32 32 32 32 32 126 34 38 255 37 46 207 33 40 0 0 0 0 0 0 
0 0 0 0 0 0 
0 0 0 0 0 0 0 0 0 25 22 22 243 98 101 255 103 106 88 49 50 30 30 30 
30 30 30 30 30 30 30 30 30 8 8 8 6 6 6 5 5 5 6 6 6 6 6 6 
5 5 5 6 6 6 6 6 6 7 7 7 7 7 7 6 6 6 7 7 7 7 7 7 
7 7 7 7 7 7 7 7 8 7 7 7 8 8 8 8 8 8 8 8 9 9 9 9 
9 9 9 8 9 9 9 9 9 10 10 10 10 10 10 10 10 10 12 12 12 12 12 12 
13 13 13 13 13 14 14 14 14 15 15 15 15 16 15 15 15 15 16 16 17 17 17 18 
18 19 19 19 19 20 19 20 20 21 21 22 22 23 23 23 23 24 24 24 24 25 25 25 
26 26 27 27 27 28 30 30 30 29 29 29 30 31 31 30 31 31 30 31 31 32 32 32 
30 30 30 28 28 29 129 129 129 187 187 187 169 169 169 169 169 169 171 171 171 172 172 172 
172 172 172 172 172 172 176 176 176 175 175 175 172 172 172 173 173 173 175 175 175 176 176 176 
178 178 178 173 173 173 177 177 177 175 175 175 178 178 178 182 182 182 183 183 183 186 186 186 
185 185 185 199 199 199 155 155 156 70 71 72 73 74 76 82 83 84 97 99 100 148 149 149 
205 205 205 196 196 196 197 197 197 200 200 200 199 199 199 201 201 201 200 200 200 207 207 207 
207 207 207 207 207 207 207 207 207 205 205 205 205 205 205 202 202 202 199 199 199 201 201 201 
197 197 197 196 196 196 191 191 191 194 194 194 190 190 190 187 187 187 207 207 207 129 129 129 
48 48 49 51 52 53 55 56 56 59 59 60 62 62 64 66 67 68 68 69 70 69 70 72 
70 71 73 71 71 72 69 70 71 67 69 70 65 66 67 62 63 64 61 62 63 58 59 60 
56 57 58 53 54 55 52 52 53 49 50 51 47 48 49 46 46 47 44 45 46 42 43 43 
41 41 42 38 39 40 37 38 38 35 36 36 35 35 36 32 32 33 31 32 32 30 30 31 
28 29 29 26 27 27 26 27 27 24 25 25 24 24 25 22 23 23 21 22 22 21 21 21 
19 19 19 19 19 19 18 19 19 17 17 18 17 17 17 16 16 17 14 15 15 14 14 14 
14 14 14 14 14 14 12 12 12 11 11 12 11 11 11 11 11 12 13 13 13 33 33 33 
32 32 32 32 32 32 32 32 33 62 32 33 255 35 44 254 36 45 22 3 4 0 0 0 
0 0 0 0 0 0 
0 0 0 0 0 0 0 0 0 78 38 39 255 99 102 244 97 100 34 31 31 31 31 31 
30 30 30 30 30 30 25 25 25 6 6 6 6 6 6 6 6 6 5 5 5 6 6 6 
6 6 6 6 6 6 6 6 6 7 7 7 8 8 8 7 7 7 7 7 7 7 7 7 
7 7 7 7 7 7 7 7 7 8 8 8 7 7 7 8 8 9 9 9 9 9 9 9 
9 9 9 9 10 9 10 10 10 10 10 11 11 11 11 11 11 12 12 12 12 12 12 13 
12 13 13 14 14 14 14 14 15 15 15 15 16 16 16 16 16 17 17 17 18 18 18 19 
19 19 19 20 21 20 20 20 20 21 22 22 23 23 23 24 24 24 24 25 25 26 26 27 
27 28 28 28 28 29 29 30 30 31 32 32 31 31 32 33 33 34 32 32 33 33 33 34 
32 33 33 31 32 32 41 41 42 175 175 175 176 176 176 167 167 167 171 171 171 172 172 172 
169 169 169 171 171 171 172 172 172 170 170 170 172 172 172 171 171 171 172 172 172 173 173 173 
176 176 176 178 178 178 178 178 178 178 178 178 178 178 178 179 179 179 180 180 180 182 182 182 
186 186 186 188 188 188 199 199 199 105 105 106 70 71 72 77 78 80 111 112 113 199 199 199 
197 197 197 197 197 197 195 195 195 199 199 199 197 197 197 201 201 201 201 201 201 204 204 204 
206 206 206 204 204 204 204 204 204 206 206 206 201 201 201 195 195 195 195 195 195 195 195 195 
191 191 191 192 192 192 191 191 191 191 191 191 189 189 189 193 193 193 200 200 200 47 48 49 
49 50 51 53 54 55 57 58 59 60 61 63 65 66 67 67 68 69 70 71 72 71 72 73 
72 72 73 69 70 71 69 70 71 66 67 68 65 66 67 63 64 65 60 61 62 57 58 59 
56 57 58 53 54 55 52 52 53 49 50 51 47 47 48 45 46 46 44 44 45 41 42 42 
40 40 41 38 38 39 36 37 37 35 36 36 34 35 35 32 32 33 30 31 31 30 30 31 
28 28 28 28 28 29 25 26 26 25 25 25 23 23 24 22 23 23 22 22 22 21 21 22 
19 19 19 17 17 18 18 18 19 18 18 18 17 17 17 16 16 16 14 14 14 15 15 15 
14 14 14 13 13 14 12 12 12 12 13 13 11 11 11 11 11 11 11 11 11 25 25 25 
32 32 32 32 32 32 32 32 32 32 32 32 222 34 40 255 35 43 94 13 16 0 0 0 
0 0 0 0 0 0 
0 0 0 0 0 0 3 3 3 140 56 58 255 96 100 185 76 79 29 29 29 29 29 29 
29 29 29 29 29 29 17 17 17 5 5 5 5 5 5 5 5 5 5 5 5 6 6 6 
5 5 5 6 6 6 5 5 5 6 6 6 6 6 6 6 6 6 7 7 7 6 6 6 
6 6 6 7 7 7 7 7 7 7 7 7 7 7 7 7 7 8 9 9 9 9 9 9 
8 9 9 10 10 10 9 9 9 10 10 10 10 10 10 12 12 12 12 12 12 12 12 12 
12 12 13 13 13 13 14 14 14 14 15 14 15 15 15 17 17 17 17 17 17 18 18 18 
18 18 19 20 20 21 21 21 22 21 22 22 22 22 23 24 24 24 25 25 25 26 27 27 
28 28 29 29 29 29 30 30 30 31 32 32 31 32 32 33 34 34 33 33 33 34 35 35 
33 34 35 33 33 33 31 31 32 112 112 113 186 186 186 168 168 168 171 171 171 169 169 169 
169 169 169 170 170 170 171 171 171 172 172 172 174 174 174 170 170 170 175 175 175 173 173 173 
173 173 173 177 177 177 176 176 176 179 179 179 175 175 175 177 177 177 179 179 179 180 180 180 
183 183 183 185 185 185 198 198 198 173 174 174 71 71 72 92 92 93 160 160 160 201 201 201 
193 193 193 191 191 191 193 193 193 197 197 197 200 200 200 201 201 201 202 202 202 201 201 201 
207 207 207 206 206 206 203 203 203 204 204 204 199 199 199 197 197 197 192 192 192 195 195 195 
194 194 194 194 194 194 192 192 192 187 187 187 187 187 187 213 213 213 104 104 105 48 49 50 
52 52 53 56 56 57 60 60 62 63 63 65 66 68 68 68 70 71 70 71 73 71 72 73 
72 72 74 69 69 71 67 68 69 66 67 68 64 65 66 60 61 62 58 59 60 56 57 58 
54 55 56 53 53 54 50 50 51 48 49 50 46 46 47 43 44 45 42 42 43 40 40 41 
38 38 39 37 38 38 35 36 36 34 34 35 32 32 33 31 31 32 29 29 30 28 28 29 
26 27 27 26 27 27 25 25 26 23 24 24 22 23 23 22 22 22 21 21 21 20 20 20 
19 19 19 18 18 18 18 18 18 16 16 17 15 15 16 15 15 15 14 14 14 13 13 14 
13 13 13 12 12 12 11 11 12 11 11 11 11 11 11 10 10 10 10 10 10 19 19 19 
32 32 32 32 32 32 31 31 31 31 31 31 159 31 36 255 33 42 168 23 28 0 0 0 
0 0 0 0 0 0 
0 0 0 0 0 0 14 14 14 202 74 78 255 93 97 125 58 59 32 32 32 32 32 32 
32 32 32 32 32 32 14 14 14 8 8 8 8 8 8 8 8 8 7 7 7 9 9 9 
8 8 8 8 8 8 9 9 9 10 10 10 8 8 8 8 8 8 9 9 9 9 9 9 
10 10 10 10 10 10 10 10 10 9 9 9 10 10 10 11 11 11 11 11 11 12 12 12 
12 12 12 12 12 12 12 12 13 13 13 13 12 12 13 15 15 15 15 15 15 15 15 15 
15 15 15 16 16 17 17 17 17 18 18 18 18 18 19 19 19 20 20 20 20 20 20 20 
22 22 22 23 23 23 23 24 24 24 25 25 25 25 25 26 26 27 28 28 29 30 30 31 
29 30 30 32 32 33 32 32 33 34 34 35 35 35 36 37 37 38 37 38 38 37 38 38 
37 38 38 37 37 38 36 36 37 38 39 40 166 166 166 179 179 179 169 169 169 170 170 170 
169 169 169 173 173 173 172 172 172 172 172 172 175 175 175 173 173 173 175 175 175 174 174 174 
176 176 176 178 178 178 182 182 182 178 178 178 181 181 181 183 183 183 181 181 181 181 181 181 
182 182 182 183 183 183 188 188 188 201 201 201 128 129 129 113 114 115 207 207 207 194 194 194 
191 191 191 194 194 194 197 197 197 196 196 196 201 201 201 204 204 204 206 206 206 207 207 207 
210 210 210 204 204 204 206 206 206 199 199 199 199 199 199 197 197 197 195 195 195 197 197 197 
191 191 191 194 194 194 189 189 189 188 188 188 197 197 197 189 190 190 48 49 50 51 52 53 
56 57 58 60 61 62 64 65 66 68 69 70 70 71 73 73 73 74 74 75 76 73 74 75 
72 73 75 71 72 73 68 69 70 68 69 70 65 66 67 61 62 64 59 60 61 57 58 59 
55 55 57 54 54 55 51 51 53 49 49 51 47 48 48 46 46 47 43 44 44 42 42 43 
40 40 41 38 39 39 37 37 38 35 36 36 33 34 34 33 34 34 32 32 32 31 31 31 
29 29 30 28 28 29 27 27 27 26 26 26 25 25 26 24 25 25 22 22 23 21 22 22 
21 21 21 21 21 21 19 19 19 19 19 19 18 18 18 17 17 17 16 17 17 16 16 16 
15 15 16 15 15 15 14 14 14 14 14 14 13 13 13 13 13 13 12 12 12 14 14 14 
34 34 34 34 34 34 33 33 33 34 34 34 99 32 35 255 32 41 232 31 38 0 0 0 
0 0 0 0 0 0 
0 0 0 0 0 0 27 21 22 250 87 92 255 90 94 71 42 43 32 32 32 30 30 30 
31 31 31 28 28 28 7 7 7 7 7 7 7 7 7 7 7 7 7 7 7 6 6 6 
7 7 7 7 7 7 7 7 7 7 7 7 8 8 8 7 7 7 8 8 8 7 7 7 
7 7 8 9 9 9 9 9 9 9 9 9 9 9 10 9 9 9 10 10 10 10 11 11 
10 10 10 11 11 11 11 12 12 12 12 12 13 13 13 13 13 13 14 14 14 15 15 15 
14 14 14 15 15 15 15 15 15 16 16 16 17 17 17 18 18 18 19 19 20 19 19 20 
21 21 21 21 21 22 22 22 22 23 23 24 24 24 25 26 26 26 27 27 28 28 28 29 
29 29 30 31 32 32 32 33 33 33 34 34 35 36 36 36 36 36 37 38 38 38 38 39 
39 39 39 38 39 39 37 37 38 36 37 37 95 95 96 192 192 192 178 178 178 174 174 174 
175 175 175 178 178 178 176 176 176 176 176 176 177 177 177 177 177 177 179 179 179 181 181 181 
182 182 182 178 178 178 186 186 186 182 182 182 186 186 186 187 187 187 188 188 188 186 186 186 
188 188 188 188 188 188 189 189 189 201 201 201 192 192 193 181 182 182 207 207 207 198 198 198 
198 198 198 203 203 203 201 201 201 204 204 204 208 208 208 207 207 207 211 211 211 213 213 213 
211 211 211 210 210 210 206 206 206 206 206 206 205 205 205 201 201 201 198 198 198 194 194 194 
198 198 198 198 198 198 196 196 196 194 194 194 212 212 212 82 82 83 50 51 52 54 54 55 
58 58 59 61 62 63 65 65 67 69 70 71 71 72 73 72 73 75 72 73 74 72 72 74 
71 72 73 69 70 71 67 68 69 64 65 66 62 63 64 59 60 62 57 58 59 55 56 57 
54 54 55 51 51 52 49 50 51 47 48 49 45 46 47 44 44 45 42 42 43 40 41 41 
38 39 39 37 37 38 35 35 36 34 34 35 33 33 34 31 31 32 30 30 31 29 29 30 
27 28 28 26 26 27 24 25 25 23 24 24 23 23 23 22 22 22 20 20 20 20 20 20 
18 18 18 18 18 18 18 18 19 17 17 18 16 16 16 15 15 15 14 14 15 15 15 15 
13 13 13 13 13 14 12 12 12 11 11 12 11 11 11 11 11 12 10 10 10 11 11 11 
29 29 29 33 33 33 32 32 32 32 32 32 47 32 32 254 31 39 255 31 40 33 4 5 
0 0 0 0 0 0 
0 0 0 0 0 0 75 34 35 255 86 90 243 84 88 33 31 31 30 30 30 30 30 30 
30 30 30 23 23 23 6 6 6 6 6 6 6 6 6 7 7 7 7 7 7 7 7 7 
7 7 7 7 7 7 7 7 7 7 7 7 8 8 8 8 8 8 8 8 8 7 7 7 
9 9 9 9 9 9 9 9 9 8 8 8 9 9 9 10 10 10 10 10 10 11 11 11 
10 10 10 10 10 11 12 12 12 11 11 12 12 12 13 12 12 13 13 13 13 14 14 14 
14 14 14 16 17 17 16 17 17 16 16 17 17 17 18 18 18 19 19 19 19 20 21 21 
21 21 21 22 22 22 24 24 24 24 24 24 25 25 26 26 26 27 27 28 28 28 29 29 
30 30 31 30 31 31 33 33 34 34 34 35 36 36 37 37 38 38 38 39 39 40 40 41 
39 39 40 40 41 41 38 39 40 38 38 39 36 37 37 157 158 158 186 186 186 175 175 175 
176 176 176 179 179 179 176 176 176 176 176 176 178 178 178 178 178 178 176 176 176 181 181 181 
184 184 184 181 181 181 185 185 185 187 187 187 185 185 185 186 186 186 188 188 188 189 189 189 
192 192 192 191 191 191 192 192 192 197 197 197 206 206 206 210 210 210 199 199 199 200 200 200 
201 201 201 205 205 205 201 201 201 206 206 206 206 206 206 210 210 210 212 212 212 210 210 210 
210 210 210 208 208 208 204 204 204 204 204 204 203 203 203 199 199 199 198 198 198 197 197 197 
199 199 199 195 195 195 197 197 197 206 206 206 170 171 171 48 49 50 52 53 54 56 57 58 
60 61 62 65 66 67 67 68 69 70 71 72 72 73 74 74 75 76 71 73 74 71 72 74 
69 70 71 68 69 70 65 66 67 64 65 66 61 62 63 59 60 61 56 57 58 54 55 57 
52 52 53 50 51 51 49 49 50 46 46 47 44 44 45 42 43 43 41 41 42 39 39 40 
37 38 38 36 36 36 34 35 35 32 33 33 31 32 32 30 30 30 29 30 30 27 27 28 
27 27 28 26 26 26 24 24 25 23 23 24 21 22 22 20 21 21 19 20 20 19 19 20 
19 19 19 18 18 18 17 17 17 17 17 17 16 16 16 15 15 15 14 14 14 13 13 14 
14 14 14 12 12 12 12 12 12 11 11 11 11 12 12 11 11 11 10 10 10 10 11 11 
23 23 23 33 33 33 31 31 31 32 32 32 32 32 32 218 30 37 255 30 39 91 11 14 
0 0 0 0 0 0 
0 0 0 0 0 0 127 46 48 255 83 88 193 69 73 30 30 30 30 30 30 30 30 30 
30 30 30 18 18 18 6 6 6 6 6 6 6 6 6 6 6 6 6 6 6 7 7 7 
6 6 6 7 7 7 7 7 7 7 7 7 7 7 7 7 7 7 7 7 7 7 7 7 
8 8 8 8 8 8 8 8 8 8 8 9 9 9 9 9 9 9 9 9 9 11 11 11 
10 10 10 11 11 11 11 11 11 12 12 12 12 12 12 13 13 13 13 13 14 14 14 14 
14 14 14 15 15 15 16 16 16 17 17 17 18 18 18 17 17 18 19 20 20 20 20 20 
21 22 22 22 22 22 23 23 24 23 23 24 26 26 26 26 27 27 28 28 29 29 29 30 
30 30 30 31 32 32 33 34 34 34 34 35 37 37 37 38 38 39 39 39 40 40 41 41 
40 41 41 42 42 43 41 42 42 41 41 42 39 39 40 74 74 75 188 188 188 176 176 176 
172 172 172 172 172 172 170 170 170 174 174 174 172 172 172 177 177 177 178 178 178 178 178 178 
177 177 177 178 178 178 180 180 180 181 181 181 185 185 185 183 183 183 183 183 183 184 184 184 
191 191 191 188 188 188 188 188 188 192 192 192 194 194 194 199 199 199 192 192 192 191 191 191 
197 197 197 195 195 195 199 199 199 204 204 204 202 202 202 207 207 207 212 212 212 209 209 209 
208 208 208 206 206 206 203 203 203 199 199 199 197 197 197 198 198 198 195 195 195 194 194 194 
188 188 188 191 191 191 193 193 193 214 214 214 67 67 68 50 51 52 54 55 56 58 59 60 
63 63 65 67 68 70 70 71 72 72 73 74 73 74 76 72 73 75 72 72 74 71 72 73 
68 69 70 67 68 69 64 65 66 61 63 64 59 60 62 57 58 59 55 56 57 53 53 54 
51 51 52 49 50 51 47 47 48 45 46 47 43 43 44 41 42 43 39 40 40 37 38 38 
36 36 37 35 35 36 34 34 35 32 32 33 31 31 32 29 29 30 28 28 29 26 27 27 
25 26 26 25 25 26 23 23 24 22 22 22 21 21 21 21 21 21 20 20 20 19 19 19 
17 17 18 17 17 18 17 17 17 16 16 16 15 15 15 14 14 15 14 14 14 12 12 12 
12 12 13 12 12 12 11 11 12 11 11 11 10 10 10 10 10 10 9 9 9 9 9 9 
17 17 17 31 31 31 32 32 32 32 32 32 31 31 31 165 30 35 255 29 38 152 18 23 
0 0 0 0 0 0 
0 0 0 8 8 8 180 58 62 255 80 85 140 54 57 30 30 30 30 30 30 30 30 30 
30 30 30 12 12 12 6 6 6 6 6 6 6 6 6 6 6 6 7 7 7 6 6 6 
7 7 7 7 7 7 7 7 7 7 7 7 7 7 7 7 7 7 7 7 7 8 8 8 
8 8 8 8 8 8 7 7 7 9 9 9 9 9 9 8 8 8 10 10 10 10 10 10 
10 10 11 11 11 11 11 11 12 12 12 12 12 12 13 13 13 13 14 14 14 14 14 14 
15 15 15 15 16 16 16 16 16 16 17 17 18 18 19 19 19 19 19 20 20 19 20 20 
22 22 22 22 23 23 23 23 23 24 24 24 25 25 26 26 27 27 28 29 29 30 30 31 
30 30 31 32 33 33 33 33 34 35 35 36 36 37 37 37 39 39 39 40 40 41 41 42 
41 42 42 41 42 43 42 43 44 42 43 44 40 41 41 40 40 40 147 147 148 188 188 188 
174 174 174 175 175 175 174 174 174 175 175 175 178 178 178 179 179 179 178 178 178 177 177 177 
178 178 178 180 180 180 185 185 185 187 187 187 185 185 185 184 184 184 185 185 185 189 189 189 
190 190 190 190 190 190 190 190 190 193 193 193 193 193 193 194 194 194 196 196 196 199 199 199 
204 204 204 199 199 199 204 204 204 205 205 205 209 209 209 208 208 208 209 209 209 210 210 210 
210 210 210 203 203 203 205 205 205 201 201 201 200 200 200 200 200 200 201 201 201 194 194 194 
191 191 191 190 190 190 206 206 206 159 159 159 49 50 51 53 54 55 57 58 59 61 61 62 
65 65 67 68 69 70 71 72 73 71 72 74 72 72 74 72 74 75 71 72 74 68 69 70 
68 69 70 64 65 67 63 64 65 60 61 62 58 59 60 55 56 57 53 54 55 52 52 53 
50 51 51 48 48 49 45 46 47 44 44 45 42 43 43 40 41 41 39 39 40 36 37 37 
35 36 36 33 34 34 33 33 34 30 31 31 29 30 30 29 29 29 26 27 27 26 26 27 
25 25 25 24 24 24 21 21 22 21 22 22 20 20 21 19 20 20 18 18 19 18 18 18 
17 17 17 16 16 16 15 16 15 15 16 16 14 14 14 13 13 13 12 12 13 12 12 12 
11 11 11 12 12 12 10 10 10 10 10 10 10 10 10 9 9 9 9 9 9 9 9 9 
13 13 13 31 31 31 31 31 31 30 30 30 31 31 31 114 30 33 255 28 37 207 25 32 
0 0 0 0 0 0 
0 0 0 16 16 16 225 69 74 255 78 83 97 45 46 30 30 30 30 30 30 30 30 30 
30 30 30 6 6 6 6 6 6 6 6 6 6 6 6 6 6 6 6 6 6 6 6 6 
7 7 7 7 7 7 6 6 7 8 8 8 7 7 7 7 7 7 7 7 8 8 8 8 
8 8 8 8 8 8 7 7 8 9 9 9 9 9 9 9 9 9 10 10 10 10 10 10 
10 10 11 11 11 11 11 11 12 12 12 12 12 12 12 13 13 13 13 13 13 14 14 14 
15 15 15 15 15 15 17 17 17 17 17 17 18 18 19 19 19 20 20 21 21 20 20 21 
21 21 21 23 23 24 23 23 24 25 26 26 26 27 27 26 27 27 29 29 30 30 30 30 
31 32 32 33 34 34 34 34 35 36 36 36 37 37 38 39 39 40 39 40 40 42 42 42 
42 43 44 43 44 44 45 45 46 45 45 47 43 44 45 42 42 43 59 60 61 181 181 181 
176 176 176 171 171 171 171 171 171 173 173 173 172 172 172 170 170 170 173 173 173 175 175 175 
173 173 173 174 174 174 180 180 180 176 176 176 176 176 176 180 180 180 185 185 185 184 184 184 
184 184 184 184 184 184 188 188 188 187 187 187 189 189 189 188 188 188 189 189 189 191 191 191 
194 194 194 195 195 195 201 201 201 201 201 201 203 203 203 207 207 207 205 205 205 201 201 201 
201 201 201 198 198 198 193 193 193 197 197 197 195 195 195 193 193 193 191 191 191 187 187 187 
188 188 188 188 188 188 212 212 212 59 59 61 51 52 53 55 56 57 59 60 61 63 64 66 
67 67 69 70 71 72 72 73 74 72 73 75 73 74 76 73 73 75 71 72 73 68 69 70 
66 68 69 64 65 66 62 63 64 59 60 61 57 58 59 55 56 57 52 53 55 50 50 51 
49 50 51 47 47 48 44 45 45 43 43 44 41 42 42 39 40 40 38 39 39 36 37 37 
35 35 36 34 34 35 31 31 32 30 31 31 29 29 30 28 28 29 26 27 27 25 25 26 
24 24 25 23 24 24 22 22 22 21 21 21 21 21 21 19 19 19 18 18 18 18 18 19 
16 17 17 16 16 16 16 16 16 14 14 14 13 13 14 14 14 14 12 12 12 12 12 12 
11 11 12 12 12 12 11 11 11 11 11 11 9 9 9 9 9 9 9 9 9 8 8 8 
9 9 9 28 28 28 31 31 31 31 31 31 31 31 31 71 30 32 255 27 36 250 28 37 
4 0 1 0 0 0 
0 0 0 29 20 20 255 74 79 255 75 80 57 36 37 31 31 31 31 31 31 30 30 30 
27 27 27 7 7 7 6 6 6 6 6 6 7 7 7 7 7 7 6 6 6 6 6 6 
7 7 7 7 7 8 8 8 8 7 7 7 8 8 8 8 8 8 9 9 9 9 9 9 
8 8 8 8 8 9 9 9 9 10 10 10 9 9 9 9 10 10 11 11 11 10 10 11 
10 10 10 11 11 12 13 13 13 12 12 13 13 13 13 14 14 14 14 15 15 15 15 15 
15 16 16 16 16 17 18 18 18 18 18 18 19 19 19 20 20 20 20 21 21 22 22 22 
23 23 24 24 24 24 25 25 25 26 26 27 27 27 28 28 29 29 31 31 31 31 31 32 
32 33 33 34 34 35 35 36 36 37 38 38 38 39 39 41 41 42 41 41 42 44 45 45 
44 45 46 46 46 47 46 47 48 46 47 48 47 47 48 45 46 47 44 45 45 134 134 135 
194 194 194 176 176 176 174 174 174 176 176 176 178 178 178 181 181 181 181 181 181 186 186 186 
183 183 183 181 181 181 185 185 185 185 185 185 188 188 188 192 192 192 191 191 191 191 191 191 
191 191 191 193 193 193 194 194 194 194 194 194 197 197 197 203 203 203 200 200 200 200 200 200 
203 203 203 203 203 203 209 209 209 207 207 207 208 208 208 213 213 213 214 214 214 208 208 208 
205 205 205 207 207 207 203 203 203 205 205 205 200 200 200 199 199 199 197 197 197 195 195 195 
193 193 193 205 205 205 144 144 144 50 51 52 54 55 56 57 59 60 63 64 65 67 67 68 
70 71 73 72 73 75 74 75 76 74 75 77 74 75 76 72 73 75 70 71 72 69 70 71 
66 67 68 64 65 66 61 62 63 59 60 61 56 57 58 54 55 56 53 53 54 49 50 51 
48 48 49 46 47 48 45 45 46 43 44 44 41 41 42 40 40 41 36 37 38 36 37 37 
34 35 35 34 34 35 32 33 33 30 30 31 29 29 29 27 28 28 26 26 27 26 26 27 
25 25 25 23 24 24 21 22 22 22 22 22 20 21 21 20 20 20 19 19 19 19 19 19 
17 18 18 16 16 17 15 15 15 15 15 15 14 14 14 13 13 14 13 13 13 12 12 12 
12 12 12 11 11 11 11 11 11 11 11 11 9 9 9 9 10 10 10 10 10 9 9 9 
10 10 10 25 25 25 32 32 32 32 32 32 31 31 31 36 32 32 251 27 36 255 27 36 
42 4 6 0 0 0 
0 0 0 72 30 32 255 71 77 242 70 75 29 29 29 30 30 30 30 30 30 29 29 29 
21 21 21 6 6 6 6 6 6 6 6 6 5 5 5 6 6 6 5 5 5 6 6 6 
7 7 7 7 7 7 6 6 6 6 6 6 6 6 6 7 7 8 7 7 7 8 8 8 
8 8 8 7 7 8 9 9 9 9 9 9 9 9 9 10 10 10 10 10 10 10 11 11 
10 10 10 12 12 12 12 12 12 12 12 12 12 12 12 13 13 13 13 13 14 14 14 14 
15 15 15 16 16 16 17 17 18 17 17 18 18 18 18 19 19 19 20 20 20 21 21 21 
22 22 22 23 23 24 24 24 25 25 26 26 26 26 27 28 28 29 29 29 29 30 30 31 
31 32 32 34 34 35 36 36 36 37 37 38 39 39 40 40 41 41 42 43 43 44 44 45 
44 45 45 45 46 47 46 47 48 48 48 49 48 49 49 47 48 49 45 47 48 55 55 56 
179 179 179 183 183 183 178 178 178 176 176 176 176 176 176 180 180 180 178 178 178 182 182 182 
185 185 185 183 183 183 184 184 184 185 185 185 186 186 186 188 188 188 184 184 184 190 190 190 
188 188 188 191 191 191 190 190 190 194 194 194 196 196 196 201 201 201 200 200 200 201 201 201 
200 200 200 203 203 203 208 208 208 212 212 212 207 207 207 210 210 210 209 209 209 207 207 207 
200 200 200 202 202 202 202 202 202 196 196 196 197 197 197 199 199 199 191 191 191 191 191 191 
196 196 196 210 210 210 54 55 56 52 52 53 56 56 58 60 61 62 64 65 66 68 69 70 
70 72 73 72 73 75 72 73 74 73 74 75 72 72 74 70 71 72 69 70 71 66 67 68 
63 64 65 61 62 63 58 59 60 57 58 59 54 55 56 52 53 54 51 51 52 48 49 50 
46 46 47 45 46 46 43 44 45 41 42 42 38 40 40 37 37 38 35 35 36 35 35 35 
33 33 34 32 33 33 30 30 31 29 29 29 27 28 28 26 26 27 24 25 25 24 24 25 
23 23 24 21 22 22 20 21 21 20 20 20 18 18 18 17 17 17 17 17 18 16 16 17 
16 16 16 14 15 15 14 15 14 13 14 14 13 13 13 12 12 12 12 12 12 11 11 12 
11 11 11 11 11 11 10 10 10 9 9 9 9 9 9 8 8 8 8 8 8 8 8 8 
8 8 8 19 19 19 30 30 30 30 30 30 30 30 30 30 30 30 214 27 34 255 26 35 
88 9 12 0 0 0 
0 0 0 114 38 40 255 69 75 201 61 65 30 30 30 31 31 31 31 31 31 31 31 31 
18 18 18 7 7 7 7 7 7 7 7 7 6 6 6 7 7 7 7 7 7 8 8 8 
8 8 8 8 8 8 8 8 8 8 8 8 8 8 8 9 9 9 9 9 9 9 9 9 
8 8 9 10 10 10 10 10 10 10 10 10 10 11 11 11 11 11 11 11 11 12 12 12 
12 12 12 13 13 13 13 13 13 14 14 14 14 14 15 15 15 15 16 16 16 16 17 17 
16 16 16 16 16 16 20 20 20 20 20 20 20 20 20 21 22 22 23 23 23 23 24 24 
25 25 25 25 25 25 26 26 27 27 27 28 28 29 29 30 30 30 31 31 32 32 33 33 
34 34 35 36 37 37 37 38 38 38 39 39 40 40 41 42 42 43 43 44 45 46 46 48 
48 48 49 48 49 50 49 50 51 51 51 51 52 53 53 51 52 53 50 51 52 47 48 49 
117 117 117 195 195 195 177 177 177 177 177 177 178 178 178 176 176 176 179 179 179 180 180 180 
181 181 181 182 182 182 182 182 182 186 186 186 186 186 186 185 185 185 188 188 188 189 189 189 
191 191 191 192 192 192 190 190 190 196 196 196 194 194 194 200 200 200 200 200 200 199 199 199 
201 201 201 204 204 204 203 203 203 211 211 211 210 210 210 207 207 207 203 203 203 203 203 203 
200 200 200 200 200 200 201 201 201 198 198 198 195 195 195 199 199 199 190 190 190 190 190 190 
205 205 205 130 130 130 51 52 53 55 56 57 58 59 60 63 65 65 68 69 69 71 72 74 
73 74 76 74 76 77 74 75 77 73 75 76 73 74 76 70 71 72 69 70 71 66 67 68 
64 65 66 61 63 64 60 61 62 57 58 59 54 55 56 53 53 54 52 52 53 49 50 51 
47 47 48 45 46 47 43 44 44 41 42 42 40 41 42 37 38 38 36 37 37 34 35 35 
34 34 35 32 33 33 31 31 32 29 30 30 28 29 29 27 27 28 26 26 27 24 25 25 
24 24 24 22 23 23 22 22 22 20 21 21 19 20 20 19 19 19 18 18 18 17 17 17 
16 16 17 15 16 16 15 15 15 15 15 15 15 15 15 14 14 14 13 13 14 12 12 12 
11 11 12 12 12 12 11 11 12 11 11 11 10 11 11 10 10 10 9 9 9 10 10 10 
9 9 9 17 17 17 32 32 32 32 32 32 32 32 32 31 31 31 175 28 34 255 26 35 
134 14 18 0 0 0 
0 0 0 146 42 45 255 66 72 165 53 56 30 30 30 30 30 30 30 30 30 30 30 30 
14 14 14 6 6 6 6 6 6 7 7 7 7 7 7 7 7 7 7 7 7 8 8 8 
8 8 8 7 7 7 7 7 7 7 7 7 8 8 8 8 8 8 8 8 8 8 8 8 
8 8 8 9 9 9 9 9 9 9 9 9 11 11 11 10 10 10 11 11 11 11 11 11 
12 12 12 13 13 13 12 12 13 13 14 14 15 15 15 14 14 15 15 15 15 16 16 17 
16 17 17 16 16 17 18 18 19 19 19 19 20 21 21 21 22 22 22 22 22 23 23 23 
24 24 25 25 25 26 26 27 27 26 27 27 29 29 30 30 30 31 31 32 33 32 32 33 
34 34 35 35 35 36 37 37 38 38 39 39 40 41 41 43 43 44 44 45 46 46 47 47 
48 48 49 50 50 52 51 51 52 52 53 54 53 54 55 53 54 55 52 53 54 51 52 52 
51 52 53 177 177 178 188 188 188 180 180 180 180 180 180 180 180 180 181 181 181 180 180 180 
185 185 185 182 182 182 184 184 184 184 184 184 186 186 186 189 189 189 189 189 189 189 189 189 
190 190 190 194 194 194 197 197 197 195 195 195 197 197 197 196 196 196 199 199 199 201 201 201 
205 205 205 209 209 209 210 210 210 206 206 206 208 208 208 208 208 208 204 204 204 204 204 204 
204 204 204 203 203 203 201 201 201 195 195 195 198 198 198 195 195 195 193 193 193 201 201 201 
207 207 207 51 52 53 53 53 54 57 58 59 61 62 63 66 66 68 69 70 71 73 74 75 
73 74 76 76 76 77 74 74 75 74 75 76 71 72 73 70 72 73 68 69 70 65 66 67 
62 63 65 59 60 61 58 58 60 56 57 58 53 54 55 50 50 51 49 50 51 47 47 48 
46 47 47 43 43 44 41 42 42 40 41 41 39 39 40 37 37 38 35 36 36 34 34 35 
33 34 34 32 32 33 30 30 30 29 29 30 28 28 29 26 27 27 26 26 26 24 24 25 
23 23 24 22 22 22 21 21 22 20 20 20 18 18 19 18 18 19 17 18 18 17 17 17 
16 16 16 15 15 15 14 14 15 15 15 15 13 13 13 13 13 13 12 12 12 12 12 12 
12 12 12 11 11 11 10 10 10 10 10 10 9 9 9 9 9 9 9 9 9 9 9 9 
9 9 9 12 12 12 31 31 31 31 31 31 32 32 32 31 31 31 139 29 32 255 26 35 
173 19 25 0 0 0 
9 9 9 176 46 51 255 64 70 136 47 50 30 30 30 30 30 30 30 30 30 30 30 30 
10 10 10 6 6 6 6 6 6 7 7 7 6 6 6 6 6 6 7 7 7 7 7 7 
7 7 7 7 7 7 7 7 7 8 8 8 8 8 8 9 9 9 8 8 8 9 9 9 
9 9 9 9 9 9 9 9 9 9 10 10 11 11 11 11 11 11 11 11 11 11 11 11 
12 12 12 12 12 12 13 13 13 13 13 14 14 14 14 16 16 16 16 17 17 16 16 16 
17 17 17 18 18 18 18 19 19 18 19 20 19 20 21 21 21 22 22 22 22 23 23 24 
25 25 25 26 26 26 26 26 27 28 28 29 29 29 30 30 30 31 31 32 32 33 33 34 
34 35 35 36 37 37 38 39 39 40 40 41 41 41 42 43 44 45 45 45 46 47 48 49 
49 49 50 51 52 52 53 53 54 54 55 56 53 54 55 55 56 56 54 56 57 54 55 56 
51 52 53 98 98 99 199 199 199 186 186 186 183 183 183 184 184 184 186 186 186 182 182 182 
184 184 184 182 182 182 187 187 187 186 186 186 188 188 188 192 192 192 192 192 192 191 191 191 
194 194 194 196 196 196 199 199 199 199 199 199 203 203 203 202 202 202 203 203 203 202 202 202 
206 206 206 210 210 210 212 212 212 213 213 213 208 208 208 211 211 211 204 204 204 206 206 206 
201 201 201 203 203 203 203 203 203 200 200 200 199 199 199 197 197 197 193 193 193 215 215 215 
112 113 113 51 52 53 56 57 58 60 61 62 64 64 65 68 69 70 71 72 74 73 74 76 
76 76 77 74 75 77 74 76 77 72 73 75 70 71 73 68 69 70 66 67 68 63 64 65 
62 63 64 58 59 60 57 58 59 54 55 56 53 53 54 50 51 52 49 50 51 46 46 47 
44 45 46 42 43 43 41 42 42 39 39 40 37 38 38 35 36 36 35 35 36 33 34 35 
32 32 33 30 30 31 29 29 30 27 28 28 26 27 27 25 26 26 24 24 24 23 23 24 
21 22 22 21 21 21 20 21 21 19 19 20 18 19 19 18 18 18 16 16 16 15 15 16 
15 16 16 15 15 15 14 14 14 14 14 14 12 12 12 12 12 13 11 11 11 11 11 12 
11 11 11 10 10 11 10 10 10 10 10 10 9 9 9 9 9 9 9 9 9 9 9 9 
8 8 8 8 8 8 31 31 31 30 30 30 32 32 32 31 31 31 109 28 31 255 25 34 
206 22 29 0 0 0 
11 11 11 208 51 56 255 62 68 107 40 43 29 29 29 29 29 29 29 29 29 29 29 29 
6 6 6 4 4 4 5 5 5 5 5 5 5 5 5 6 6 6 5 5 5 4 4 4 
6 6 6 5 5 5 5 5 5 6 6 6 6 6 6 7 7 7 6 6 6 7 7 7 
8 8 8 8 8 8 9 9 9 8 8 8 9 9 9 9 9 10 9 9 9 9 9 10 
10 10 11 10 10 11 11 11 11 12 12 12 12 13 13 13 13 13 14 14 14 15 15 15 
15 15 16 16 16 17 18 18 18 18 18 18 19 19 19 21 21 21 21 22 22 21 21 22 
23 24 24 24 25 25 25 26 26 27 27 28 28 28 29 29 29 30 31 31 32 32 33 33 
34 34 35 36 36 37 37 38 38 39 40 40 40 41 41 42 43 44 43 44 45 47 47 48 
48 49 50 50 50 51 52 52 53 53 54 55 54 55 56 56 57 58 56 57 58 55 57 58 
54 55 57 52 53 54 168 168 168 188 188 188 174 174 174 177 177 177 175 175 175 175 175 175 
178 178 178 180 180 180 181 181 181 180 180 180 183 183 183 185 185 185 185 185 185 187 187 187 
191 191 191 190 190 190 195 195 195 195 195 195 194 194 194 198 198 198 195 195 195 197 197 197 
201 201 201 204 204 204 204 204 204 208 208 208 205 205 205 201 201 201 198 198 198 196 196 196 
195 195 195 193 193 193 195 195 195 192 192 192 193 193 193 188 188 188 197 197 197 198 199 199 
49 50 51 53 54 55 58 58 59 61 62 63 65 66 67 68 69 71 72 73 74 73 74 75 
74 75 76 73 74 75 72 73 74 69 70 71 69 70 71 65 66 67 63 64 65 60 61 63 
59 60 61 55 56 57 54 55 56 52 53 54 50 50 51 48 49 50 47 47 48 43 44 44 
42 42 43 40 41 41 38 39 39 37 37 38 35 35 36 34 34 34 32 32 33 31 32 32 
30 30 31 29 29 29 26 26 27 25 26 26 24 25 25 23 23 23 21 21 22 21 21 22 
20 20 20 19 19 20 18 18 18 17 17 17 16 16 17 16 16 16 15 15 15 15 15 15 
13 13 13 13 13 13 12 12 12 11 11 12 12 12 12 11 11 11 10 10 10 10 10 10 
9 9 9 9 9 9 8 8 8 8 8 8 7 7 7 7 7 7 7 7 7 6 6 6 
7 7 7 7 7 7 27 27 27 29 29 29 29 29 29 30 30 30 80 28 30 255 25 34 
238 24 33 0 0 0 
17 17 17 239 55 61 255 59 66 77 35 36 28 28 28 28 28 28 29 29 29 25 25 25 
4 4 4 4 4 4 4 4 4 4 4 4 4 4 4 6 6 6 5 5 6 4 4 4 
5 5 5 6 6 6 5 5 5 5 5 6 6 6 6 6 6 6 6 6 6 6 6 7 
8 8 8 7 7 7 7 8 8 8 8 8 8 8 8 8 8 8 8 8 8 10 10 10 
10 10 10 11 11 11 12 12 12 12 12 12 12 12 12 13 14 14 14 14 14 14 14 14 
16 16 16 16 17 17 16 16 17 18 19 19 19 19 20 20 20 20 22 22 23 22 22 22 
23 23 23 25 25 26 25 25 26 27 27 27 28 28 28 29 30 30 30 31 31 31 32 32 
34 34 34 35 36 36 36 37 37 38 38 39 40 41 41 43 43 44 44 44 45 46 47 48 
49 50 50 50 50 51 52 53 54 53 54 55 56 57 58 57 58 59 58 59 60 58 59 60 
57 58 59 55 56 58 79 80 80 189 189 189 180 180 180 179 179 179 177 177 177 179 179 179 
182 182 182 177 177 177 179 179 179 184 184 184 185 185 185 184 184 184 187 187 187 190 190 190 
188 188 188 191 191 191 192 192 192 194 194 194 195 195 195 194 194 194 198 198 198 204 204 204 
200 200 200 206 206 206 207 207 207 206 206 206 203 203 203 198 198 198 198 198 198 194 194 194 
197 197 197 194 194 194 191 191 191 191 191 191 189 189 189 191 191 191 212 212 212 99 99 99 
52 53 54 56 57 58 60 61 62 66 66 67 68 70 72 71 72 73 73 74 75 73 74 75 
73 74 76 72 74 75 72 72 74 68 69 70 67 68 69 64 65 66 62 63 64 59 60 61 
56 57 58 54 55 56 52 53 54 50 51 52 47 48 48 46 47 47 44 44 45 42 43 44 
40 41 41 39 39 40 37 37 38 35 36 36 33 34 34 32 32 33 31 31 32 30 30 31 
28 28 29 27 27 28 25 26 26 24 24 24 23 23 23 22 22 23 21 21 21 20 20 20 
19 19 19 18 18 18 17 17 17 16 16 16 15 15 15 15 15 16 13 13 14 13 13 13 
13 13 13 12 12 12 11 11 11 11 11 11 10 10 11 9 10 10 9 9 9 9 9 9 
7 7 8 8 8 8 8 8 8 7 7 7 6 6 7 7 7 7 7 7 7 6 6 6 
6 6 6 5 5 5 23 23 23 29 29 29 29 29 29 29 29 29 49 28 29 255 25 34 
255 25 34 12 1 2 
27 18 18 255 55 62 255 57 64 49 32 32 30 30 30 29 29 29 30 30 30 24 24 24 
5 5 5 6 6 6 5 5 5 5 5 5 6 6 6 7 7 7 7 7 7 6 6 6 
7 7 7 7 7 7 6 6 6 7 7 7 8 8 8 7 7 7 8 8 8 8 8 8 
8 8 8 8 8 8 9 9 9 9 9 9 9 9 10 10 10 10 11 11 11 11 11 12 
11 11 12 13 13 13 13 13 13 14 14 14 14 14 14 15 15 15 15 15 16 17 17 18 
17 17 17 18 18 19 19 19 19 19 20 19 21 21 21 22 22 22 22 22 22 24 25 25 
26 26 27 26 27 27 28 28 29 28 29 30 30 31 31 32 32 33 34 34 35 34 34 35 
37 37 38 37 39 39 39 40 40 41 41 42 43 43 44 44 45 46 47 47 48 48 49 50 
51 52 53 52 52 53 55 56 57 57 58 59 58 59 60 59 60 61 62 63 64 61 62 63 
62 63 64 59 60 61 58 58 59 156 157 157 195 195 195 175 175 175 179 179 179 181 181 181 
181 181 181 181 181 181 183 183 183 184 184 184 188 188 188 187 187 187 189 189 189 192 192 192 
193 193 193 195 195 195 195 195 195 195 195 195 198 198 198 200 200 200 202 202 202 201 201 201 
207 207 207 209 209 209 206 206 206 207 207 207 204 204 204 205 205 205 203 203 203 198 198 198 
195 195 195 196 196 196 193 193 193 191 191 191 194 194 194 198 198 198 188 188 188 52 53 53 
55 56 57 59 60 61 63 65 65 67 68 70 70 71 72 74 75 75 75 76 77 76 77 78 
73 75 76 74 75 76 70 71 72 69 70 71 67 68 69 65 66 67 62 63 64 59 60 61 
56 57 59 55 56 57 52 53 54 50 51 52 48 49 50 47 47 48 44 45 45 43 44 45 
41 42 42 40 40 41 38 38 39 35 36 36 35 36 36 33 34 34 32 32 33 30 31 31 
30 30 30 28 28 28 26 26 26 26 26 27 24 24 24 21 22 22 21 21 22 20 20 20 
20 20 21 19 20 20 18 18 19 16 16 17 16 17 17 16 16 16 16 16 16 15 15 15 
14 14 14 13 13 13 12 12 13 13 13 13 12 12 12 11 11 11 10 10 10 10 10 10 
9 9 9 9 9 9 9 10 10 8 8 9 9 9 9 7 7 8 7 7 7 7 7 7 
7 7 7 7 7 7 21 21 21 30 30 30 31 31 31 29 29 29 30 30 30 249 25 34 
255 25 34 42 4 6 
50 23 24 255 53 60 255 55 61 31 30 30 30 30 30 30 30 30 30 30 30 21 21 21 
6 6 6 6 6 6 6 6 6 6 6 6 7 7 7 7 7 7 7 7 7 7 7 7 
7 7 7 8 8 8 7 7 8 8 8 8 8 8 8 8 8 8 8 8 9 10 10 10 
8 8 8 9 10 10 10 10 10 10 10 10 11 11 12 12 12 12 12 12 12 13 13 13 
13 13 13 13 13 14 14 14 14 15 15 15 15 15 15 16 17 17 17 17 17 18 18 18 
18 18 18 19 19 20 19 20 20 21 21 22 22 23 23 23 23 24 25 25 25 25 25 25 
27 27 28 28 28 29 29 29 29 30 31 31 31 32 32 32 33 34 34 35 35 36 37 37 
38 39 39 40 40 41 40 41 42 42 43 43 45 45 46 46 47 47 48 49 50 50 51 52 
52 53 54 54 55 56 56 58 59 58 59 60 62 63 63 63 64 65 64 65 66 65 66 67 
65 66 67 64 65 67 62 62 63 72 73 74 194 194 194 185 185 185 179 179 179 178 178 178 
182 182 182 185 185 185 187 187 187 185 185 185 189 189 189 193 193 193 189 189 189 192 192 192 
194 194 194 195 195 195 198 198 198 199 199 199 201 201 201 203 203 203 206 206 206 205 205 205 
208 208 208 206 206 206 207 207 207 204 204 204 201 201 201 203 203 203 200 200 200 201 201 201 
198 198 198 195 195 195 192 192 192 191 191 191 196 196 196 217 217 217 82 82 83 54 55 56 
58 59 60 63 63 65 66 67 68 71 71 73 73 74 75 75 77 78 76 77 78 76 77 79 
74 75 77 74 74 76 71 72 73 68 70 71 66 67 68 64 65 66 62 63 64 60 61 62 
57 58 59 55 56 57 52 52 54 51 51 52 48 49 50 47 47 48 44 45 46 43 43 44 
42 42 43 40 40 41 38 39 39 36 37 37 34 35 36 33 33 34 32 32 33 30 30 31 
29 29 30 28 29 29 26 27 27 25 25 26 24 24 25 24 24 24 22 22 22 21 21 21 
21 21 21 19 19 19 18 18 18 17 17 17 16 16 17 16 16 16 16 16 16 14 14 14 
13 13 14 14 14 14 12 12 12 12 12 13 12 12 12 11 11 12 11 11 11 10 10 11 
10 10 10 10 10 10 9 9 9 9 9 9 9 9 9 8 8 8 8 8 8 8 8 8 
8 8 8 7 7 7 20 20 20 31 31 31 31 31 31 30 30 30 30 30 30 229 26 34 
255 25 34 64 6 9 
67 24 26 255 51 58 238 50 57 29 29 29 29 29 29 29 29 29 30 30 30 19 19 19 
5 5 5 5 5 5 5 5 5 7 7 7 7 7 7 7 7 7 7 7 7 7 7 7 
7 7 7 7 7 7 7 7 7 7 7 7 7 7 7 7 7 8 9 9 9 9 9 9 
9 9 9 9 9 9 9 9 9 9 9 10 10 10 10 10 10 11 11 11 11 12 12 13 
12 12 12 13 13 13 13 13 14 14 14 14 15 15 15 15 15 16 16 16 17 17 17 17 
18 18 18 19 19 19 20 20 20 22 22 22 21 22 22 23 23 23 24 25 25 24 24 25 
26 27 27 27 28 28 28 28 29 30 31 32 32 32 33 33 33 34 34 35 35 36 37 37 
38 39 39 40 40 41 41 42 42 42 43 44 44 45 46 47 47 48 47 48 49 50 50 51 
54 54 55 55 56 57 57 58 59 60 61 62 62 63 64 64 65 66 65 66 67 66 68 69 
66 68 69 67 67 69 64 65 66 63 64 65 142 142 142 201 201 201 188 188 188 187 187 187 
185 185 185 185 185 185 190 190 190 190 190 190 191 191 191 196 196 196 193 193 193 195 195 195 
201 201 201 202 202 202 201 201 201 200 200 200 203 203 203 206 206 206 208 208 208 206 206 206 
214 214 214 210 210 210 210 210 210 204 204 204 204 204 204 207 207 207 206 206 206 201 201 201 
199 199 199 198 198 198 197 197 197 196 196 196 204 204 204 170 171 171 52 53 54 56 57 58 
60 61 62 64 65 66 68 69 70 73 75 75 75 76 76 76 77 79 75 77 78 75 76 78 
73 74 75 70 72 73 69 70 71 67 68 69 65 66 67 61 62 63 59 61 62 57 58 59 
54 55 56 52 53 54 51 51 52 49 50 51 48 48 49 44 45 45 43 43 44 40 41 41 
40 40 41 38 38 39 36 37 37 35 35 35 32 33 33 31 32 32 30 31 31 29 29 29 
28 28 29 26 26 27 25 26 26 24 25 25 24 24 24 22 22 23 21 22 22 20 20 21 
18 19 19 18 18 19 18 18 18 17 17 17 16 16 16 15 15 15 14 14 14 14 14 14 
14 14 14 12 12 13 12 12 12 11 11 11 11 11 11 11 11 11 10 10 10 9 9 9 
9 9 9 8 9 9 9 9 9 8 8 9 8 8 9 7 7 7 7 7 7 7 7 7 
6 6 7 7 7 7 18 18 18 30 30 30 30 30 30 30 30 30 29 29 29 211 27 34 
255 25 34 84 8 11 
83 25 27 255 49 56 221 47 53 29 29 29 29 29 29 30 30 30 29 29 29 17 17 17 
5 5 5 5 5 5 5 5 5 6 6 6 6 6 6 6 6 6 6 6 6 7 7 7 
6 6 6 6 6 7 8 8 8 7 7 7 7 7 7 7 7 8 9 9 9 8 8 8 
8 9 9 9 9 9 9 9 9 9 9 10 10 10 10 11 11 11 11 11 11 12 12 12 
12 12 12 13 14 14 13 13 13 14 14 14 15 15 15 16 16 16 17 17 17 17 17 18 
18 18 19 19 19 19 19 19 20 20 20 20 21 22 22 22 22 23 24 25 25 25 26 26 
27 27 28 29 29 29 30 30 30 31 32 32 31 32 32 34 35 35 35 35 35 36 37 37 
38 38 39 40 40 41 41 42 42 44 44 45 45 46 47 48 48 49 49 50 51 51 52 53 
53 54 55 56 57 58 57 58 59 61 62 63 63 64 65 65 66 67 66 67 68 68 69 70 
68 69 70 70 71 72 68 69 70 66 67 69 65 65 66 187 187 187 190 190 190 180 180 180 
180 180 180 176 176 176 184 184 184 184 184 184 184 184 184 188 188 188 188 188 188 189 189 189 
191 191 191 193 193 193 194 194 194 194 194 194 197 197 197 200 200 200 205 205 205 201 201 201 
202 202 202 201 201 201 201 201 201 196 196 196 199 199 199 195 195 195 195 195 195 191 191 191 
191 191 191 186 186 186 188 188 188 193 193 193 217 217 217 70 70 71 54 54 55 59 59 60 
63 63 65 68 69 70 71 72 73 73 74 75 75 77 78 75 76 77 76 77 79 74 75 76 
73 73 75 70 71 72 67 68 70 65 66 67 63 64 65 61 62 63 59 60 61 55 56 57 
53 54 55 51 52 53 50 50 51 47 48 49 46 46 47 44 45 45 42 42 43 40 40 41 
39 40 40 36 37 37 35 36 36 34 34 35 33 33 34 31 31 32 30 30 31 28 28 29 
27 27 28 25 26 26 24 25 25 23 23 24 22 23 23 21 21 21 20 20 20 19 19 19 
18 19 19 18 18 18 16 17 17 15 15 16 15 15 16 15 15 15 14 14 14 12 12 13 
13 13 13 11 11 11 11 11 12 11 11 11 10 10 11 10 10 10 9 9 10 9 9 9 
10 10 10 8 8 8 7 7 8 8 8 8 7 7 7 6 6 6 6 6 6 8 8 8 
6 6 6 6 6 6 15 15 15 30 30 30 29 29 29 29 29 29 29 29 29 194 28 34 
255 26 35 103 11 14 
102 28 30 255 47 54 205 44 50 30 30 30 31 31 31 31 31 31 31 31 31 16 16 16 
7 7 7 7 7 7 8 8 8 7 7 7 7 7 8 8 8 8 9 9 9 8 8 8 
8 8 8 9 9 9 9 9 9 9 9 9 9 9 9 10 10 10 11 11 11 11 11 11 
11 11 11 12 12 12 11 11 12 12 12 12 12 12 12 12 12 12 13 13 13 14 14 14 
15 15 15 15 16 16 16 16 16 16 17 17 17 17 18 17 18 18 19 19 19 20 20 20 
21 21 21 21 21 21 22 22 22 23 23 23 24 24 24 25 25 26 27 27 28 28 29 29 
29 30 30 31 31 32 31 31 32 33 33 34 34 34 35 36 36 37 37 38 38 39 40 41 
41 41 42 43 44 45 44 45 45 46 47 48 48 48 49 50 51 52 51 52 53 54 54 55 
55 56 57 59 60 61 60 61 62 64 65 66 65 66 67 68 69 70 70 71 73 70 72 73 
73 74 76 73 75 76 72 73 75 72 72 74 69 71 71 126 127 128 198 198 198 183 183 183 
182 182 182 185 185 185 187 187 187 188 188 188 186 186 186 185 185 185 192 192 192 192 192 192 
191 191 191 193 193 193 197 197 197 201 201 201 196 196 196 202 202 202 201 201 201 203 203 203 
206 206 206 201 201 201 204 204 204 199 199 199 198 198 198 196 196 196 197 197 197 192 192 192 
193 193 193 191 191 191 188 188 188 205 205 205 151 152 153 53 54 55 58 58 60 63 63 64 
67 68 69 71 72 73 75 75 77 76 77 79 77 78 80 77 78 80 78 79 81 76 77 78 
73 74 76 71 72 74 69 70 71 66 67 68 64 65 66 61 62 63 60 61 62 56 57 58 
54 55 56 52 52 54 51 52 52 49 49 50 47 47 48 45 45 46 44 45 45 41 41 42 
40 40 41 37 38 38 36 36 36 34 35 35 33 34 34 31 32 32 32 32 32 30 30 30 
28 28 29 27 27 28 25 26 26 26 26 26 23 23 24 23 24 24 22 22 23 21 22 22 
19 19 20 20 20 20 19 19 19 18 18 18 17 17 17 16 17 17 15 15 15 15 15 15 
14 14 15 13 13 13 14 14 14 14 14 14 12 12 12 12 12 12 11 11 11 11 11 11 
10 11 11 10 10 10 9 9 9 9 9 10 10 10 10 10 10 10 9 9 9 9 9 9 
8 8 8 8 8 8 15 15 15 31 31 31 31 31 31 31 31 31 31 31 31 178 29 35 
255 27 36 122 13 17 
120 29 32 255 45 52 188 42 46 31 31 31 31 31 31 32 32 32 31 31 31 15 15 15 
7 7 7 7 7 7 9 9 9 9 9 9 7 7 7 8 8 8 8 8 8 8 8 8 
8 8 9 10 10 10 9 9 9 8 8 8 9 9 10 10 10 10 10 10 10 10 11 10 
11 11 11 12 12 12 12 12 12 12 12 12 13 13 13 13 13 13 13 13 13 14 15 15 
15 15 15 16 16 16 17 17 17 16 16 16 18 18 18 18 19 19 19 20 20 20 21 21 
21 21 21 22 22 23 23 23 23 24 24 25 25 25 26 27 27 27 27 27 28 29 29 30 
29 29 30 32 32 32 33 33 34 34 35 35 36 36 37 37 37 37 38 38 39 40 41 41 
41 42 42 44 45 45 46 46 47 47 48 48 50 50 51 51 52 53 53 54 55 54 56 57 
58 59 60 59 60 61 63 64 65 64 65 66 67 68 69 70 71 72 71 72 73 73 74 75 
76 77 78 76 77 78 77 78 79 76 77 77 74 75 76 70 71 73 184 184 185 196 196 196 
185 185 185 184 184 184 191 191 191 189 189 189 192 192 192 193 193 193 194 194 194 195 195 195 
199 199 199 198 198 198 207 207 207 203 203 203 203 203 203 205 205 205 209 209 209 209 209 209 
211 211 211 206 206 206 204 204 204 205 205 205 205 205 205 204 204 204 198 198 198 197 197 197 
199 199 199 194 194 194 200 200 200 213 213 213 59 59 60 57 57 58 61 62 63 65 66 67 
70 71 73 73 74 76 76 77 79 77 79 80 78 79 81 77 78 80 78 79 80 76 76 78 
73 74 75 70 71 73 68 69 70 65 66 67 63 64 65 60 61 62 57 58 60 56 57 58 
54 54 55 51 51 52 50 51 52 49 49 50 46 47 48 44 44 45 42 42 43 41 42 42 
38 39 39 38 38 39 36 36 37 35 35 36 33 33 34 32 32 33 30 30 31 30 30 31 
27 28 28 26 27 27 26 26 27 24 24 25 23 23 23 23 23 23 22 22 22 20 20 20 
19 19 19 18 18 19 18 18 19 19 19 19 16 17 17 16 16 16 15 15 16 14 14 14 
14 14 14 13 13 14 13 13 13 12 12 13 12 12 12 11 11 12 11 11 11 11 11 11 
11 11 11 10 10 10 10 10 10 9 9 9 10 10 10 9 9 9 9 9 9 8 8 8 
8 8 8 9 9 9 13 13 13 32 32 32 32 32 32 31 31 31 31 31 31 161 30 35 
255 28 37 140 16 21 
121 28 31 255 43 50 185 40 44 30 30 30 30 30 30 30 30 30 30 30 30 13 13 13 
7 7 7 5 5 5 7 7 7 6 6 7 7 7 7 6 6 6 7 7 7 6 6 6 
8 8 8 8 8 8 8 8 8 7 7 7 9 9 9 8 8 8 9 9 9 9 10 10 
10 10 10 10 10 11 11 11 11 11 11 12 11 11 11 12 12 13 13 13 13 14 14 14 
14 14 14 15 15 15 15 16 16 16 16 17 17 17 17 17 17 17 19 19 19 19 19 19 
19 20 20 21 21 21 22 23 23 24 24 24 24 25 25 25 25 26 26 26 27 27 28 28 
30 30 31 30 30 31 32 32 33 33 33 34 35 35 36 36 37 37 38 39 39 40 40 41 
42 42 43 43 44 44 45 46 47 46 47 48 49 50 51 50 52 52 53 53 55 55 56 57 
57 58 59 59 60 61 62 63 64 63 64 65 67 68 69 69 70 71 72 73 74 73 74 76 
76 77 78 77 78 80 78 79 81 78 78 80 76 77 79 74 75 76 110 111 112 206 206 206 
195 195 195 190 190 190 195 195 195 197 197 197 199 199 199 198 198 198 195 195 195 202 202 202 
201 201 201 206 206 206 209 209 209 207 207 207 207 207 207 210 210 210 211 211 211 214 214 214 
213 213 213 213 213 213 206 206 206 210 210 210 206 206 206 204 204 204 201 201 201 198 198 198 
197 197 197 200 200 200 216 216 216 121 121 121 54 54 55 58 59 60 63 64 65 67 68 69 
72 72 73 74 75 76 76 77 78 77 78 80 77 78 79 76 77 78 74 75 76 72 73 75 
69 71 72 67 69 70 65 66 67 63 64 65 60 61 62 57 58 59 55 56 57 53 54 55 
51 52 53 50 51 51 47 47 48 46 46 47 43 43 44 42 43 43 40 40 41 39 39 40 
36 37 37 35 36 36 33 34 34 33 33 34 31 32 32 30 30 31 28 29 29 27 28 28 
26 26 27 24 24 25 24 24 24 23 23 24 21 22 22 20 20 21 19 20 20 19 19 20 
19 19 19 18 18 18 16 16 16 16 16 16 14 15 15 14 14 14 13 13 13 12 12 13 
12 12 12 12 12 12 12 12 12 10 10 10 10 10 10 10 10 10 10 10 10 9 10 10 
9 9 9 9 9 9 9 9 9 8 8 8 8 8 8 8 8 8 7 7 7 7 7 7 
7 7 7 7 7 7 10 10 10 30 30 30 30 30 30 30 30 30 30 30 30 157 31 35 
255 30 38 145 17 22 
125 25 29 255 41 49 177 38 43 32 32 32 32 32 32 32 32 32 32 32 32 14 14 14 
8 8 8 8 8 8 9 9 9 9 9 9 9 9 9 9 9 9 9 9 9 9 9 10 
10 10 10 10 10 10 9 9 10 10 10 11 11 11 11 11 11 11 11 11 11 12 12 12 
12 12 12 12 12 13 12 12 12 13 13 13 14 14 14 13 13 14 15 15 15 16 16 16 
16 16 17 16 17 17 18 18 18 18 18 19 19 19 19 19 19 20 20 20 21 21 21 21 
22 22 23 23 23 23 25 25 26 25 25 26 27 27 27 28 29 29 30 30 31 30 30 31 
32 32 32 33 34 34 33 34 34 36 36 37 38 38 38 38 39 39 40 40 41 42 42 43 
43 44 45 45 45 46 47 48 48 48 49 50 52 53 54 54 54 55 55 56 57 58 59 60 
60 61 62 62 63 64 64 65 67 67 68 69 69 70 71 73 74 75 74 75 77 78 79 80 
80 81 82 82 83 84 83 84 85 82 84 85 81 82 84 80 81 82 76 77 79 175 175 175 
195 195 195 182 182 182 184 184 184 187 187 187 188 188 188 187 187 187 188 188 188 192 192 192 
195 195 195 193 193 193 193 193 193 198 198 198 196 196 196 201 201 201 203 203 203 201 201 201 
201 201 201 198 198 198 197 197 197 193 193 193 195 195 195 190 190 190 192 192 192 192 192 192 
185 185 185 196 196 196 196 196 196 51 52 53 55 56 57 62 63 64 66 67 68 71 72 74 
74 74 77 77 78 80 78 79 81 80 81 82 78 79 81 78 78 79 75 75 77 73 74 75 
70 71 73 68 69 71 67 68 69 64 65 66 61 62 63 59 60 61 56 57 58 54 55 56 
52 53 54 50 51 52 48 49 50 47 48 48 45 45 46 43 44 44 40 41 41 39 40 40 
38 38 39 36 36 37 35 35 36 33 33 34 32 32 33 30 30 31 30 30 31 28 28 29 
26 27 27 25 26 26 25 25 26 23 23 23 23 23 23 21 22 22 21 21 21 20 20 20 
19 19 20 18 19 19 18 18 18 17 18 18 16 16 16 15 15 16 15 15 15 14 14 14 
14 14 14 14 14 14 14 14 14 13 13 13 13 13 13 11 11 11 12 12 12 11 11 11 
11 11 11 11 11 11 9 9 9 10 10 10 10 10 10 10 10 10 9 9 9 9 9 9 
9 9 9 10 10 10 12 12 12 32 32 32 32 32 32 32 32 32 32 32 32 152 32 37 
255 31 40 148 19 23 
134 25 29 255 39 47 172 37 42 30 30 30 30 30 30 30 30 30 31 31 31 13 13 13 
7 7 7 8 8 8 8 8 8 8 8 8 7 7 7 8 8 8 7 7 7 8 8 8 
8 8 8 8 8 8 9 9 9 9 9 9 10 10 10 10 10 10 10 10 10 10 10 10 
10 10 11 11 11 11 11 11 12 12 12 12 13 13 14 13 13 13 15 15 15 14 14 14 
15 15 15 16 17 17 17 17 18 16 16 16 18 18 18 20 20 20 20 20 20 20 21 21 
22 22 22 23 24 24 24 24 24 25 25 25 26 26 27 27 27 28 28 29 29 30 30 30 
31 31 32 32 33 33 34 34 35 35 36 36 37 38 38 37 38 38 41 41 42 41 41 42 
43 44 44 45 46 47 47 47 48 49 50 51 51 52 52 53 54 55 55 57 58 58 59 61 
60 61 62 63 64 65 65 66 67 67 68 69 69 70 72 73 74 75 74 76 78 78 79 80 
79 80 82 83 84 85 84 85 86 84 85 87 85 85 86 83 84 85 79 81 82 97 97 98 
197 197 197 189 189 189 186 186 186 191 191 191 189 189 189 191 191 191 194 194 194 197 197 197 
197 197 197 199 199 199 197 197 197 202 202 202 201 201 201 206 206 206 207 207 207 205 205 205 
203 203 203 202 202 202 200 200 200 196 196 196 193 193 193 197 197 197 194 194 194 190 190 190 
191 191 191 218 218 218 87 87 88 53 53 54 57 58 59 64 64 65 67 68 69 72 73 74 
75 76 77 77 79 80 77 79 81 79 80 81 77 78 80 76 77 78 73 74 76 71 72 73 
68 69 70 66 67 68 64 65 66 62 63 64 59 60 61 56 57 59 54 55 56 52 52 53 
50 51 51 48 49 50 47 47 48 44 44 45 42 43 43 41 41 42 40 40 41 37 38 39 
35 36 36 33 34 34 32 32 33 31 32 32 31 31 32 29 30 30 27 28 28 26 26 27 
25 25 26 24 24 24 23 24 24 22 23 23 22 22 22 20 21 21 19 20 20 19 19 19 
18 18 18 18 18 18 16 16 16 15 16 16 15 15 15 14 14 14 12 13 13 13 13 13 
12 12 12 12 12 12 11 11 11 11 11 11 11 11 11 10 10 10 10 10 10 9 9 9 
9 9 9 10 10 10 9 9 9 8 8 8 9 9 9 8 8 8 7 7 7 7 7 7 
7 7 7 7 7 7 11 11 11 30 30 30 30 30 30 30 30 30 30 30 30 143 33 37 
255 33 41 161 21 27 
133 23 28 255 37 45 169 35 40 29 29 29 29 29 29 29 29 29 29 29 29 12 12 12 
6 6 6 6 6 6 6 6 6 7 7 7 6 6 6 7 7 7 7 7 7 8 8 8 
8 8 8 8 8 8 8 8 9 9 9 9 9 9 9 9 9 9 10 10 10 9 9 9 
10 10 10 10 10 10 11 11 12 12 12 12 13 13 13 12 12 12 13 13 13 14 14 14 
14 14 14 15 16 16 16 16 16 16 16 17 17 17 18 18 19 19 20 20 20 20 20 20 
21 21 21 22 22 22 23 23 24 23 23 24 25 26 26 26 27 27 29 29 30 30 30 30 
31 31 32 31 32 32 33 34 35 36 36 36 37 38 39 38 39 39 39 40 40 42 43 43 
44 44 45 45 46 46 47 47 48 49 50 51 51 52 53 53 54 55 55 56 57 57 58 59 
59 61 62 62 63 64 64 66 67 67 69 70 69 70 71 72 73 75 75 76 77 78 79 80 
81 82 84 83 84 85 84 86 87 86 87 89 86 87 88 85 86 88 82 83 85 78 79 81 
164 164 164 202 202 202 193 193 193 195 195 195 194 194 194 198 198 198 197 197 197 203 203 203 
203 203 203 204 204 204 210 210 210 210 210 210 210 210 210 209 209 209 210 210 210 207 207 207 
206 206 206 205 205 205 201 201 201 197 197 197 198 198 198 198 198 198 198 198 198 197 197 197 
205 205 205 172 172 173 49 50 51 52 53 54 58 59 60 64 65 66 68 69 70 72 73 75 
75 76 78 76 78 79 77 78 78 76 77 79 76 77 78 73 73 75 72 73 74 69 70 71 
66 67 68 63 64 65 62 63 64 58 59 60 57 58 59 54 55 56 52 53 54 49 50 51 
49 50 51 47 47 48 44 45 45 43 43 44 40 41 41 38 40 40 38 38 39 37 37 38 
35 35 35 33 33 34 32 33 33 31 31 32 29 29 29 27 27 28 26 27 27 24 25 25 
25 25 25 22 22 23 22 22 22 21 21 21 20 20 20 19 19 19 18 18 18 17 17 18 
15 16 16 16 16 16 15 15 15 14 14 14 13 13 14 13 13 13 12 12 12 12 12 12 
11 11 11 11 11 11 10 10 10 10 10 10 10 10 10 10 10 10 8 8 8 8 8 8 
8 8 8 7 7 8 8 8 8 7 7 7 7 7 7 6 6 7 6 6 6 6 6 6 
6 6 6 7 7 7 10 10 10 29 29 29 30 30 30 30 30 30 29 29 29 142 33 37 
255 34 43 161 23 28 
133 23 27 255 35 43 170 34 39 29 29 29 30 30 30 30 30 30 29 29 29 12 12 12 
6 6 6 6 6 6 6 6 6 7 7 7 7 7 7 7 7 7 7 7 7 7 7 7 
7 7 7 7 7 7 9 9 9 8 8 8 9 9 9 8 9 9 9 9 9 9 9 9 
10 10 10 10 10 10 11 11 11 11 11 11 12 12 12 12 12 13 13 13 13 14 14 14 
14 15 15 15 15 15 16 16 16 17 17 17 18 18 18 19 19 19 19 20 20 21 21 21 
21 22 22 23 23 23 24 24 24 24 25 25 26 26 27 27 27 28 29 29 29 30 30 31 
31 32 32 33 33 34 33 34 34 35 36 36 37 38 38 39 39 40 40 41 42 42 43 43 
44 44 45 46 46 47 47 47 48 49 50 51 51 51 52 54 55 56 56 57 58 58 59 60 
60 61 62 63 65 66 65 66 67 68 69 71 71 72 73 73 74 76 76 78 79 79 80 82 
82 83 84 84 85 87 86 87 89 88 90 90 89 90 91 87 89 90 85 86 87 81 82 84 
131 132 132 200 200 200 191 191 191 193 193 193 191 191 191 191 191 191 194 194 194 198 198 198 
198 198 198 200 200 200 201 201 201 203 203 203 205 205 205 207 207 207 207 207 207 205 205 205 
201 201 201 202 202 202 200 200 200 199 199 199 195 195 195 194 194 194 192 192 192 193 193 193 
200 200 200 135 135 135 49 50 50 53 54 55 58 59 60 64 65 66 69 70 70 72 73 74 
75 77 79 76 77 79 77 78 79 76 77 78 75 76 77 72 73 75 70 71 72 67 68 69 
65 66 67 62 63 64 60 61 62 58 59 60 56 57 58 54 54 56 52 52 53 49 50 50 
48 49 50 45 45 46 43 44 45 41 42 42 41 41 42 38 38 39 35 36 36 35 36 36 
32 33 33 32 32 33 30 31 31 30 30 31 28 28 28 27 27 28 25 25 26 24 24 25 
23 23 23 22 22 22 20 21 21 21 22 22 18 19 19 19 19 19 18 18 18 17 17 17 
16 16 16 16 16 16 14 15 15 14 14 14 13 13 13 13 13 13 12 12 12 11 11 12 
11 11 11 10 10 11 10 10 10 10 10 11 9 9 9 8 8 8 8 8 8 7 7 7 
8 8 8 6 6 6 7 7 7 7 7 7 7 7 7 6 6 6 7 7 8 6 6 6 
6 6 6 7 7 7 9 9 9 29 29 29 29 29 29 29 29 29 29 29 29 143 34 38 
255 36 44 161 24 29 
134 23 26 255 33 42 172 33 39 31 31 31 32 32 32 31 31 31 31 31 31 14 14 14 
8 8 8 7 7 7 8 8 8 8 8 8 8 8 8 8 8 8 8 8 8 9 9 9 
8 9 9 9 9 9 10 10 10 10 10 10 9 10 9 10 10 10 10 10 10 11 12 12 
12 12 12 13 13 13 13 13 13 14 14 14 14 14 14 15 15 15 15 15 16 15 15 15 
16 16 16 17 18 18 17 17 18 18 18 19 19 19 19 20 20 20 21 22 22 23 23 23 
23 24 24 24 24 25 25 25 26 26 27 27 27 28 28 30 30 31 30 30 31 32 33 33 
33 33 34 34 35 35 36 37 38 37 38 39 39 40 40 40 41 42 43 43 44 44 45 46 
47 48 48 48 49 50 51 52 53 52 52 53 54 55 56 57 58 59 59 60 61 61 62 63 
63 64 66 65 66 67 69 70 71 71 72 73 74 75 76 76 76 78 79 80 81 81 82 84 
85 86 87 86 88 90 90 91 93 91 92 94 91 92 94 90 91 93 88 89 91 103 104 105 
172 172 172 200 200 200 194 194 194 190 190 190 191 191 191 194 194 194 193 193 193 202 202 202 
196 196 196 200 200 200 204 204 204 201 201 201 204 204 204 206 206 206 205 205 205 203 203 203 
203 203 203 202 202 202 200 200 200 194 194 194 195 195 195 194 194 194 189 189 189 195 195 195 
199 199 199 182 182 182 53 54 55 53 54 55 60 60 62 64 65 66 70 70 72 72 74 75 
77 77 78 77 79 80 78 79 81 76 77 79 76 77 78 73 74 75 71 72 73 68 69 70 
66 67 68 63 64 65 60 61 62 59 59 61 56 57 58 54 55 56 51 51 52 50 51 52 
47 47 48 46 47 47 43 44 44 42 43 43 40 41 41 39 39 40 37 38 39 37 37 37 
34 34 35 33 34 34 32 32 33 31 31 31 30 30 31 28 28 29 26 27 27 26 26 26 
24 24 25 23 23 24 22 22 23 21 21 22 20 20 20 20 20 21 19 19 20 18 18 18 
17 17 17 16 16 16 15 15 15 15 15 16 14 14 14 13 13 13 14 14 14 13 13 13 
13 13 13 11 11 11 11 11 11 11 11 11 11 11 11 10 10 10 10 10 10 10 10 10 
9 9 9 9 9 9 9 9 9 9 9 9 7 7 8 8 8 8 9 9 9 8 8 8 
8 8 8 8 8 8 11 11 11 31 31 31 31 31 31 31 31 31 32 32 32 143 35 39 
255 38 46 161 24 29 
126 22 26 255 32 40 178 32 37 29 29 29 29 29 29 29 29 29 29 29 29 13 13 13 
6 6 6 6 6 6 6 6 6 6 6 6 6 6 6 8 8 8 7 7 7 8 8 8 
7 7 7 8 8 8 9 9 9 8 8 8 9 10 10 10 10 10 9 9 9 10 10 11 
10 10 10 11 11 11 12 12 12 12 12 12 12 12 13 13 13 13 14 14 14 14 15 15 
15 15 15 17 17 17 18 18 18 18 18 18 19 19 20 19 20 20 20 20 21 21 22 22 
22 22 23 24 24 25 25 25 25 26 26 27 27 27 28 29 29 29 29 30 31 31 32 32 
32 32 33 34 35 35 35 36 37 36 37 37 39 40 41 41 41 42 42 43 43 45 45 46 
46 46 47 49 49 50 51 51 52 51 52 53 54 55 56 56 57 58 58 60 61 60 61 62 
64 65 66 66 67 68 68 69 71 70 71 73 73 74 76 76 77 78 79 80 82 82 83 85 
85 86 88 86 88 89 89 91 92 90 91 93 91 93 94 91 92 95 94 95 97 128 128 128 
204 204 204 190 190 190 191 191 191 189 189 189 195 195 195 192 192 192 196 196 196 196 196 196 
198 198 198 199 199 199 202 202 202 200 200 200 208 208 208 204 204 204 204 204 204 202 202 202 
199 199 199 199 199 199 197 197 197 194 194 194 194 194 194 191 191 191 190 190 190 188 188 188 
188 188 188 203 203 203 127 127 128 52 53 53 58 58 59 63 64 64 67 67 68 71 72 74 
73 74 75 75 76 77 74 75 77 73 74 76 71 72 74 70 71 73 67 68 69 66 67 68 
63 64 65 61 62 63 57 58 60 56 57 58 54 54 56 52 52 53 49 50 50 48 49 50 
45 46 47 43 44 45 41 42 42 41 41 42 39 39 40 36 37 37 35 36 36 34 34 35 
32 32 33 31 31 32 29 29 30 28 28 29 27 27 28 25 26 26 25 25 26 24 24 24 
23 23 23 21 22 22 20 21 21 18 19 19 19 19 19 18 18 18 17 17 17 16 16 16 
15 15 16 13 14 14 14 14 14 13 13 13 13 13 13 12 12 12 12 12 13 12 12 12 
10 10 11 10 10 10 10 10 11 9 9 9 10 10 10 9 9 9 8 8 8 8 8 8 
8 8 8 7 7 7 8 8 8 7 7 7 7 7 7 7 7 7 6 6 6 6 6 6 
6 6 6 6 6 6 9 9 9 30 30 30 30 30 30 30 30 30 29 29 29 152 36 40 
255 40 48 147 23 28 
121 22 26 255 30 39 185 31 37 29 29 29 30 30 30 29 29 29 29 29 29 13 13 13 
6 6 6 7 7 7 6 6 6 7 7 7 6 6 6 7 7 7 7 7 7 7 7 7 
8 8 8 8 8 8 8 8 8 8 8 8 9 9 9 9 9 9 9 9 10 10 10 10 
10 10 10 11 11 11 11 11 12 12 12 12 13 13 13 13 13 13 14 15 15 15 15 15 
15 16 16 16 16 17 17 17 18 18 18 18 19 19 19 20 20 20 21 21 21 22 22 22 
23 23 24 24 24 25 25 26 26 26 27 27 27 28 28 29 29 30 31 31 32 31 31 32 
33 34 34 35 35 36 37 37 38 37 38 38 39 40 40 41 41 42 44 44 45 44 45 46 
47 47 48 48 49 50 51 51 52 53 53 54 55 56 57 56 57 58 60 61 62 61 63 64 
64 65 66 66 68 69 70 71 72 72 73 74 75 75 77 78 79 80 80 81 83 83 84 85 
85 87 88 88 89 91 90 91 93 92 93 95 92 93 94 91 92 94 108 109 110 181 181 181 
192 192 192 188 188 188 187 187 187 191 191 191 192 192 192 190 190 190 192 192 192 197 197 197 
196 196 196 198 198 198 199 199 199 203 203 203 203 203 203 203 203 203 195 195 195 197 197 197 
194 194 194 194 194 194 193 193 193 193 193 193 190 190 190 191 191 191 186 186 186 185 185 185 
185 185 185 187 187 187 182 182 183 62 63 64 55 56 57 61 61 63 64 65 66 69 70 71 
71 72 73 73 74 75 72 72 73 72 73 74 70 71 72 68 69 70 67 68 69 64 65 66 
62 63 64 59 60 61 56 57 58 55 56 57 52 53 54 51 52 53 48 49 50 47 47 48 
44 45 46 43 43 44 40 41 41 40 40 41 38 38 39 35 36 36 35 35 35 33 33 34 
31 32 32 30 30 31 29 29 29 28 28 28 26 26 27 25 26 26 24 24 24 21 22 22 
22 22 23 21 21 21 20 20 21 19 19 19 18 18 19 17 17 18 16 16 16 15 15 15 
15 15 15 14 14 14 14 14 14 13 13 13 12 12 13 13 13 13 11 11 11 10 10 10 
10 10 10 10 10 10 9 9 9 9 9 9 9 9 9 8 8 8 8 8 8 7 7 8 
8 8 8 8 8 8 8 8 8 6 6 7 6 6 7 7 7 7 6 6 6 6 6 6 
6 6 6 7 7 7 10 10 10 29 29 29 29 29 29 30 30 30 30 30 30 157 37 42 
255 42 50 145 24 28 
118 22 25 255 29 38 189 30 36 30 30 30 30 30 30 30 30 30 30 30 30 15 15 15 
7 7 7 7 7 7 7 7 7 7 7 7 7 7 8 8 8 8 9 9 9 8 8 9 
8 8 9 9 9 9 9 9 9 9 10 10 10 10 10 10 10 10 11 11 11 11 11 11 
12 12 12 12 12 12 13 13 13 13 13 14 14 15 15 15 15 15 16 17 17 16 16 16 
16 16 16 17 17 17 19 19 19 19 19 20 20 21 21 20 20 21 21 22 22 23 23 24 
24 24 24 25 25 25 27 27 28 28 28 29 29 29 29 30 30 30 31 32 32 33 34 34 
34 35 35 37 37 37 37 38 38 39 40 41 41 42 43 43 44 44 45 45 46 47 47 48 
49 49 50 51 52 52 53 53 54 55 56 57 56 57 58 59 60 61 62 63 64 64 65 66 
66 67 68 70 71 72 72 73 74 74 75 77 76 77 79 80 81 83 84 85 86 85 86 88 
87 89 90 92 93 94 91 93 95 94 96 97 93 93 95 101 103 105 139 139 140 193 193 193 
179 179 179 183 183 183 182 182 182 185 185 185 186 186 186 188 188 188 193 193 193 191 191 191 
193 193 193 195 195 195 199 199 199 199 199 199 196 196 196 197 197 197 192 192 192 194 194 194 
192 192 192 191 191 191 183 183 183 186 186 186 185 185 185 181 181 181 182 182 182 178 178 178 
181 181 181 178 178 178 194 194 194 140 140 140 54 54 55 59 59 61 62 63 65 66 68 69 
69 70 70 71 72 74 71 72 73 71 72 74 69 70 71 68 69 70 66 67 69 64 65 66 
62 63 64 59 60 61 57 58 59 55 55 57 53 53 54 50 51 51 48 49 50 46 46 47 
44 45 46 42 44 44 41 41 42 39 40 41 37 38 38 36 37 37 34 34 35 33 33 34 
32 32 33 30 30 31 29 30 30 27 28 28 26 27 27 25 25 26 23 23 24 22 22 22 
23 23 23 22 22 22 19 19 19 19 19 19 18 19 18 17 17 17 17 17 18 15 15 16 
15 15 15 14 14 14 14 14 14 13 13 13 13 13 13 12 12 13 11 11 11 11 11 11 
10 10 10 10 10 11 9 9 9 10 10 10 9 9 9 8 8 9 9 9 9 8 8 8 
8 8 8 8 8 8 8 8 8 7 7 7 7 7 7 7 7 7 7 7 7 7 7 7 
7 7 7 7 7 7 12 12 12 31 31 31 31 31 31 30 30 30 30 30 30 161 39 43 
255 44 51 138 23 28 
101 21 24 255 28 37 206 29 36 31 31 31 31 31 31 31 31 31 31 31 31 18 18 18 
8 8 8 8 8 8 8 8 8 8 8 8 9 9 9 9 9 9 9 9 9 9 9 9 
10 10 10 10 10 10 9 10 9 11 11 11 11 11 11 10 10 11 12 12 12 11 11 12 
12 12 12 13 13 14 13 14 14 15 15 15 15 15 16 15 15 15 17 17 17 17 17 18 
17 17 18 18 19 19 20 20 20 20 20 20 21 21 21 23 23 23 23 23 23 24 24 25 
26 26 27 27 27 28 27 28 28 30 30 31 30 30 31 32 32 33 33 33 34 35 35 36 
36 36 37 38 38 39 39 40 40 40 41 41 43 43 44 44 44 45 46 47 48 49 49 50 
50 51 52 53 53 55 55 55 56 56 57 58 58 59 60 61 62 63 63 64 65 66 67 68 
68 69 70 71 72 73 73 74 75 77 77 79 78 79 80 81 82 85 84 85 86 87 89 90 
88 89 91 91 93 95 93 94 96 94 95 97 93 95 97 114 115 116 189 190 190 184 184 184 
183 183 183 183 183 183 183 183 183 187 187 187 190 190 190 188 188 188 190 190 190 191 191 191 
197 197 197 196 196 196 197 197 197 195 195 195 197 197 197 198 198 198 193 193 193 191 191 191 
189 189 189 185 185 185 185 185 185 181 181 181 182 182 182 183 183 183 184 184 184 179 179 179 
179 179 179 175 175 175 181 181 181 185 185 185 78 78 79 55 56 57 60 61 61 62 64 65 
66 68 69 69 70 71 70 71 72 68 69 70 69 70 71 67 68 69 65 66 67 63 64 65 
61 62 63 58 59 60 56 57 58 54 55 56 52 52 53 49 50 51 49 49 50 46 47 47 
45 45 46 42 43 43 41 42 43 39 39 40 37 38 38 36 36 36 34 35 35 32 33 33 
32 33 33 31 31 31 29 29 29 28 28 29 27 27 28 26 26 26 24 24 25 23 23 24 
22 22 22 21 21 22 20 20 20 19 19 20 18 18 19 19 19 19 17 17 17 16 16 16 
15 15 15 15 15 15 15 15 15 13 13 14 13 13 13 12 12 12 13 13 13 12 12 12 
11 12 12 11 11 11 11 11 11 10 11 11 10 10 10 10 10 10 9 9 10 9 9 9 
9 9 9 8 8 8 8 8 9 7 7 7 7 7 7 8 8 8 8 8 8 7 7 7 
8 8 8 7 7 7 15 15 15 31 31 31 31 31 31 31 31 31 31 31 31 179 42 46 
255 46 53 121 21 25 
83 19 22 255 27 35 222 28 35 31 31 31 30 30 30 30 30 30 31 31 31 19 19 19 
7 7 7 7 7 7 7 7 7 8 8 9 9 9 9 9 9 9 8 8 8 8 8 9 
10 10 10 10 10 10 9 10 10 10 10 10 10 10 10 11 11 11 11 11 11 12 12 12 
12 12 12 13 13 13 13 14 14 15 15 15 15 15 15 15 15 15 16 16 16 17 17 17 
19 19 19 19 19 19 19 19 20 19 20 20 20 20 21 22 23 23 23 24 24 25 25 25 
26 26 26 26 26 27 28 28 29 30 30 30 31 31 31 31 33 33 33 34 34 34 35 35 
37 37 37 37 38 38 39 39 40 41 41 42 42 43 43 46 46 47 46 47 47 49 49 50 
50 51 52 53 53 54 54 55 56 57 58 59 59 60 61 61 63 64 63 64 65 67 68 69 
68 69 70 71 72 73 74 75 77 77 78 79 79 80 82 83 84 86 85 86 88 87 88 89 
92 93 94 91 92 94 93 95 95 93 93 95 106 109 111 165 165 166 200 200 200 191 191 191 
192 192 192 197 197 197 198 198 198 198 198 198 201 201 201 202 202 202 203 203 203 203 203 203 
205 205 205 211 211 211 207 207 207 209 209 209 208 208 208 205 205 205 202 202 202 204 204 204 
201 201 201 196 196 196 200 200 200 195 195 195 197 197 197 193 193 193 193 193 193 190 190 190 
192 192 192 191 191 191 188 188 188 198 198 198 158 158 159 51 52 53 56 57 58 59 60 61 
62 63 64 65 66 67 67 67 69 66 67 68 66 67 68 66 67 68 63 64 65 62 63 64 
59 60 62 56 57 59 55 56 57 53 53 54 51 52 53 49 50 51 47 47 48 44 45 46 
44 44 45 42 42 43 40 41 41 38 39 39 36 37 37 35 35 36 33 33 34 32 32 33 
30 30 31 30 30 31 27 28 28 27 27 28 25 25 26 24 24 25 23 23 23 23 24 24 
22 22 22 21 21 21 20 20 20 19 19 19 18 18 18 17 18 18 16 16 16 16 16 16 
15 15 15 14 14 15 14 14 14 12 12 13 12 12 13 12 12 12 11 11 12 11 11 11 
10 10 11 11 11 11 10 10 10 9 9 9 9 9 10 10 10 10 8 8 8 8 8 8 
8 8 8 8 8 8 7 7 7 7 7 7 7 7 7 7 7 7 8 8 8 7 7 7 
7 7 7 6 6 6 15 15 15 30 30 30 30 30 30 30 30 30 29 29 29 195 44 49 
255 48 55 102 19 22 
64 18 19 255 26 35 239 26 35 29 29 29 29 29 29 29 29 29 29 29 29 19 19 19 
6 6 6 6 6 6 6 6 6 7 7 7 7 7 7 7 7 7 7 7 7 8 8 8 
8 8 8 8 8 8 9 9 9 10 10 10 9 9 10 9 9 9 9 9 10 11 11 11 
11 11 12 12 12 12 12 12 12 13 13 14 14 14 14 15 15 15 14 14 15 16 16 17 
17 17 17 17 18 18 18 18 18 20 20 20 21 21 21 21 21 21 22 23 23 23 23 24 
24 24 25 25 26 26 26 27 27 28 28 29 29 29 30 31 31 32 32 32 33 34 34 35 
35 36 36 37 38 38 39 39 40 41 41 42 42 43 43 43 44 45 46 47 48 48 49 50 
50 51 52 52 52 53 54 55 56 56 57 58 59 60 61 62 63 64 64 65 66 66 67 68 
69 70 71 71 72 73 74 74 76 77 78 79 79 80 82 82 83 84 84 86 88 87 88 90 
89 91 93 90 92 93 91 92 94 91 92 93 121 123 124 201 201 201 190 190 190 191 191 191 
188 188 188 193 193 193 195 195 195 192 192 192 194 194 194 198 198 198 202 202 202 200 200 200 
203 203 203 206 206 206 204 204 204 204 204 204 201 201 201 199 199 199 197 197 197 195 195 195 
193 193 193 192 192 192 189 189 189 191 191 191 190 190 190 190 190 190 183 183 183 185 185 185 
183 183 183 183 183 183 182 182 182 182 182 182 193 193 193 95 95 95 52 52 54 55 55 56 
58 58 60 60 61 62 62 62 64 63 64 65 63 64 65 62 63 64 61 62 63 59 60 61 
56 57 58 54 55 56 52 53 54 51 51 52 48 49 50 47 47 48 44 45 45 43 43 44 
40 41 41 40 40 41 37 37 38 35 37 37 34 34 34 32 33 33 31 32 32 29 30 30 
28 28 28 28 28 28 26 26 27 25 25 26 24 24 24 23 23 23 21 21 22 20 21 21 
19 19 20 18 19 19 16 17 17 17 17 17 16 16 16 15 15 15 14 14 14 13 14 14 
13 13 13 12 12 12 11 11 12 11 11 11 11 11 11 11 11 11 10 10 10 9 10 9 
8 8 8 9 9 9 8 9 9 8 8 8 8 8 8 7 7 7 7 7 7 6 6 6 
7 7 7 5 5 6 6 6 6 5 5 5 5 5 5 6 6 6 6 6 6 6 6 6 
5 5 5 5 5 5 16 16 16 29 29 29 29 29 29 29 29 29 28 28 28 212 47 53 
255 50 57 83 16 18 
46 18 19 255 25 34 255 25 34 33 30 30 30 30 30 30 30 30 30 30 30 22 22 22 
7 7 7 7 7 7 7 7 8 8 8 8 8 8 8 9 9 9 8 8 9 8 8 8 
8 8 8 9 10 10 10 10 10 10 10 10 11 11 11 11 11 11 11 11 11 12 12 12 
13 13 13 14 14 14 14 14 14 15 15 15 16 16 16 17 17 17 17 17 17 18 18 18 
18 18 19 19 19 20 20 20 20 21 21 22 21 21 21 23 23 24 23 23 24 25 26 26 
26 27 27 27 27 28 29 29 29 31 31 31 31 32 32 32 33 33 34 35 35 36 37 37 
37 38 38 39 39 40 41 41 42 42 43 43 45 45 46 46 47 47 49 49 50 50 51 52 
53 53 54 54 55 56 56 57 58 58 59 60 61 62 63 63 64 65 66 67 69 68 69 71 
71 72 73 73 74 75 76 77 79 78 79 80 83 84 85 85 86 87 87 88 89 89 90 92 
91 93 95 92 93 95 92 94 96 108 110 111 172 173 173 198 198 198 188 188 188 188 188 188 
188 188 188 191 191 191 194 194 194 193 193 193 195 195 195 197 197 197 196 196 196 196 196 196 
201 201 201 207 207 207 202 202 202 201 201 201 198 198 198 194 194 194 195 195 195 195 195 195 
197 197 197 188 188 188 188 188 188 187 187 187 188 188 188 187 187 187 186 186 186 184 184 184 
180 180 180 181 181 181 178 178 178 176 176 176 190 190 190 166 166 166 52 52 53 51 52 54 
54 55 56 57 57 59 59 60 61 61 62 63 62 63 64 60 61 62 60 61 62 59 60 61 
56 57 58 55 56 57 52 52 53 51 51 52 48 49 50 47 47 48 44 45 46 43 43 44 
41 41 42 39 40 40 38 38 39 37 37 38 35 35 36 34 34 35 32 32 33 31 31 32 
29 29 30 28 28 29 26 27 27 25 26 26 24 24 25 23 23 23 22 22 22 21 21 21 
19 19 20 20 20 20 19 19 19 18 18 18 17 17 17 16 16 16 15 15 15 15 15 15 
14 14 14 13 13 13 13 13 13 11 11 12 12 12 12 11 11 12 11 11 11 9 9 10 
10 10 10 10 10 10 9 9 9 8 9 9 10 10 10 8 8 8 8 8 8 8 8 8 
8 8 8 7 7 7 8 8 8 7 7 7 7 7 7 7 7 7 6 6 6 7 7 7 
6 6 6 6 6 6 19 19 19 30 30 30 30 30 30 30 30 30 30 30 30 231 51 58 
255 52 59 61 12 14 
23 14 15 255 25 34 255 25 34 54 30 31 30 30 30 31 31 31 31 31 31 26 26 26 
7 7 7 8 8 8 9 9 9 8 8 8 9 9 9 9 9 9 9 9 9 9 9 9 
9 9 9 10 11 10 11 11 11 10 10 11 11 11 11 12 12 12 12 12 12 12 12 13 
13 13 13 14 14 14 14 14 14 15 15 15 16 17 17 16 16 17 17 17 18 18 18 18 
19 19 19 19 19 19 21 21 21 22 22 22 22 22 23 23 23 23 25 25 26 26 26 27 
26 27 27 28 29 29 29 30 31 30 31 32 32 32 33 33 33 34 35 35 36 36 37 37 
38 39 39 41 41 42 42 42 43 43 44 44 45 46 47 47 48 49 48 49 50 51 52 52 
54 54 55 55 56 57 58 59 60 59 60 61 62 63 64 64 66 67 67 68 70 70 71 72 
72 73 74 75 76 78 78 79 80 81 82 84 84 85 86 86 88 89 88 90 91 90 91 93 
92 93 94 92 93 95 94 95 97 130 131 132 201 201 201 189 189 189 189 189 189 191 191 191 
193 193 193 193 193 193 196 196 196 197 197 197 199 199 199 201 201 201 200 200 200 202 202 202 
206 206 206 212 212 212 207 207 207 203 203 203 204 204 204 199 199 199 198 198 198 196 196 196 
195 195 195 193 193 193 193 193 193 190 190 190 186 186 186 187 187 187 188 188 188 187 187 187 
184 184 184 182 182 182 181 181 181 181 181 181 186 186 186 196 196 196 111 111 112 47 48 49 
51 52 53 54 55 57 56 57 58 58 59 60 60 60 61 59 60 61 59 60 61 58 59 60 
55 56 57 54 55 56 51 52 53 51 52 52 48 49 50 46 46 47 44 45 46 42 43 43 
40 40 41 39 39 40 36 37 37 36 36 36 34 35 35 32 33 33 31 32 32 29 29 30 
28 29 29 27 27 28 26 26 27 25 25 25 24 24 24 22 22 23 21 22 22 20 21 21 
19 20 20 19 19 20 18 18 18 17 17 17 18 18 18 16 17 17 15 16 16 15 15 15 
14 14 14 13 13 14 13 13 13 11 11 11 12 12 12 11 11 11 11 12 11 10 10 10 
10 10 10 10 10 10 9 9 9 9 9 10 8 8 9 8 8 8 8 8 8 8 8 8 
7 7 8 7 7 8 7 7 8 7 7 7 7 7 7 7 7 7 8 8 8 7 7 7 
7 7 7 6 6 6 22 22 22 31 31 31 31 31 31 30 30 30 31 30 30 250 55 62 
255 55 61 41 9 10 
11 11 11 236 24 32 255 25 34 81 29 31 29 29 29 29 29 29 29 29 29 27 27 27 
6 6 6 6 6 7 7 7 7 7 7 7 6 6 7 7 7 8 8 8 8 7 7 7 
8 8 8 9 9 9 9 9 9 10 10 10 10 10 10 11 11 11 11 11 11 12 12 12 
12 12 13 12 13 13 14 14 14 13 14 13 15 15 15 15 15 15 17 17 17 17 17 18 
17 17 18 19 19 19 20 20 21 21 21 21 21 21 22 22 23 23 25 25 25 25 26 26 
26 27 27 28 28 29 29 29 29 31 31 32 31 32 32 33 33 34 35 36 36 36 36 37 
38 38 39 39 40 40 41 42 42 43 43 44 45 46 46 48 48 49 48 49 50 51 52 53 
52 54 55 55 56 57 57 58 59 60 61 62 62 63 64 65 66 67 67 68 69 70 71 72 
72 73 74 75 76 78 78 79 80 82 83 84 83 84 85 86 87 88 88 89 91 90 91 93 
90 91 93 89 90 92 107 107 109 186 186 186 200 200 200 190 190 190 191 191 191 195 195 195 
195 195 195 196 196 196 195 195 195 199 199 199 201 201 201 201 201 201 201 201 201 206 206 206 
205 205 205 208 208 208 208 208 208 206 206 206 203 203 203 200 200 200 201 201 201 201 201 201 
198 198 198 196 196 196 192 192 192 193 193 193 191 191 191 189 189 189 189 189 189 185 185 185 
188 188 188 183 183 183 187 187 187 181 181 181 181 181 181 190 190 190 175 175 175 53 53 54 
47 47 48 50 51 52 52 53 54 55 55 56 54 56 57 56 57 58 55 56 57 55 56 56 
52 53 54 51 52 53 49 49 50 47 48 49 46 46 47 43 44 45 42 42 43 40 40 41 
38 39 39 37 38 38 35 35 36 34 34 35 33 33 34 31 31 32 30 30 31 28 28 29 
26 27 27 24 25 25 23 24 24 23 23 24 22 22 23 21 21 21 20 20 20 19 19 19 
18 18 18 18 18 18 17 17 18 16 16 17 15 15 15 14 14 14 14 14 14 13 13 14 
13 13 13 11 11 11 10 10 11 10 10 10 10 10 11 10 10 10 9 9 10 9 9 9 
9 9 9 9 9 9 8 8 9 8 8 8 7 7 7 7 7 7 6 6 6 7 7 7 
6 6 6 6 6 6 5 5 5 6 6 6 6 6 6 6 6 6 6 6 6 5 5 5 
5 5 5 5 5 5 23 23 23 29 29 29 30 30 30 29 29 29 52 31 32 255 58 65 
255 57 64 10 2 2 
6 6 6 205 23 30 255 25 34 109 28 31 29 29 29 29 29 29 30 30 30 30 30 30 
7 7 7 7 7 7 8 8 8 7 7 7 7 7 7 8 8 8 7 7 7 8 8 8 
10 10 10 9 9 9 9 9 10 10 10 10 10 10 11 11 11 11 11 11 12 12 12 12 
13 13 13 13 13 13 14 15 15 14 15 15 15 15 16 15 15 15 17 18 18 18 18 18 
19 19 19 19 20 20 21 21 21 21 22 22 23 23 23 24 24 24 25 25 26 26 26 27 
26 27 27 28 28 29 29 29 30 31 31 32 33 33 34 34 35 36 35 36 36 37 38 38 
39 39 40 41 41 42 42 43 43 44 45 46 46 46 47 48 49 50 49 50 51 52 53 54 
54 55 56 56 57 58 59 60 61 62 63 64 64 65 66 67 68 69 69 70 71 71 72 74 
74 75 77 77 78 79 78 79 81 82 83 85 83 84 86 87 88 90 89 89 90 90 91 92 
90 92 93 95 96 98 142 143 143 208 208 208 193 193 193 195 195 195 195 195 195 198 198 198 
198 198 198 198 198 198 202 202 202 203 203 203 206 206 206 205 205 205 209 209 209 207 207 207 
210 210 210 208 208 208 204 204 204 207 207 207 202 202 202 206 206 206 201 201 201 199 199 199 
196 196 196 197 197 197 195 195 195 192 192 192 192 192 192 193 193 193 188 188 188 190 190 190 
188 188 188 186 186 186 187 187 187 187 187 187 185 185 185 182 182 182 197 197 197 131 131 131 
43 44 45 46 46 47 48 50 50 50 51 51 53 54 54 53 54 55 53 54 55 52 53 54 
52 53 54 49 49 51 48 49 49 47 47 48 45 46 47 43 44 45 41 42 43 39 40 40 
39 39 40 36 37 37 35 36 36 33 34 34 32 32 33 30 31 31 28 29 29 28 28 28 
26 27 27 26 26 27 25 25 26 23 23 23 21 21 22 20 21 21 19 19 20 18 19 19 
18 18 19 17 17 17 17 17 17 16 16 16 14 14 14 14 15 15 14 14 14 12 12 12 
12 12 13 12 12 12 11 11 11 11 11 11 10 10 10 9 9 9 9 9 9 9 9 9 
8 9 9 8 8 8 8 8 8 8 8 8 7 7 7 8 8 8 7 7 7 7 7 7 
6 6 6 6 6 6 6 6 6 6 6 6 6 6 6 6 6 6 5 5 5 5 5 5 
5 5 5 6 6 6 26 26 26 29 29 29 30 30 30 29 29 29 82 37 38 255 61 67 
235 55 62 0 0 0 
0 0 0 174 21 27 255 25 34 137 27 31 29 29 29 28 28 28 30 30 30 29 29 29 
9 9 10 7 7 7 7 7 7 6 6 6 7 7 7 8 8 8 7 7 7 8 8 8 
9 9 9 8 8 8 9 9 9 9 9 9 11 11 11 10 10 10 12 12 12 12 12 12 
13 13 13 12 12 13 14 14 14 15 15 15 16 16 16 15 15 16 16 16 17 17 17 18 
19 19 19 20 20 21 21 21 21 22 22 23 23 23 24 24 24 24 24 25 25 26 26 27 
28 28 29 29 29 29 30 30 31 31 32 32 33 33 34 35 35 35 36 37 37 38 38 39 
39 40 40 41 42 42 43 43 44 45 46 46 46 46 47 48 49 50 51 51 52 53 54 55 
55 56 57 57 58 59 58 59 60 62 63 64 64 65 66 66 67 68 70 71 72 72 73 74 
75 76 77 78 79 80 81 82 84 84 85 86 86 87 88 87 88 90 89 90 92 89 90 92 
89 90 92 108 109 110 190 190 190 196 196 196 190 190 190 188 188 188 189 189 189 198 198 198 
193 193 193 197 197 197 199 199 199 201 201 201 201 201 201 204 204 204 203 203 203 207 207 207 
203 203 203 202 202 202 201 201 201 201 201 201 200 200 200 197 197 197 196 196 196 191 191 191 
192 192 192 191 191 191 190 190 190 191 191 191 189 189 189 183 183 183 182 182 182 182 182 182 
183 183 183 183 183 183 179 179 179 178 178 178 180 180 180 179 179 179 185 185 185 183 183 183 
63 64 65 42 43 44 46 46 47 48 48 49 50 51 51 50 51 52 51 52 53 50 51 52 
50 51 52 49 49 50 47 48 49 46 46 47 44 45 45 41 41 42 40 41 41 38 39 39 
36 37 37 35 35 36 33 33 34 32 32 33 30 30 31 29 30 30 28 28 29 27 27 28 
24 24 25 24 25 25 22 23 23 22 22 23 21 21 21 20 20 20 18 19 19 18 18 18 
18 18 18 17 17 18 15 15 16 16 16 16 14 14 14 13 13 13 12 12 13 12 12 12 
11 11 11 11 11 11 11 11 11 10 10 10 9 9 9 9 9 9 9 9 9 9 9 9 
8 8 8 8 8 8 8 8 8 7 7 7 7 7 7 7 7 7 7 7 7 7 7 7 
6 6 6 6 6 6 6 6 6 6 6 6 5 5 5 6 6 6 5 5 5 5 5 5 
4 4 4 5 5 5 29 29 29 29 29 29 29 29 29 29 29 29 111 42 44 255 63 69 
202 50 55 0 0 0 
0 0 0 146 21 27 255 26 34 169 27 33 32 32 32 32 32 32 32 32 32 32 32 32 
17 17 17 9 9 9 9 9 9 9 9 9 11 11 11 10 10 10 10 10 10 10 11 11 
11 11 11 11 11 11 12 12 12 12 12 13 13 13 13 14 14 14 14 14 14 15 15 15 
15 15 15 16 16 16 15 16 16 17 17 18 17 18 18 19 19 19 20 20 20 21 21 21 
20 21 21 23 23 24 23 24 24 25 25 25 26 26 26 27 27 28 28 28 29 28 29 29 
31 31 31 31 31 32 32 33 33 35 35 36 35 36 36 37 38 38 39 40 40 40 41 42 
42 42 43 44 45 45 45 46 47 48 48 49 50 51 52 51 52 52 54 54 55 55 56 57 
59 60 61 60 62 63 63 64 65 65 66 68 68 69 70 70 71 72 73 75 76 75 76 78 
79 80 81 81 82 84 84 85 87 85 86 88 89 90 91 90 92 93 92 93 95 91 93 94 
103 104 106 146 147 147 204 204 204 191 191 191 192 192 192 193 193 193 195 195 195 195 195 195 
195 195 195 201 201 201 198 198 198 203 203 203 204 204 204 203 203 203 207 207 207 209 209 209 
207 207 207 207 207 207 203 203 203 204 204 204 200 200 200 200 200 200 196 196 196 194 194 194 
193 193 193 192 192 192 192 192 192 186 186 186 193 193 193 187 187 187 187 187 187 185 185 185 
185 185 185 181 181 181 183 183 183 179 179 179 181 181 181 176 176 176 178 178 178 193 193 193 
139 139 139 44 45 45 44 44 45 46 47 47 48 49 50 50 50 51 51 51 52 51 52 53 
50 50 51 50 51 51 48 48 49 48 48 49 46 46 47 44 45 45 41 41 42 41 41 42 
37 38 38 36 37 37 35 36 36 34 34 35 32 33 33 30 30 31 30 30 30 28 29 29 
27 27 28 26 26 27 26 26 26 24 24 24 22 23 23 21 21 21 20 21 21 20 20 20 
20 20 20 19 19 19 17 18 18 17 17 18 16 16 16 15 16 16 14 14 14 14 14 15 
13 13 13 12 12 12 13 13 13 12 12 12 11 11 11 11 11 11 12 12 12 10 11 11 
10 10 10 10 10 10 11 11 11 9 9 9 9 9 9 9 9 9 9 9 9 8 8 8 
8 8 8 8 8 8 8 8 8 9 9 9 8 8 8 7 7 7 7 7 7 7 7 7 
6 6 6 12 12 12 30 30 30 31 31 31 32 32 32 31 31 31 141 48 51 255 65 71 
169 43 47 0 0 0 
0 0 0 109 20 24 255 26 35 205 27 34 30 30 30 30 30 30 31 31 31 31 31 31 
18 18 18 7 7 7 7 7 7 8 8 8 8 8 8 9 9 9 8 9 8 9 9 9 
9 9 9 10 10 10 11 11 11 11 11 11 12 12 12 12 12 12 12 12 12 13 13 13 
13 13 14 15 15 15 15 15 15 17 17 17 17 17 18 17 17 18 18 18 19 18 19 19 
20 20 20 21 21 21 22 22 22 22 22 23 23 24 24 25 26 26 26 27 27 28 28 29 
29 30 30 31 31 32 31 32 32 34 34 35 35 36 36 37 37 38 39 39 40 39 40 41 
42 43 43 43 44 45 45 46 46 47 47 48 49 50 51 51 51 52 53 54 55 54 56 57 
59 60 61 59 60 61 62 63 64 65 66 67 67 68 70 69 70 71 73 74 75 74 75 77 
78 79 80 80 82 84 84 86 87 85 87 88 88 89 90 88 89 91 89 90 91 88 90 91 
109 109 111 192 192 192 192 192 192 188 188 188 192 192 192 193 193 193 191 191 191 192 192 192 
193 193 193 195 195 195 202 202 202 200 200 200 203 203 203 205 205 205 204 204 204 206 206 206 
204 204 204 204 204 204 201 201 201 199 199 199 200 200 200 197 197 197 193 193 193 191 191 191 
193 193 193 188 188 188 188 188 188 184 184 184 183 183 183 184 184 184 184 184 184 181 181 181 
183 183 183 181 181 181 181 181 181 179 179 179 178 178 178 176 176 176 177 177 177 176 176 176 
189 189 189 77 78 78 38 39 40 42 42 43 44 44 45 46 46 47 46 47 48 47 48 49 
47 47 48 46 47 48 44 45 46 43 44 44 42 42 43 41 42 42 38 39 39 38 38 39 
36 36 37 35 35 35 33 33 34 31 32 32 31 31 32 29 29 29 27 27 28 26 27 27 
24 25 25 24 24 24 23 23 24 21 22 22 20 20 21 19 19 19 19 19 19 17 18 18 
17 17 18 16 16 17 16 16 16 14 14 14 14 14 14 13 13 14 13 13 13 11 12 12 
12 12 12 11 11 11 11 11 11 10 10 10 10 10 10 9 9 9 10 10 10 9 9 9 
8 8 8 8 8 8 7 7 8 7 7 7 7 7 7 7 7 7 7 7 7 7 7 7 
6 6 6 6 6 6 7 7 7 6 6 6 6 6 6 6 6 6 5 5 5 5 5 5 
5 5 5 14 14 14 29 29 29 29 29 29 29 29 29 30 30 30 177 55 59 255 68 74 
130 34 37 0 0 0 
0 0 0 67 19 21 255 26 35 244 26 35 31 30 30 30 30 30 31 31 31 30 30 30 
22 22 22 7 7 7 7 7 7 8 8 8 8 8 8 8 8 8 8 9 9 10 10 10 
9 9 9 10 10 10 11 11 11 11 11 11 11 11 11 13 13 13 13 13 13 13 13 13 
15 15 15 15 15 15 15 15 15 16 16 16 17 17 17 18 18 18 18 18 18 19 20 20 
22 22 22 21 22 22 23 23 23 24 24 24 26 26 27 26 26 27 28 28 29 29 29 29 
30 30 31 30 32 32 33 33 34 33 34 34 35 36 36 36 37 38 39 40 41 40 40 41 
43 44 44 45 45 46 45 45 46 48 48 49 49 50 50 52 52 53 54 55 56 56 57 58 
58 60 61 61 62 63 63 64 65 65 66 67 68 69 70 70 71 73 74 75 77 76 77 79 
78 79 81 83 84 85 84 85 87 86 88 89 88 89 90 89 91 92 87 89 90 102 103 105 
153 153 154 201 201 201 190 190 190 191 191 191 193 193 193 192 192 192 197 197 197 198 198 198 
198 198 198 203 203 203 203 203 203 202 202 202 208 208 208 207 207 207 208 208 208 209 209 209 
207 207 207 206 206 206 204 204 204 201 201 201 199 199 199 199 199 199 194 194 194 194 194 194 
191 191 191 191 191 191 190 190 190 186 186 186 190 190 190 187 187 187 185 185 185 184 184 184 
181 181 181 181 181 181 180 180 180 179 179 179 180 180 180 176 176 176 181 181 181 178 178 178 
191 191 191 150 150 151 39 40 41 38 39 40 40 41 42 42 43 43 43 44 45 45 45 46 
45 46 46 44 45 46 44 44 45 42 43 44 42 43 43 40 40 41 38 38 39 36 38 38 
34 35 35 32 33 33 31 31 32 30 31 31 29 30 30 28 28 28 26 27 27 25 26 26 
24 24 25 24 24 24 22 23 23 20 21 21 21 21 21 18 19 19 19 19 19 18 18 18 
17 17 17 16 16 16 15 15 16 14 15 15 14 14 14 13 13 13 13 13 13 12 12 12 
11 11 12 11 11 11 10 10 11 10 10 10 9 9 10 10 10 10 9 9 9 8 8 8 
8 8 8 8 8 8 7 7 7 6 6 6 7 7 7 7 7 7 7 7 7 6 6 7 
6 6 6 6 6 6 6 6 6 6 6 6 6 6 6 6 6 6 5 5 5 5 5 5 
5 5 5 19 19 19 29 29 29 29 29 29 29 29 29 29 29 29 218 64 69 255 70 76 
84 23 25 0 0 0 
0 0 0 22 13 14 254 27 36 255 27 35 60 30 32 30 30 30 31 31 31 32 32 32 
27 27 27 8 8 8 8 8 8 10 10 10 9 9 9 8 9 8 10 10 10 10 10 10 
10 10 11 11 11 11 12 12 13 13 13 13 13 13 13 13 13 13 14 14 14 14 14 15 
15 15 15 16 16 16 17 17 17 16 16 17 18 18 19 19 19 19 19 19 19 21 21 21 
22 22 22 23 23 23 24 24 25 25 25 26 26 27 27 27 28 28 28 28 29 29 29 30 
32 32 33 33 33 34 34 34 35 35 35 36 38 38 39 38 39 39 40 41 41 42 42 43 
44 44 45 46 47 48 48 48 49 50 51 52 51 52 53 53 54 55 56 57 58 58 59 60 
60 62 63 64 65 66 66 67 68 68 69 71 70 71 73 73 74 75 75 76 78 78 80 81 
81 82 84 83 85 86 86 88 89 88 89 90 88 89 91 88 90 92 91 92 93 118 119 120 
203 203 203 198 198 198 196 196 196 195 195 195 199 199 199 200 200 200 202 202 202 202 202 202 
208 208 208 206 206 206 204 204 204 203 203 203 211 211 211 210 210 210 209 209 209 216 216 216 
209 209 209 207 207 207 207 207 207 204 204 204 200 200 200 199 199 199 203 203 203 201 201 201 
198 198 198 193 193 193 194 194 194 188 188 188 190 190 190 191 191 191 191 191 191 188 188 188 
185 185 185 185 185 185 183 183 183 185 185 185 184 184 184 183 183 183 179 179 179 179 179 179 
181 181 181 194 194 194 95 95 95 35 36 36 38 39 39 40 40 41 41 42 42 43 43 44 
44 45 46 44 44 45 43 44 44 42 43 43 41 42 42 39 40 40 38 38 39 37 37 38 
35 35 35 32 33 33 31 32 32 31 31 32 30 31 31 28 28 29 27 27 28 26 26 27 
25 25 25 23 24 24 22 22 23 21 21 21 21 21 22 20 20 20 19 19 19 17 17 18 
17 17 17 16 16 16 15 15 15 15 15 15 15 15 15 14 14 14 12 12 12 13 13 13 
11 11 11 12 12 12 11 11 11 11 11 11 11 11 11 10 10 10 9 9 9 9 9 10 
9 9 9 8 8 9 8 8 8 8 8 8 8 8 8 8 8 9 6 6 6 7 7 7 
7 7 7 7 7 7 7 7 7 6 6 6 6 6 6 6 6 6 6 6 6 7 7 7 
6 6 6 24 24 24 30 30 30 30 30 30 30 30 30 37 32 32 252 73 78 255 73 79 
39 11 12 0 0 0 
0 0 0 6 6 6 220 26 33 255 27 36 101 30 33 32 32 32 33 33 33 31 31 31 
31 31 31 9 9 9 9 9 9 10 10 10 10 10 10 9 10 10 11 11 11 11 11 11 
11 11 11 12 12 12 12 12 13 13 13 13 14 14 14 14 14 15 14 14 14 15 15 15 
15 16 16 16 16 16 17 17 17 18 18 18 19 20 20 19 19 20 20 21 21 22 22 23 
23 23 24 22 23 23 25 25 25 26 26 26 27 27 28 28 28 29 30 30 30 31 31 32 
32 33 33 33 34 35 35 36 36 37 38 38 38 39 39 41 41 42 42 42 43 43 44 45 
46 46 47 47 48 49 49 49 51 51 52 52 53 53 54 55 56 57 57 58 60 60 61 62 
62 63 64 64 65 66 67 68 69 69 70 71 71 72 74 75 76 78 76 77 78 80 81 83 
83 84 86 85 86 88 87 88 89 88 89 90 88 89 91 88 90 90 105 106 107 162 162 162 
199 199 199 191 191 191 194 194 194 192 192 192 197 197 197 195 195 195 201 201 201 198 198 198 
205 205 205 204 204 204 204 204 204 204 204 204 208 208 208 209 209 209 207 207 207 207 207 207 
206 206 206 202 202 202 203 203 203 202 202 202 198 198 198 194 194 194 194 194 194 194 194 194 
192 192 192 189 189 189 186 186 186 186 186 186 184 184 184 187 187 187 182 182 182 182 182 182 
185 185 185 184 184 184 179 179 179 178 178 178 183 183 183 178 178 178 179 179 179 177 177 177 
174 174 174 184 184 184 163 163 163 43 43 44 35 36 36 38 38 39 40 40 41 41 41 41 
42 43 44 42 42 43 42 43 44 41 42 42 41 41 42 40 40 41 38 39 39 36 37 37 
35 36 36 33 34 34 32 32 33 30 31 31 30 30 31 27 28 28 26 27 27 25 25 26 
24 24 25 24 25 25 21 22 22 22 22 22 20 21 21 19 19 19 19 19 19 17 17 18 
17 17 17 16 16 17 15 16 16 15 15 15 14 14 14 14 14 14 13 13 13 12 12 13 
12 12 12 10 10 11 11 11 11 11 11 12 10 10 10 10 10 10 8 8 8 10 10 10 
10 10 10 8 8 8 9 9 9 9 9 9 8 8 8 7 7 7 7 7 7 7 7 7 
8 8 8 8 8 8 7 7 7 7 7 7 6 6 6 6 6 6 7 7 7 7 7 7 
7 7 7 28 28 28 30 30 30 30 30 30 30 30 30 73 40 41 255 77 82 246 74 79 
3 1 1 0 0 0 
0 0 0 0 0 0 177 23 30 255 28 37 145 29 33 30 30 30 31 31 31 31 31 31 
30 30 30 14 14 14 9 9 9 8 8 8 8 8 8 9 9 9 9 9 9 9 9 10 
10 10 10 10 10 11 11 11 11 11 11 12 12 13 13 13 13 13 14 14 15 14 14 14 
15 15 15 15 15 16 16 17 17 18 18 18 17 17 17 18 18 18 20 20 20 20 20 20 
21 22 22 22 22 23 24 24 25 24 25 25 26 27 27 27 28 28 28 29 30 31 31 32 
31 31 32 33 33 34 34 34 35 36 36 37 37 38 38 39 40 40 41 41 42 42 43 44 
45 46 47 47 48 49 48 49 50 51 51 52 54 54 55 54 55 56 56 57 58 60 61 62 
62 63 64 64 65 66 66 67 68 69 70 71 72 74 75 75 75 77 77 79 80 80 81 83 
82 84 85 85 87 88 86 87 89 87 89 90 87 88 90 88 90 91 118 118 120 202 202 202 
193 193 193 191 191 191 192 192 192 195 195 195 196 196 196 196 196 196 195 195 195 195 195 195 
200 200 200 201 201 201 207 207 207 207 207 207 207 207 207 206 206 206 206 206 206 202 202 202 
200 200 200 199 199 199 202 202 202 198 198 198 198 198 198 192 192 192 193 193 193 194 194 194 
191 191 191 191 191 191 187 187 187 187 187 187 187 187 187 185 185 185 179 179 179 182 182 182 
182 182 182 178 178 178 177 177 177 178 178 178 179 179 179 175 175 175 172 172 172 175 175 175 
177 177 177 174 174 174 193 193 193 108 108 108 31 32 33 34 34 35 36 36 37 36 37 38 
39 39 40 39 40 40 40 40 41 39 40 40 38 38 39 37 37 38 36 36 37 35 35 35 
33 33 34 31 32 32 30 30 31 29 29 29 27 27 27 26 26 27 24 25 25 25 25 25 
22 22 23 22 22 22 21 21 21 19 20 20 19 19 19 18 18 19 17 17 18 16 16 16 
15 15 15 14 15 15 14 14 14 14 14 14 13 13 13 11 11 12 12 12 12 11 11 11 
11 11 11 9 9 9 9 10 9 9 9 9 9 9 9 9 9 9 8 8 8 8 8 8 
7 7 8 8 8 8 7 7 7 7 7 7 6 6 7 6 6 6 6 6 6 6 6 6 
6 6 6 7 7 7 6 6 6 5 5 5 5 5 5 5 5 5 5 5 5 5 5 5 
8 8 8 29 29 29 29 29 29 29 29 29 29 29 29 118 49 51 255 79 84 205 64 68 
0 0 0 0 0 0 
0 0 0 0 0 0 124 22 26 255 29 38 197 29 35 30 30 30 31 31 31 31 31 31 
30 30 31 19 19 20 9 9 9 8 8 8 8 9 9 10 10 10 10 10 10 10 10 10 
11 11 11 12 12 12 12 12 12 13 13 14 13 13 14 14 14 14 15 15 15 15 16 16 
15 15 15 17 17 17 18 18 18 19 19 19 19 19 20 19 20 20 21 21 22 21 22 22 
23 23 24 25 25 25 26 26 26 27 27 28 28 29 29 30 30 30 30 31 31 31 32 32 
33 34 34 34 35 35 36 36 36 37 38 38 39 39 40 40 40 41 42 43 43 45 45 46 
46 47 47 49 49 50 51 52 52 53 53 55 55 56 57 56 57 58 59 60 61 61 62 63 
64 65 66 65 67 68 68 69 70 71 72 74 74 75 77 76 77 78 79 81 83 83 84 85 
85 86 88 85 86 87 88 89 90 87 88 90 87 89 90 108 108 109 177 177 177 203 203 203 
195 195 195 195 195 195 198 198 198 196 196 196 201 201 201 203 203 203 198 198 198 201 201 201 
201 201 201 207 207 207 209 209 209 214 214 214 211 211 211 210 210 210 208 208 208 210 210 210 
203 203 203 201 201 201 202 202 202 202 202 202 200 200 200 202 202 202 196 196 196 195 195 195 
194 194 194 191 191 191 189 189 189 186 186 186 188 188 188 186 186 186 185 185 185 187 187 187 
187 187 187 181 181 181 180 180 180 184 184 184 178 178 178 179 179 179 183 183 183 180 180 180 
182 182 182 180 180 180 188 188 188 179 179 179 48 48 49 31 31 32 34 34 34 35 36 37 
37 37 38 38 39 40 38 39 39 38 38 39 38 38 39 36 37 37 35 36 37 35 35 36 
33 33 34 31 31 32 30 30 31 28 28 29 27 28 28 26 27 27 25 25 26 23 24 24 
24 24 24 21 22 22 21 21 21 20 20 20 19 19 19 19 19 19 17 17 17 16 16 17 
15 15 16 15 15 15 15 15 15 14 14 14 14 14 14 13 13 13 12 12 13 11 11 11 
11 11 11 11 11 11 9 9 10 10 10 10 10 10 10 8 8 8 8 8 8 10 10 10 
8 8 8 8 8 8 7 7 7 8 8 8 7 7 7 7 7 7 7 7 7 6 6 6 
8 8 8 7 7 7 7 7 7 6 6 6 6 6 6 6 6 6 6 6 6 6 6 6 
14 14 14 30 30 30 29 29 29 30 30 30 30 30 30 169 63 66 255 82 87 147 47 50 
0 0 0 0 0 0 
0 0 0 0 0 0 69 20 22 255 30 38 245 29 38 35 31 31 30 30 30 30 30 31 
31 31 31 25 25 25 8 8 8 9 9 9 10 10 10 10 10 10 9 9 10 11 11 11 
11 11 12 11 11 11 12 12 13 13 13 13 13 13 13 13 13 14 14 14 14 15 15 15 
15 15 16 16 16 17 17 17 17 18 18 18 19 19 19 19 19 19 21 21 21 22 22 22 
23 23 23 25 25 26 25 25 26 26 27 27 27 28 28 29 29 30 31 31 32 32 32 33 
33 34 35 35 35 36 36 36 37 37 38 38 39 40 40 41 41 42 43 43 44 44 45 46 
48 48 49 48 49 50 51 51 52 53 53 54 55 56 57 57 58 59 60 61 62 62 63 64 
64 66 67 66 67 68 69 70 71 71 72 73 75 75 77 77 78 79 80 81 83 82 83 85 
85 87 88 86 87 89 87 88 90 87 88 89 92 93 95 121 121 122 200 200 200 187 187 187 
187 187 187 188 188 188 187 187 187 190 190 190 193 193 193 196 196 196 193 193 193 195 195 195 
197 197 197 199 199 199 201 201 201 199 199 199 200 200 200 201 201 201 197 197 197 197 197 197 
197 197 197 194 194 194 191 191 191 189 189 189 198 198 198 201 201 201 188 188 188 184 184 184 
183 183 183 182 182 182 181 181 181 180 180 180 178 178 178 176 176 176 177 177 177 177 177 177 
178 178 178 174 174 174 172 172 172 170 170 170 174 174 174 168 168 168 174 174 174 170 170 170 
171 171 171 169 169 169 166 166 166 185 185 185 119 119 120 29 29 30 30 31 32 33 34 34 
34 35 35 35 35 36 35 36 37 36 37 38 35 36 36 36 37 37 34 34 34 33 34 34 
32 33 33 30 30 31 29 29 29 29 29 29 27 27 28 25 25 26 24 25 25 24 24 24 
21 22 22 21 21 21 20 20 21 19 19 19 18 18 19 17 18 18 17 17 17 16 16 16 
14 14 14 14 14 14 14 14 14 13 13 13 12 12 13 12 12 12 11 11 11 11 11 11 
10 10 10 10 10 10 10 10 10 9 9 9 8 9 9 9 9 9 8 8 8 8 8 8 
8 8 8 7 7 7 7 7 7 6 6 7 7 7 7 7 7 7 7 7 7 6 6 6 
7 7 7 7 7 7 5 5 5 5 5 5 6 6 6 6 6 6 6 6 6 5 5 5 
21 21 21 30 30 30 29 29 29 29 29 29 30 30 30 221 78 82 255 85 89 87 29 30 
0 0 0 0 0 0 
0 0 0 0 0 0 17 12 12 248 31 39 255 30 39 76 31 32 31 31 31 30 30 30 
31 31 31 30 30 30 10 10 10 8 9 9 10 10 10 9 9 9 10 10 10 11 11 11 
10 10 10 11 11 11 12 12 12 12 12 13 13 13 13 14 14 14 14 14 14 15 15 15 
16 16 16 17 17 17 18 18 18 17 17 18 19 20 20 19 20 20 20 21 21 22 22 23 
24 24 24 25 25 25 26 27 27 27 27 28 28 28 28 30 30 30 30 31 31 31 33 33 
33 34 34 35 35 35 36 38 38 38 38 39 40 40 41 41 42 42 43 43 44 44 45 46 
48 48 49 49 50 51 52 52 53 52 53 54 55 57 58 58 59 60 61 62 63 62 63 64 
65 66 67 67 68 70 70 71 72 73 74 76 75 76 78 79 80 82 81 82 83 84 85 87 
85 86 88 86 88 89 87 88 89 85 87 88 105 105 106 181 182 182 196 196 196 191 191 191 
190 190 190 190 190 190 192 192 192 194 194 194 196 196 196 197 197 197 198 198 198 199 199 199 
202 202 202 203 203 203 204 204 204 209 209 209 207 207 207 204 204 204 203 203 203 202 202 202 
199 199 199 195 195 195 196 196 196 196 196 196 221 221 221 195 195 195 199 199 199 187 187 187 
188 188 188 187 187 187 183 183 183 182 182 182 183 183 183 180 180 180 179 179 179 179 179 179 
179 179 179 176 176 176 177 177 177 176 176 176 177 177 177 169 169 169 172 172 172 174 174 174 
173 173 173 172 172 172 174 174 174 178 178 178 181 181 182 61 61 61 28 28 29 30 30 31 
31 32 33 33 33 34 34 34 35 34 35 35 33 34 34 34 35 35 32 32 33 31 32 33 
31 32 32 29 29 30 28 28 29 26 27 27 25 26 26 24 24 25 23 23 24 22 22 22 
21 22 21 21 21 21 19 19 20 18 18 18 17 17 17 16 16 16 16 16 17 16 16 17 
14 14 14 14 14 14 13 13 14 13 13 13 12 12 12 12 12 12 11 11 11 10 10 11 
10 10 10 9 9 10 10 10 10 9 9 9 7 7 7 8 8 8 8 8 8 7 7 7 
6 6 6 7 7 7 7 7 7 6 6 6 7 7 7 7 7 7 6 6 6 6 6 6 
6 6 6 6 6 6 5 5 5 6 6 6 5 5 5 5 5 5 5 5 5 6 6 6 
26 26 26 29 29 29 30 30 30 29 29 29 48 34 34 255 89 93 255 87 92 27 9 10 
0 0 0 0 0 0 
0 0 0 0 0 0 0 0 0 198 28 35 255 31 40 129 31 35 31 31 31 31 31 31 
30 30 30 31 31 31 14 14 14 9 9 9 9 9 9 9 9 10 11 11 11 11 11 12 
11 11 11 11 11 12 13 13 13 13 13 13 13 13 14 14 14 14 15 15 15 15 15 16 
16 16 17 16 16 16 18 18 18 19 19 19 20 20 20 21 21 21 22 22 22 23 23 23 
24 24 25 25 25 26 26 27 27 27 28 28 29 29 30 29 29 30 31 32 32 33 33 34 
34 35 36 36 37 37 38 39 39 40 40 41 42 42 43 42 43 43 44 45 46 47 47 48 
48 49 50 51 51 52 54 54 55 54 55 56 56 57 58 60 61 62 62 63 64 65 66 67 
67 68 69 69 70 72 72 73 74 75 75 77 77 79 80 80 81 83 82 83 84 83 85 87 
86 87 89 87 88 90 85 86 88 96 97 99 133 133 135 202 202 202 189 189 189 189 189 189 
189 189 189 193 193 193 196 196 196 198 198 198 199 199 199 194 194 194 199 199 199 200 200 200 
201 201 201 206 206 206 209 209 209 207 207 207 208 208 208 202 202 202 202 202 202 202 202 202 
199 199 199 202 202 202 200 200 200 207 207 207 173 173 174 111 112 112 206 206 206 192 192 192 
188 188 188 189 189 189 185 185 185 186 186 186 186 186 186 181 181 181 181 181 181 180 180 180 
182 182 182 179 179 179 178 178 178 180 180 180 176 176 176 172 172 172 173 173 173 176 176 176 
175 175 175 171 171 171 170 170 170 172 172 172 185 185 185 136 136 136 30 30 31 28 29 29 
30 30 30 31 32 32 33 33 33 32 33 34 33 34 34 33 33 33 32 33 33 30 30 31 
31 32 32 29 30 30 28 28 28 27 27 28 26 26 27 25 25 25 24 24 24 22 22 23 
21 21 21 20 20 21 19 20 20 18 18 19 18 18 18 17 17 17 16 16 16 15 15 15 
15 16 16 14 14 14 12 12 12 11 11 12 12 12 12 12 12 12 11 11 11 10 10 10 
10 10 10 10 10 10 10 10 10 9 10 10 8 8 8 8 8 8 8 8 9 8 8 8 
7 7 7 7 7 7 6 6 7 7 7 7 7 7 7 7 7 7 6 6 6 6 6 6 
6 6 6 6 6 6 4 4 4 5 5 5 6 6 6 5 5 5 5 5 5 9 9 9 
30 30 30 30 30 30 29 29 29 30 30 30 101 50 51 255 92 96 226 81 84 0 0 0 
0 0 0 0 0 0 
0 0 0 0 0 0 0 0 0 138 24 29 255 33 41 191 31 38 30 30 30 30 30 30 
30 30 30 31 31 31 21 21 21 8 8 8 9 9 9 10 10 10 10 10 10 11 11 11 
10 10 10 11 11 12 12 12 12 13 13 13 14 14 14 14 14 14 15 15 15 16 16 16 
16 17 17 17 17 18 18 18 19 19 19 19 19 19 20 20 20 20 21 21 22 22 22 23 
24 24 24 25 26 26 27 27 28 27 27 28 29 29 29 29 30 30 31 32 32 32 33 33 
35 35 35 36 37 37 38 38 39 40 41 42 40 41 41 43 44 45 44 45 46 48 48 49 
48 49 50 51 51 53 52 53 54 55 56 57 57 58 59 60 61 62 61 62 63 65 66 67 
67 68 70 70 71 72 72 73 74 76 77 79 77 79 80 80 81 82 82 83 84 84 85 86 
84 85 87 85 86 88 84 84 86 106 107 108 189 189 189 195 195 195 187 187 187 188 188 188 
188 188 188 192 192 192 194 194 194 197 197 197 196 196 196 196 196 196 198 198 198 204 204 204 
204 204 204 207 207 207 208 208 208 204 204 204 204 204 204 205 205 205 200 200 200 201 201 201 
199 199 199 195 195 195 198 198 198 216 216 216 68 69 70 53 54 55 177 177 178 197 197 197 
186 186 186 187 187 187 184 184 184 185 185 185 182 182 182 178 178 178 180 180 180 178 178 178 
177 177 177 179 179 179 177 177 177 175 175 175 172 172 172 175 175 175 171 171 171 172 172 172 
173 173 173 169 169 169 172 172 172 169 169 169 174 174 174 187 187 187 77 77 77 25 26 26 
27 27 28 29 29 29 30 30 30 30 31 31 31 32 33 31 31 31 31 31 32 30 30 31 
29 30 30 28 28 29 27 27 27 25 26 26 24 25 25 23 23 24 22 22 23 21 21 21 
20 20 20 19 19 19 18 18 18 16 17 17 16 16 16 16 16 17 15 15 15 15 15 15 
14 14 14 13 13 14 12 12 12 11 11 11 11 11 11 10 10 10 9 9 9 9 9 9 
8 8 9 9 9 9 9 9 9 8 8 8 8 8 8 9 9 9 7 7 7 7 7 7 
6 6 6 6 6 6 6 6 6 7 7 7 6 6 6 6 6 6 5 5 5 6 6 6 
5 5 5 5 5 5 6 6 6 5 5 5 5 5 5 5 5 5 5 5 5 15 15 15 
28 28 28 29 29 29 28 28 28 29 29 29 163 69 71 255 95 99 162 60 62 0 0 0 
0 0 0 0 0 0 
0 0 0 0 0 0 0 0 0 69 20 22 255 34 43 247 33 42 39 32 32 33 33 33 
33 33 33 34 34 34 30 31 30 11 11 11 12 12 13 13 13 13 13 13 14 13 13 13 
14 14 15 15 15 15 15 15 15 16 16 16 16 17 17 16 17 17 17 17 18 18 19 19 
20 20 20 20 20 20 21 21 22 22 22 22 23 23 24 25 25 25 25 25 26 26 26 27 
27 27 28 28 29 29 29 30 30 30 31 32 32 33 33 34 34 35 35 35 36 37 37 38 
38 39 39 39 40 41 41 42 43 44 44 45 44 45 45 47 47 49 47 48 49 50 51 52 
52 53 54 56 56 57 56 57 58 59 60 61 60 62 63 64 65 66 65 66 67 68 69 71 
70 71 72 72 73 74 77 77 79 80 81 82 82 83 85 84 85 87 85 87 88 86 88 90 
89 89 91 87 87 89 101 102 103 146 146 146 202 202 202 192 192 192 194 194 194 194 194 194 
195 195 195 194 194 194 195 195 195 199 199 199 202 202 202 198 198 198 201 201 201 205 205 205 
208 208 208 210 210 210 214 214 214 208 208 208 205 205 205 206 206 206 203 203 203 201 201 201 
197 197 197 197 197 197 213 213 213 141 141 142 57 57 58 58 59 60 105 105 107 203 203 203 
191 191 191 190 190 190 187 187 187 188 188 188 183 183 183 185 185 185 180 180 180 181 181 181 
179 179 179 177 177 177 182 182 182 176 176 176 176 176 176 175 175 175 179 179 179 172 172 172 
173 173 173 172 172 172 171 171 171 173 173 173 167 167 167 183 183 183 147 147 147 33 33 33 
27 27 28 28 28 29 30 30 31 31 31 31 33 33 33 32 33 33 32 33 33 32 33 33 
30 30 30 31 31 31 28 28 29 28 28 29 27 27 27 25 25 25 23 23 24 22 23 23 
22 22 23 21 22 22 19 19 20 21 21 21 19 19 19 19 19 19 18 18 18 17 17 17 
16 16 16 15 15 15 14 14 15 15 15 15 14 14 14 13 13 13 13 13 13 12 12 12 
11 11 11 12 12 12 10 11 11 10 10 10 10 10 10 10 10 10 9 9 9 9 9 9 
9 9 9 9 9 10 9 9 9 9 9 9 9 9 9 8 8 8 9 9 9 9 9 9 
8 8 8 8 8 8 7 7 7 8 8 8 8 8 8 8 8 8 7 7 7 25 25 25 
32 32 32 32 32 32 31 31 31 31 31 31 228 91 93 255 98 101 87 33 34 0 0 0 
0 0 0 0 0 0 
0 0 0 0 0 0 0 0 0 9 6 6 238 34 42 255 35 44 93 32 34 31 31 31 
33 33 33 32 32 32 32 32 32 12 12 12 10 10 10 10 10 10 11 11 11 11 11 11 
12 12 13 12 12 13 13 13 13 14 14 14 14 14 14 15 15 15 16 16 16 17 17 17 
17 17 18 18 18 19 20 20 20 20 20 21 21 21 21 21 21 22 23 23 24 24 24 24 
25 26 26 27 27 28 28 28 29 29 30 30 32 32 33 32 33 33 34 34 35 35 36 36 
36 37 37 38 39 39 39 40 40 41 42 42 43 43 44 45 46 47 48 48 49 49 50 51 
51 52 53 52 53 54 56 57 58 58 59 60 61 62 63 63 64 65 65 66 67 67 68 69 
70 71 72 72 73 74 75 77 78 78 79 80 81 82 83 82 84 85 85 86 87 84 85 87 
85 87 88 86 87 88 109 109 110 198 198 198 188 188 188 185 185 185 188 188 188 191 191 191 
191 191 191 195 195 195 194 194 194 197 197 197 201 201 201 201 201 201 204 204 204 204 204 204 
209 209 209 207 207 207 210 210 210 206 206 206 210 210 210 199 199 199 199 199 199 200 200 200 
195 195 195 205 205 205 207 207 207 60 61 62 61 61 63 61 62 63 62 63 64 170 170 170 
199 199 199 187 187 187 183 183 183 183 183 183 185 185 185 181 181 181 178 178 178 180 180 180 
180 180 180 175 175 175 176 176 176 174 174 174 173 173 173 175 175 175 174 174 174 172 172 172 
172 172 172 173 173 173 168 168 168 168 168 168 166 166 166 170 170 170 190 190 190 95 95 96 
23 23 24 25 25 25 25 26 26 28 28 28 28 28 29 28 28 29 28 28 29 29 29 30 
27 27 28 27 27 28 26 26 27 25 26 26 23 23 24 22 22 23 20 21 21 20 20 20 
19 19 19 18 18 19 18 18 18 17 17 18 16 16 17 16 16 16 14 14 14 14 14 14 
13 13 14 13 13 13 11 11 12 12 12 12 11 11 11 10 10 11 9 9 9 8 8 9 
9 9 9 10 10 10 8 8 8 8 8 8 8 8 8 8 8 8 7 7 7 8 8 8 
7 7 7 6 6 6 6 6 7 6 6 6 7 7 7 7 7 7 6 6 6 6 6 6 
6 6 6 5 5 5 6 6 6 5 5 5 5 5 5 5 5 5 7 7 7 28 28 28 
29 29 29 29 29 29 29 29 29 66 42 42 255 102 105 253 99 103 19 7 8 0 0 0 
0 0 0 0 0 0 
0 0 0 0 0 0 0 0 0 0 0 0 173 31 36 255 37 45 158 34 39 33 33 33 
32 32 32 33 33 33 33 33 33 21 21 21 12 12 12 11 11 12 12 12 12 13 13 13 
14 14 14 14 14 14 15 15 15 15 15 15 16 17 16 17 17 18 17 17 17 19 19 19 
19 19 19 20 20 20 21 21 22 22 22 22 22 23 23 24 24 24 26 26 26 27 27 28 
27 27 28 28 29 29 30 30 31 31 31 32 32 32 33 34 34 35 36 37 37 37 38 38 
39 40 40 41 41 42 42 43 44 43 44 44 45 46 47 47 47 48 49 50 51 51 52 52 
54 54 55 55 56 57 58 59 60 60 61 62 63 64 65 65 66 67 69 70 71 70 71 72 
72 74 75 74 76 78 78 79 80 80 81 83 83 84 86 84 85 87 85 86 88 85 86 88 
86 87 88 101 102 102 165 165 166 198 198 198 194 194 194 190 190 190 193 193 193 194 194 194 
195 195 195 194 194 194 194 194 194 201 201 201 203 203 203 206 206 206 209 209 209 207 207 207 
209 209 209 209 209 209 210 210 210 207 207 207 206 206 206 203 203 203 201 201 201 202 202 202 
202 202 202 218 218 218 112 112 113 63 64 65 66 67 68 67 67 69 68 69 70 96 98 98 
200 200 200 191 191 191 185 185 185 183 183 183 183 183 183 186 186 186 180 180 180 180 180 180 
180 180 180 180 180 180 178 178 178 178 178 178 175 175 175 173 173 173 176 176 176 175 175 175 
172 172 172 172 172 172 174 174 174 171 171 171 172 172 172 172 172 172 183 183 183 165 165 165 
39 39 40 24 24 24 25 25 25 26 27 27 28 28 29 27 28 29 29 29 29 28 28 29 
28 29 29 27 27 28 27 27 28 25 25 26 25 25 25 23 24 24 22 23 23 21 21 22 
20 21 21 19 19 20 19 19 19 18 18 18 17 17 17 16 16 16 15 16 16 16 16 16 
14 14 14 13 13 14 13 13 13 13 13 13 13 13 13 11 11 11 11 11 11 11 11 11 
11 11 11 10 10 10 9 9 10 10 10 10 9 9 9 9 9 9 9 9 9 9 9 9 
9 9 9 8 8 8 8 8 8 7 7 7 8 8 8 8 8 8 8 8 8 6 6 6 
7 7 7 7 7 7 7 7 7 6 6 6 7 7 7 7 7 7 15 15 15 31 31 31 
31 31 31 31 31 31 31 31 31 131 65 66 255 105 108 201 82 85 0 0 0 0 0 0 
0 0 0 0 0 0 
0 0 0 0 0 0 0 0 0 0 0 0 104 25 28 255 39 47 230 37 44 33 32 32 
32 32 32 32 32 32 33 33 33 28 28 28 11 11 11 12 12 12 12 12 12 12 12 13 
13 13 13 14 14 14 14 14 15 15 15 15 15 15 15 17 17 17 16 16 17 18 18 19 
18 18 19 20 20 20 21 21 22 22 22 22 22 22 23 23 23 24 25 26 26 26 27 27 
27 27 28 29 29 30 30 30 30 31 31 32 31 33 33 34 34 35 36 36 36 37 37 38 
39 39 40 41 42 42 42 43 43 44 44 45 45 47 47 47 47 48 49 50 52 51 51 52 
54 55 56 55 56 57 58 59 60 60 61 62 63 64 65 65 66 67 68 69 70 71 72 73 
73 74 75 76 77 78 78 79 81 81 82 83 82 83 84 85 86 86 84 85 87 84 85 87 
89 90 91 117 118 119 202 202 202 188 188 188 190 190 190 185 185 185 189 189 189 193 193 193 
195 195 195 198 198 198 198 198 198 199 199 199 202 202 202 203 203 203 204 204 204 207 207 207 
207 207 207 206 206 206 205 205 205 204 204 204 201 201 201 201 201 201 197 197 197 198 198 198 
207 207 207 192 192 192 63 64 65 67 67 69 68 70 71 71 72 74 71 71 73 70 71 72 
163 163 163 197 197 197 183 183 183 183 183 183 180 180 180 181 181 181 179 179 179 178 178 178 
178 178 178 178 178 178 176 176 176 176 176 176 169 169 169 174 174 174 172 172 172 172 172 172 
170 170 170 172 172 172 172 172 172 172 172 172 166 166 166 165 165 165 170 170 170 185 185 185 
112 112 112 22 22 22 23 23 24 23 24 25 25 26 26 26 26 27 27 27 28 26 26 27 
28 28 29 25 26 26 25 26 26 24 24 24 23 23 24 22 22 22 22 22 22 21 21 21 
20 20 20 18 18 18 17 17 18 17 18 18 17 17 17 15 15 15 15 15 15 14 14 15 
14 14 14 13 13 13 13 13 13 12 12 12 12 12 12 11 11 11 10 11 10 10 10 10 
10 10 10 9 9 9 8 8 8 8 8 8 8 8 8 8 8 8 8 8 8 8 8 8 
7 7 7 7 7 7 7 7 7 7 7 7 7 7 7 6 6 6 6 6 6 6 6 6 
6 6 6 6 6 6 6 6 6 6 6 6 6 6 6 6 6 6 22 22 22 31 31 31 
29 29 29 30 30 30 31 31 31 202 90 93 255 107 111 124 52 53 0 0 0 0 0 0 
0 0 0 0 0 0 
0 0 0 0 0 0 0 0 0 0 0 0 22 10 10 250 41 49 255 39 48 81 34 35 
33 33 33 33 33 33 33 33 33 34 34 34 15 15 15 12 12 12 12 12 13 13 13 13 
14 14 14 14 14 14 15 15 15 16 16 16 16 16 17 17 17 17 18 18 18 18 19 19 
20 20 20 20 21 21 22 22 22 22 23 23 24 24 24 25 25 25 26 26 27 27 27 28 
28 29 29 30 30 30 31 31 32 31 33 33 33 33 34 34 35 35 36 37 37 37 38 38 
40 41 42 41 42 42 43 44 44 45 45 46 47 47 48 49 50 51 50 51 52 54 54 55 
55 56 57 58 59 60 60 61 62 63 64 65 64 66 67 68 69 70 70 71 72 72 73 75 
74 75 77 78 79 80 79 80 82 84 85 86 84 85 86 85 86 88 84 86 87 84 85 85 
108 109 110 186 186 186 203 203 203 198 198 198 199 199 199 197 197 197 200 200 200 200 200 200 
205 205 205 205 205 205 207 207 207 205 205 205 210 210 210 208 208 208 212 212 212 216 216 216 
215 215 215 214 214 214 210 210 210 210 210 210 215 215 215 209 209 209 208 208 208 209 209 209 
225 225 225 94 95 95 67 67 68 70 72 73 74 75 76 77 77 79 76 78 79 74 76 78 
88 90 91 202 202 202 191 191 191 190 190 190 190 190 190 190 190 190 192 192 192 185 185 185 
187 187 187 185 185 185 183 183 183 184 184 184 179 179 179 183 183 183 180 180 180 180 180 180 
177 177 177 177 177 177 180 180 180 179 179 179 176 176 176 177 177 177 177 177 177 183 183 183 
182 182 182 48 49 49 21 22 22 22 23 23 24 24 25 25 26 26 25 25 26 26 27 27 
26 27 27 26 26 27 25 25 26 24 24 24 24 24 24 22 23 23 22 22 22 20 21 21 
20 20 21 19 19 20 18 18 18 17 18 17 17 17 18 15 16 16 15 15 15 14 14 14 
14 14 15 13 13 13 12 12 12 12 12 12 12 12 12 11 11 11 10 10 10 11 11 11 
10 10 10 9 9 9 10 10 10 9 9 9 9 9 9 9 9 9 9 9 9 10 10 10 
8 8 8 7 7 7 8 8 8 8 8 8 7 7 7 7 7 7 6 6 6 7 7 7 
7 7 7 7 7 7 6 6 6 7 7 7 6 6 6 7 7 7 30 30 30 31 31 31 
31 31 31 30 30 30 53 38 39 254 112 114 255 110 113 40 17 18 0 0 0 0 0 0 
0 0 0 0 0 0 
0 0 0 0 0 0 0 0 0 0 0 0 0 0 0 184 36 41 255 41 50 155 37 41 
32 32 32 31 31 31 31 31 31 33 33 33 21 21 21 11 11 11 12 12 12 13 13 13 
14 14 14 13 13 14 13 14 13 15 15 15 15 15 15 16 16 17 17 17 18 18 18 18 
19 19 19 19 19 19 20 20 20 22 22 22 23 23 24 24 24 25 25 26 26 26 27 27 
28 28 29 28 28 29 31 31 32 32 33 33 33 33 34 35 35 35 37 37 38 38 38 39 
39 40 40 41 42 42 43 43 44 45 46 47 47 47 48 48 49 51 51 52 53 53 54 55 
55 56 57 58 59 60 60 61 62 62 64 65 64 65 66 67 68 69 69 70 71 71 72 74 
75 75 77 78 79 80 79 80 82 82 83 84 82 84 85 83 84 86 82 83 84 95 96 97 
139 139 139 200 200 200 189 189 189 192 192 192 195 195 195 195 195 195 196 196 196 193 193 193 
197 197 197 198 198 198 201 201 201 203 203 203 203 203 203 206 206 206 207 207 207 213 213 213 
205 205 205 207 207 207 206 206 206 206 206 206 206 206 206 202 202 202 199 199 199 208 208 208 
176 176 176 64 65 66 69 70 72 74 75 76 77 79 80 79 81 82 79 80 81 77 79 80 
73 74 76 155 155 156 199 199 199 187 187 187 182 182 182 183 183 183 180 180 180 178 178 178 
179 179 179 177 177 177 177 177 177 176 176 176 174 174 174 177 177 177 175 175 175 172 172 172 
169 169 169 175 175 175 171 171 171 170 170 170 170 170 170 171 171 171 173 173 173 172 172 172 
188 188 188 125 125 125 19 19 19 20 20 21 22 22 22 22 22 23 23 23 23 24 24 24 
24 24 25 22 23 23 23 23 23 22 22 23 22 22 22 20 20 20 20 20 20 18 18 18 
17 17 17 17 17 18 15 15 16 16 16 16 14 14 14 14 14 14 13 13 14 13 13 13 
12 12 12 11 11 11 11 11 11 11 11 11 10 10 10 10 10 10 9 9 9 8 8 8 
8 8 8 8 8 8 8 8 8 7 7 8 7 7 7 6 6 6 7 7 7 6 6 7 
6 6 6 6 6 6 7 7 7 6 6 6 5 5 5 6 6 6 5 5 5 6 6 6 
5 5 5 5 5 5 5 5 5 6 6 6 5 5 5 14 14 14 29 29 29 29 29 29 
29 29 29 29 29 29 130 68 69 255 115 117 213 95 97 0 0 0 0 0 0 0 0 0 
0 0 0 0 0 0 
0 0 0 0 0 0 0 0 0 0 0 0 0 0 0 104 27 30 255 44 52 232 42 49 
34 32 32 30 30 31 32 32 32 32 32 32 28 28 28 11 11 11 11 11 12 12 12 12 
13 13 13 13 14 14 14 15 15 14 14 14 16 16 16 17 17 17 18 18 18 18 18 18 
18 18 18 20 20 20 21 22 22 22 22 22 23 23 23 24 24 25 25 26 26 26 27 27 
28 29 29 29 29 30 30 31 32 32 32 33 33 34 34 35 36 36 36 37 37 38 39 39 
40 40 41 41 42 42 44 44 45 45 45 46 47 47 48 50 51 51 51 51 52 53 54 55 
55 56 57 58 59 60 60 61 62 63 64 65 64 65 66 68 69 70 69 71 72 72 73 75 
76 78 79 77 78 80 79 81 82 81 82 84 82 83 85 82 83 84 84 85 86 107 108 108 
195 195 195 186 186 186 186 186 186 188 188 188 192 192 192 191 191 191 190 190 190 193 193 193 
193 193 193 195 195 195 196 196 196 196 196 196 201 201 201 202 202 202 207 207 207 205 205 205 
200 200 200 199 199 199 200 200 200 198 198 198 195 195 195 196 196 196 195 195 195 214 214 214 
81 82 83 67 68 69 72 74 75 76 77 78 81 82 83 82 83 85 82 83 85 79 81 82 
76 77 78 82 83 83 180 181 181 182 182 182 173 173 173 172 172 172 172 172 172 172 172 172 
172 172 172 174 174 174 171 171 171 169 169 169 170 170 170 167 167 167 169 169 169 168 168 168 
164 164 164 166 166 166 162 162 162 164 164 164 165 165 165 164 164 164 166 166 166 164 164 164 
169 169 169 180 180 180 60 61 61 18 18 18 19 19 19 20 20 20 21 21 21 22 22 22 
21 22 22 22 22 23 21 21 21 21 21 21 19 20 20 19 20 20 19 19 19 18 18 18 
16 16 16 16 16 16 15 15 15 15 15 16 13 14 14 13 13 13 12 12 12 12 12 12 
11 11 11 10 10 10 10 10 11 9 9 10 9 9 9 9 9 9 8 8 8 8 8 8 
8 8 8 8 8 8 8 8 8 7 7 7 6 6 6 7 7 7 5 5 5 6 6 6 
5 5 5 5 5 5 6 6 6 6 6 6 5 5 5 5 5 5 5 5 5 5 5 5 
4 4 4 5 5 5 4 4 4 5 5 5 5 5 5 22 22 22 29 29 29 29 29 29 
28 28 28 28 28 28 206 100 102 255 118 120 120 55 56 0 0 0 0 0 0 0 0 0 
0 0 0 0 0 0 
0 0 0 0 0 0 0 0 0 0 0 0 0 0 0 20 10 11 248 45 53 255 45 53 
90 34 37 30 31 31 32 32 32 33 33 33 32 32 32 17 17 17 11 12 12 12 12 12 
12 12 13 13 13 13 14 14 14 15 15 15 15 15 16 16 16 17 18 18 18 18 19 19 
19 19 19 20 20 20 21 21 21 21 22 22 23 23 24 24 25 25 25 26 26 27 27 28 
28 28 29 30 30 31 31 31 32 33 33 34 33 33 34 36 36 37 36 37 37 38 39 39 
40 40 41 42 42 43 44 45 46 46 46 47 48 49 50 50 51 52 52 53 54 54 55 56 
56 57 58 59 60 61 62 63 64 64 65 66 66 67 68 68 69 70 71 72 73 73 74 76 
76 77 78 77 78 80 80 81 83 80 82 83 82 83 84 80 81 83 94 95 97 161 161 161 
195 195 195 184 184 184 184 184 184 185 185 185 186 186 186 187 187 187 188 188 188 188 188 188 
193 193 193 193 193 193 194 194 194 195 195 195 198 198 198 198 198 198 203 203 203 199 199 199 
199 199 199 197 197 197 196 196 196 194 194 194 193 193 193 195 195 195 201 201 201 159 160 160 
66 66 68 70 71 73 76 77 78 79 81 83 84 85 87 84 85 87 85 85 87 82 83 85 
79 80 82 72 73 75 141 141 141 192 192 192 174 174 174 171 171 171 171 171 171 167 167 167 
171 171 171 173 173 173 167 167 167 166 166 166 166 166 166 164 164 164 165 165 165 165 165 165 
165 165 165 164 164 164 164 164 164 162 162 162 162 162 162 163 163 163 162 162 162 165 165 165 
163 163 163 177 177 177 148 148 148 16 16 16 18 18 19 19 19 19 19 19 20 21 21 22 
20 21 21 22 22 22 20 21 21 20 20 21 19 19 19 19 19 19 18 18 18 17 17 17 
16 16 16 16 16 16 14 14 14 14 15 14 13 13 13 13 13 13 13 13 13 11 11 11 
12 12 12 10 10 10 10 10 10 9 9 9 9 10 9 9 9 9 9 9 9 7 7 7 
8 8 8 6 6 6 7 7 8 7 7 7 6 6 6 6 6 6 5 5 6 6 6 6 
6 6 6 6 6 6 5 5 5 6 6 6 6 6 6 4 4 4 4 4 4 5 5 5 
4 4 4 5 5 5 5 5 5 5 5 5 8 8 8 29 29 29 28 28 28 29 29 29 
28 28 28 60 42 42 255 123 125 255 121 123 35 16 17 0 0 0 0 0 0 0 0 0 
0 0 0 0 0 0 
0 0 0 0 0 0 0 0 0 0 0 0 0 0 0 0 0 0 170 38 43 255 48 56 
179 42 47 32 33 33 33 33 33 33 33 33 33 33 33 27 27 27 13 13 14 14 14 14 
14 14 14 15 16 16 16 16 16 16 16 16 17 17 17 19 19 19 18 19 19 19 20 20 
21 21 22 21 22 22 23 23 24 24 24 24 25 25 25 26 26 27 27 28 28 29 29 30 
30 30 31 31 32 32 33 33 34 34 35 35 36 37 37 36 37 37 40 40 41 41 41 42 
43 44 44 44 44 45 46 46 47 49 49 50 49 50 51 52 52 53 54 55 56 56 57 58 
59 60 61 62 63 64 64 65 66 66 67 68 69 70 72 71 72 73 73 74 76 76 77 78 
79 80 82 80 81 82 82 83 85 81 82 84 82 82 83 82 84 86 127 128 129 201 201 201 
192 192 192 188 188 188 188 188 188 188 188 188 194 194 194 196 196 196 191 191 191 197 197 197 
196 196 196 199 199 199 204 204 204 202 202 202 205 205 205 205 205 205 209 209 209 206 206 206 
205 205 205 201 201 201 201 201 201 200 200 200 199 199 199 203 203 203 215 215 215 72 73 74 
70 71 72 75 76 77 80 82 84 85 86 87 88 89 90 88 89 91 88 89 91 85 87 88 
81 82 84 76 76 78 72 73 75 185 185 185 189 189 189 178 178 178 177 177 177 174 174 174 
176 176 176 175 175 175 175 175 175 173 173 173 172 172 172 174 174 174 172 172 172 171 171 171 
172 172 172 171 171 171 172 172 172 170 170 170 167 167 167 168 168 168 168 168 168 169 169 169 
165 165 165 170 170 170 190 190 190 80 80 80 16 16 17 18 18 19 19 19 19 20 20 20 
20 20 21 21 21 22 20 21 21 20 21 21 20 20 20 19 20 20 19 19 19 18 18 18 
17 17 17 17 17 17 15 15 16 14 15 15 13 13 13 13 13 13 13 13 13 13 13 13 
11 11 12 11 11 11 10 10 11 11 11 11 10 10 11 9 9 9 10 10 10 9 9 9 
9 9 9 9 9 9 8 8 8 8 8 8 8 8 8 7 7 7 7 7 7 7 7 7 
7 7 7 8 8 8 7 7 7 7 7 7 6 6 6 6 6 6 6 6 6 5 5 5 
6 6 6 7 7 7 6 6 6 6 6 6 18 18 18 30 30 30 29 29 29 30 30 30 
30 30 30 151 82 83 255 126 128 197 97 97 0 0 0 0 0 0 0 0 0 0 0 0 
0 0 0 0 0 0 
0 0 0 0 0 0 0 0 0 0 0 0 0 0 0 0 0 0 74 23 25 255 50 58 
250 49 56 50 34 35 32 32 32 33 33 33 33 33 33 33 33 33 15 15 15 13 13 14 
14 14 14 15 15 15 15 15 16 16 16 17 17 17 17 17 18 18 18 19 19 20 20 20 
20 20 20 21 22 22 23 23 24 24 24 24 24 25 25 26 27 27 28 28 29 29 29 30 
30 31 31 32 32 33 34 34 35 34 34 35 36 37 37 38 39 39 39 40 40 41 41 42 
43 43 44 44 45 46 47 47 48 48 49 50 51 51 52 53 53 54 54 55 56 57 58 59 
59 60 61 61 63 64 65 66 67 66 67 69 69 70 71 71 72 74 75 75 77 77 78 79 
78 79 81 81 82 83 80 82 82 80 81 83 79 80 82 105 106 107 190 190 190 199 199 199 
189 189 189 189 189 189 191 191 191 195 195 195 197 197 197 197 197 197 198 198 198 203 203 203 
203 203 203 204 204 204 205 205 205 207 207 207 209 209 209 210 210 210 211 211 211 209 209 209 
208 208 208 204 204 204 203 203 203 204 204 204 200 200 200 210 210 210 144 144 146 67 68 69 
72 73 75 78 79 81 82 83 85 86 87 89 88 89 91 88 89 91 88 89 90 86 87 89 
81 83 84 76 77 79 70 71 72 131 131 131 196 196 196 181 181 181 178 178 178 176 176 176 
178 178 178 178 178 178 175 175 175 173 173 173 174 174 174 176 176 176 173 173 173 171 171 171 
173 173 173 170 170 170 171 171 171 170 170 170 173 173 173 168 168 168 170 170 170 174 174 174 
171 171 171 172 172 172 181 181 181 167 167 168 20 20 20 16 16 16 17 17 18 18 18 18 
20 20 20 19 19 20 19 19 19 19 19 19 19 19 20 18 18 18 18 18 19 17 17 18 
17 17 17 16 16 16 15 15 15 14 14 14 14 14 14 13 13 13 12 12 13 12 12 12 
11 11 11 11 11 11 10 10 10 11 11 11 10 10 10 10 10 10 8 9 9 8 8 8 
8 8 8 7 7 8 7 7 7 7 7 7 7 7 7 6 6 7 6 6 7 6 6 6 
6 6 6 7 7 7 6 6 6 6 6 6 5 5 5 5 5 5 5 5 5 5 5 5 
6 6 6 5 5 5 5 5 5 6 6 6 27 27 27 30 30 30 29 29 29 29 29 29 
34 32 32 235 121 123 255 129 130 94 47 48 0 0 0 0 0 0 0 0 0 0 0 0 
0 0 0 0 0 0 
0 0 0 0 0 0 0 0 0 0 0 0 0 0 0 0 0 0 1 0 0 220 48 56 
255 52 60 133 41 45 34 34 34 34 34 34 34 34 34 34 34 34 24 24 24 15 15 15 
15 16 16 16 16 16 17 17 17 18 18 18 19 19 19 18 18 19 19 20 20 21 21 22 
21 22 22 22 22 23 24 24 24 25 25 25 26 26 27 27 28 28 29 29 29 30 30 30 
32 33 33 32 33 33 34 35 35 36 37 37 37 38 38 39 39 40 41 41 42 41 42 43 
44 45 46 46 47 47 49 49 50 50 51 52 52 52 53 54 55 56 56 58 59 59 60 61 
61 62 63 63 64 65 66 67 68 68 69 71 71 72 73 74 75 77 75 76 77 78 79 81 
80 81 83 80 81 83 80 81 83 80 81 83 90 90 92 157 157 157 197 197 197 184 184 184 
187 187 187 186 186 186 189 189 189 186 186 186 188 188 188 191 191 191 194 194 194 194 194 194 
195 195 195 195 195 195 202 202 202 199 199 199 204 204 204 205 205 205 207 207 207 201 201 201 
201 201 201 200 200 200 199 199 199 196 196 196 202 202 202 209 210 210 69 70 71 70 72 73 
76 77 78 82 83 85 86 86 88 89 90 92 90 92 94 91 92 94 89 90 91 87 88 90 
83 84 85 78 79 80 72 73 73 69 70 71 177 177 177 186 186 186 171 171 171 170 170 170 
170 170 170 170 170 170 167 167 167 166 166 166 169 169 169 168 168 168 168 168 168 164 164 164 
167 167 167 166 166 166 165 165 165 166 166 166 167 167 167 165 165 165 164 164 164 167 167 167 
164 164 164 166 166 166 166 166 166 183 183 183 113 113 113 15 15 15 16 17 17 17 17 18 
18 18 19 18 18 18 19 19 19 19 19 19 19 19 19 18 18 18 19 19 19 19 19 19 
17 17 18 15 15 16 16 16 16 14 15 15 13 13 14 13 13 13 12 12 12 11 11 12 
12 12 12 11 11 12 11 11 11 10 10 10 10 10 10 11 11 11 9 9 9 8 8 8 
8 8 8 8 8 8 7 7 7 8 8 8 7 7 7 6 6 6 6 7 7 6 6 6 
7 7 7 8 8 8 7 7 7 6 6 6 6 6 6 6 6 6 6 6 6 6 6 6 
6 6 6 5 5 5 6 6 6 15 15 15 30 30 30 30 30 30 30 30 30 30 30 30 
103 64 65 255 133 135 241 125 126 10 5 5 0 0 0 0 0 0 0 0 0 0 0 0 
0 0 0 0 0 0 
0 0 0 0 0 0 0 0 0 0 0 0 0 0 0 0 0 0 0 0 0 127 35 38 
255 55 63 223 50 57 35 33 33 34 34 34 35 35 35 35 35 35 33 33 33 15 16 15 
16 16 16 17 17 18 16 17 17 18 18 18 19 19 19 21 21 21 21 21 21 22 22 22 
23 23 23 23 23 23 25 25 26 26 26 27 27 28 28 28 29 29 30 30 31 32 32 33 
32 32 33 35 36 37 36 36 37 38 38 39 38 39 39 40 41 42 42 42 43 44 44 45 
44 46 47 48 48 49 49 50 51 52 52 53 54 54 55 55 56 57 58 59 60 61 62 63 
63 64 65 65 66 68 67 68 69 70 71 72 72 73 74 74 75 77 77 78 79 79 80 82 
80 81 82 80 82 83 80 81 83 82 83 84 130 130 131 203 203 203 191 191 191 192 192 192 
192 192 192 193 193 193 193 193 193 196 196 196 195 195 195 197 197 197 201 201 201 201 201 201 
201 201 201 204 204 204 208 208 208 208 208 208 212 212 212 208 208 208 210 210 210 206 206 206 
207 207 207 207 207 207 203 203 203 203 203 203 216 216 216 130 131 132 68 69 71 75 76 77 
80 80 82 85 86 88 88 89 91 91 92 94 91 93 94 92 94 95 90 90 92 88 89 90 
83 85 86 79 80 81 73 74 75 66 67 68 119 119 119 198 198 198 182 182 182 177 177 177 
177 177 177 177 177 177 176 176 176 179 179 179 176 176 176 173 173 173 170 170 170 175 175 175 
172 172 172 172 172 172 176 176 176 174 174 174 172 172 172 175 175 175 172 172 172 167 167 167 
169 169 169 169 169 169 168 168 168 176 176 176 181 181 181 50 50 50 15 15 16 16 16 16 
17 17 17 17 18 18 17 17 18 18 18 19 17 17 18 18 18 19 18 18 19 17 18 17 
16 16 17 16 16 16 15 15 15 15 15 15 13 13 13 13 13 14 13 13 13 12 12 12 
12 12 12 11 11 11 11 11 11 10 10 10 10 10 10 10 10 10 9 9 9 9 9 9 
9 9 9 9 9 9 8 8 8 8 8 8 8 8 8 7 7 7 7 7 7 8 8 8 
8 8 8 8 8 8 7 7 7 6 6 6 6 6 6 6 6 6 6 6 6 6 6 6 
6 6 6 6 6 6 7 7 7 26 26 26 31 31 31 30 30 30 30 30 30 30 30 30 
197 110 111 255 137 138 147 78 79 0 0 0 0 0 0 0 0 0 0 0 0 0 0 0 
0 0 0 0 0 0 
0 0 0 0 0 0 0 0 0 0 0 0 0 0 0 0 0 0 0 0 0 23 7 8 
247 57 63 255 56 64 102 40 42 34 34 34 34 34 34 33 33 33 34 34 34 23 23 23 
15 15 15 17 17 17 17 17 17 16 17 17 18 18 19 18 19 19 19 19 20 21 22 22 
23 23 24 24 24 24 25 25 25 26 26 27 26 26 27 28 29 29 29 30 30 31 32 32 
32 33 33 34 35 35 35 35 35 38 39 39 38 39 40 41 41 42 41 42 42 44 45 46 
45 46 46 48 48 49 50 51 52 52 52 53 53 54 55 55 56 57 57 58 60 60 61 62 
63 64 65 65 66 68 67 68 69 70 71 72 72 73 74 75 76 77 77 78 80 78 79 80 
79 81 83 78 80 81 78 79 80 100 101 102 188 188 189 197 197 197 190 190 190 189 189 189 
195 195 195 195 195 195 193 193 193 198 198 198 201 201 201 199 199 199 201 201 201 201 201 201 
203 203 203 207 207 207 207 207 207 211 211 211 211 211 211 209 209 209 208 208 208 206 206 206 
204 204 204 203 203 203 204 204 204 207 207 207 204 204 204 67 68 69 72 72 74 76 78 79 
82 83 85 86 86 88 89 90 92 91 92 94 92 93 95 90 91 93 89 89 91 86 87 89 
82 83 85 77 78 79 73 74 76 68 68 69 61 61 63 175 176 176 190 190 190 176 176 176 
176 176 176 177 177 177 175 175 175 172 172 172 173 173 173 172 172 172 171 171 171 169 169 169 
172 172 172 169 169 169 167 167 167 171 171 171 171 171 171 172 172 172 168 168 168 165 165 165 
166 166 166 169 169 169 168 168 168 166 166 166 182 182 182 159 159 159 18 18 18 14 14 14 
14 14 14 15 15 15 16 16 16 17 17 17 16 17 17 16 17 16 16 16 16 16 16 17 
15 16 16 15 15 15 14 14 14 14 14 14 12 12 12 12 12 12 11 11 12 11 11 11 
10 10 11 11 11 11 9 9 10 9 9 9 9 9 9 9 9 9 8 8 8 9 9 9 
9 9 9 7 7 7 8 8 8 7 7 7 7 7 7 6 6 6 7 7 7 7 7 7 
7 7 7 6 6 6 6 6 6 5 5 5 6 6 6 6 6 6 6 6 6 5 5 5 
5 5 5 6 6 6 13 13 13 30 30 30 29 29 29 29 29 29 29 29 29 72 51 51 
255 141 142 255 140 141 41 22 22 0 0 0 0 0 0 0 0 0 0 0 0 0 0 0 
0 0 0 0 0 0 
0 0 0 0 0 0 0 0 0 0 0 0 0 0 0 0 0 0 0 0 0 0 0 0 
156 44 48 255 59 67 204 52 58 35 35 35 35 35 35 35 35 35 36 36 36 34 34 34 
17 17 18 17 17 18 18 18 18 18 18 19 19 20 19 20 20 20 21 21 21 23 23 23 
24 24 25 25 25 26 26 26 27 27 28 28 28 28 29 30 30 31 31 31 32 33 33 34 
33 33 34 35 36 36 37 38 38 39 40 40 40 40 41 43 43 44 44 45 45 45 46 47 
47 47 48 50 50 52 52 53 54 54 54 55 55 56 57 58 59 60 60 61 62 63 64 65 
65 66 67 67 68 69 69 70 72 72 73 74 75 75 77 77 78 79 78 79 81 79 80 81 
78 80 81 78 79 80 89 90 92 151 151 151 196 196 196 181 181 181 181 181 181 185 185 185 
183 183 183 185 185 185 185 185 185 189 189 189 187 187 187 191 191 191 192 192 192 192 192 192 
195 195 195 193 193 193 195 195 195 204 204 204 200 200 200 199 199 199 197 197 197 196 196 196 
197 197 197 191 191 191 194 194 194 209 209 209 115 115 117 70 71 72 75 76 77 81 82 83 
86 87 88 89 90 92 92 94 96 92 93 95 92 94 95 90 91 93 90 90 91 87 88 89 
83 84 86 78 79 80 73 74 76 69 70 71 62 63 65 106 106 107 191 191 191 170 170 170 
165 165 165 167 167 167 167 167 167 165 165 165 165 165 165 168 168 168 162 162 162 165 165 165 
164 164 164 163 163 163 162 162 162 163 163 163 163 163 163 164 164 164 162 162 162 161 161 161 
162 162 162 162 162 162 161 161 161 163 163 163 164 164 164 182 182 182 124 124 124 13 13 13 
13 13 14 14 15 15 15 15 15 16 17 17 15 15 16 16 17 17 17 17 17 16 16 16 
16 16 16 15 16 16 15 15 15 14 14 14 13 13 14 13 13 13 12 12 12 12 12 12 
11 11 11 12 12 12 10 10 10 10 10 10 10 10 10 10 10 10 8 8 8 8 8 9 
8 8 8 8 8 8 8 8 8 7 7 8 7 7 7 7 7 7 8 8 8 7 7 7 
7 7 7 7 7 7 6 6 6 7 7 7 7 7 7 6 6 6 6 6 6 6 6 6 
6 6 6 6 6 6 25 25 25 31 31 31 30 30 30 31 31 31 30 30 30 176 105 106 
255 144 145 183 103 103 0 0 0 0 0 0 0 0 0 0 0 0 0 0 0 0 0 0 
0 0 0 0 0 0 
0 0 0 0 0 0 0 0 0 0 0 0 0 0 0 0 0 0 0 0 0 0 0 0 
42 14 15 254 63 70 255 61 69 81 40 41 34 34 34 36 36 36 35 35 35 35 35 35 
24 24 24 17 17 17 17 18 18 18 18 19 19 19 19 20 20 21 21 21 21 22 22 23 
24 24 25 25 25 25 26 27 27 26 27 27 28 28 29 30 30 30 31 32 32 31 32 32 
34 35 35 35 36 36 37 38 38 38 39 40 40 40 41 41 43 43 44 44 45 45 46 46 
48 48 50 49 50 51 51 51 52 53 54 55 56 57 58 58 59 60 61 62 63 62 63 64 
66 67 68 67 69 70 71 72 73 72 73 74 74 76 77 75 76 77 77 78 79 76 77 78 
77 77 78 88 89 90 132 132 133 199 199 199 188 188 188 188 188 188 187 187 187 189 189 189 
191 191 191 191 191 191 196 196 196 196 196 196 193 193 193 196 196 196 197 197 197 197 197 197 
200 200 200 203 203 203 202 202 202 207 207 207 208 208 208 201 201 201 201 201 201 204 204 204 
201 201 201 196 196 196 206 206 206 195 195 195 68 69 70 73 74 75 79 79 81 83 84 86 
88 90 91 90 91 92 93 94 96 93 94 96 92 93 95 90 90 93 87 88 90 84 86 87 
81 82 83 77 78 80 73 74 75 69 69 71 62 63 64 57 58 59 173 173 173 186 186 186 
172 172 172 172 172 172 171 171 171 169 169 169 172 172 172 170 170 170 170 170 170 170 170 170 
168 168 168 168 168 168 169 169 169 169 169 169 167 167 167 166 166 166 168 168 168 166 166 166 
165 165 165 166 166 166 165 165 165 168 168 168 168 168 168 170 170 170 185 185 185 88 89 89 
12 13 13 13 13 13 14 14 14 14 14 14 15 15 15 15 15 15 15 15 15 14 14 14 
13 13 13 14 14 14 14 14 14 13 13 13 12 12 13 12 12 13 11 11 11 10 10 11 
11 11 11 10 10 11 9 9 9 9 9 9 8 8 8 9 9 9 8 8 8 8 8 8 
7 7 7 7 7 7 7 7 7 7 7 7 6 6 6 6 6 6 5 5 5 6 6 6 
7 7 7 7 7 7 5 5 5 6 6 6 6 6 6 5 5 5 6 6 6 6 6 6 
5 5 5 12 12 12 30 30 30 30 30 30 29 29 29 29 29 29 56 44 44 252 148 148 
255 148 148 65 37 37 0 0 0 0 0 0 0 0 0 0 0 0 0 0 0 0 0 0 
0 0 0 0 0 0 
0 0 0 0 0 0 0 0 0 0 0 0 0 0 0 0 0 0 0 0 0 0 0 0 
0 0 0 179 51 56 255 65 72 187 54 60 35 35 35 36 36 36 36 36 36 35 36 35 
35 35 35 18 19 19 18 18 18 19 20 20 21 22 22 22 22 22 22 23 23 23 23 23 
24 25 25 25 26 26 26 27 27 27 28 28 29 29 30 30 30 31 33 33 34 33 33 34 
35 35 36 36 37 37 38 39 39 40 40 41 42 42 43 43 44 44 45 46 47 47 47 48 
49 50 51 51 52 52 54 54 55 55 56 57 57 58 59 59 60 61 62 64 65 64 65 66 
67 68 70 69 70 72 70 71 72 73 73 75 74 75 76 77 77 79 77 78 80 77 78 79 
83 84 86 117 118 118 198 198 198 190 190 190 187 187 187 186 186 186 188 188 188 193 193 193 
193 193 193 190 190 190 194 194 194 199 199 199 197 197 197 201 201 201 203 203 203 199 199 199 
204 204 204 203 203 203 204 204 204 208 208 208 207 207 207 205 205 205 202 202 202 202 202 202 
202 202 202 197 197 197 219 219 219 100 100 101 71 72 73 77 78 79 82 83 84 86 87 89 
89 91 92 92 93 95 93 94 96 93 95 96 91 92 94 90 91 92 86 87 88 84 86 88 
80 81 83 78 79 81 74 75 76 68 70 71 64 65 66 59 60 61 89 90 91 191 191 191 
178 178 178 173 173 173 174 174 174 170 170 170 169 169 169 169 169 169 172 172 172 171 171 171 
169 169 169 172 172 172 171 171 171 170 170 170 168 168 168 168 168 168 166 166 166 168 168 168 
167 167 167 167 167 167 168 168 168 167 167 167 169 169 169 168 168 168 176 176 176 180 180 180 
70 71 71 12 12 12 12 13 13 13 13 14 14 14 14 15 15 15 14 14 14 14 14 14 
14 14 14 13 13 13 13 13 13 13 13 14 13 13 13 12 12 13 12 12 12 11 11 11 
11 11 11 10 10 10 10 10 10 9 10 10 9 9 9 8 9 9 8 8 9 8 8 8 
8 8 8 8 8 8 8 8 9 8 8 8 7 7 7 7 7 7 7 7 7 7 7 7 
7 7 7 6 6 6 6 6 6 6 6 6 6 6 6 6 6 6 6 6 6 5 5 5 
6 6 6 24 24 24 30 30 30 31 31 31 30 30 30 30 30 30 157 96 96 255 147 147 
206 121 121 0 0 0 0 0 0 0 0 0 0 0 0 0 0 0 0 0 0 0 0 0 
0 0 0 0 0 0 
0 0 0 0 0 0 0 0 0 0 0 0 0 0 0 0 0 0 0 0 0 0 0 0 
0 0 0 63 24 26 255 69 75 255 67 74 80 42 44 36 36 36 36 36 36 37 37 37 
38 38 38 27 27 28 19 19 20 20 20 20 21 21 22 22 22 22 23 23 24 23 23 24 
25 26 26 26 27 27 28 28 29 29 29 30 31 31 31 32 32 33 32 33 34 34 34 35 
36 36 36 38 38 39 39 39 40 40 41 41 43 44 44 45 45 46 46 47 48 48 49 50 
51 52 53 53 53 54 55 56 57 57 58 59 59 60 61 62 63 64 64 65 66 66 67 68 
67 68 69 70 71 73 72 73 74 74 75 76 74 75 76 76 77 78 75 76 76 83 84 85 
103 104 105 189 189 189 192 192 192 182 182 182 184 184 184 187 187 187 189 189 189 189 189 189 
190 190 190 191 191 191 196 196 196 196 196 196 195 195 195 194 194 194 201 201 201 200 200 200 
203 203 203 205 205 205 205 205 205 205 205 205 202 202 202 202 202 202 201 201 201 194 194 194 
197 197 197 206 206 206 181 181 181 69 70 72 75 76 77 81 82 84 85 87 88 90 91 93 
92 93 95 95 96 97 95 96 98 93 94 96 91 93 95 88 89 91 86 87 89 83 85 86 
80 81 83 77 78 79 74 74 76 70 71 72 64 65 66 61 62 63 55 56 57 163 164 164 
184 184 184 172 172 172 169 169 169 172 172 172 168 168 168 168 168 168 168 168 168 168 168 168 
165 165 165 168 168 168 168 168 168 167 167 167 167 167 167 166 166 166 166 166 166 165 165 165 
165 165 165 166 166 166 165 165 165 163 163 163 164 164 164 165 165 165 163 163 163 175 175 175 
170 170 170 61 61 61 12 12 12 12 12 12 13 13 13 13 13 14 14 14 14 14 14 14 
14 14 14 13 13 14 13 13 13 13 13 13 13 13 13 11 12 12 11 11 12 11 11 11 
10 10 11 10 10 10 10 10 10 9 9 9 9 9 10 9 9 9 9 9 9 8 8 8 
8 8 8 8 8 8 8 8 8 7 7 7 7 7 7 8 8 8 7 7 7 7 7 7 
7 7 7 8 8 8 6 6 6 7 7 7 7 7 7 7 7 7 7 7 7 7 7 7 
14 14 14 30 30 30 30 30 30 30 30 30 30 30 30 56 44 44 248 139 140 255 144 144 
82 47 47 0 0 0 0 0 0 0 0 0 0 0 0 0 0 0 0 0 0 0 0 0 
0 0 0 0 0 0 
0 0 0 0 0 0 0 0 0 0 0 0 0 0 0 0 0 0 0 0 0 0 0 0 
0 0 0 0 0 0 182 55 60 255 71 78 194 60 64 35 35 35 36 36 36 37 37 37 
36 36 36 36 36 36 21 21 21 19 20 20 22 22 22 22 23 23 23 23 23 24 25 25 
26 26 27 26 26 27 28 29 29 29 29 29 29 30 31 32 32 33 33 33 34 35 35 36 
36 37 37 38 39 39 40 40 41 41 42 43 43 44 44 44 45 46 47 47 48 48 49 50 
50 51 51 53 53 54 54 55 56 57 58 59 59 60 61 61 63 64 64 65 66 65 66 67 
68 69 70 69 71 72 71 72 74 73 74 75 72 73 75 73 74 75 81 82 84 102 102 104 
190 190 190 194 194 194 189 189 189 187 187 187 187 187 187 188 188 188 189 189 189 193 193 193 
196 196 196 194 194 194 197 197 197 198 198 198 201 201 201 199 199 199 202 202 202 203 203 203 
206 206 206 206 206 206 208 208 208 208 208 208 207 207 207 204 204 204 202 202 202 201 201 201 
202 202 202 224 224 224 88 89 90 72 73 75 78 79 80 84 85 87 88 89 91 92 93 95 
93 95 97 95 97 99 92 94 95 92 93 94 90 91 92 88 89 91 84 86 88 81 82 83 
79 80 82 75 76 77 72 73 75 67 68 69 65 66 67 60 61 62 55 56 57 77 77 78 
187 187 187 178 178 178 169 169 169 173 173 173 171 171 171 171 171 171 172 172 172 170 170 170 
169 169 169 168 168 168 168 168 168 169 169 169 168 168 168 167 167 167 167 167 167 166 166 166 
168 168 168 166 166 166 166 166 166 167 167 167 167 167 167 167 167 167 167 167 167 164 164 164 
179 179 179 167 167 167 53 53 53 11 11 11 11 11 11 11 11 11 12 12 12 12 13 13 
12 13 13 12 12 12 12 12 13 12 12 12 11 11 11 11 11 11 11 11 11 10 10 10 
10 10 10 9 9 9 9 10 10 9 9 9 8 8 8 9 9 9 8 8 8 8 8 8 
8 8 8 8 8 8 7 7 7 7 7 7 6 6 6 7 7 7 6 6 6 7 7 7 
6 6 6 6 6 6 5 5 5 6 6 6 6 6 6 6 6 6 7 7 7 6 6 6 
27 27 27 30 30 30 30 30 30 30 30 30 29 29 29 164 94 95 255 139 140 208 115 116 
1 1 1 0 0 0 0 0 0 0 0 0 0 0 0 0 0 0 0 0 0 0 0 0 
0 0 0 0 0 0 
0 0 0 0 0 0 0 0 0 0 0 0 0 0 0 0 0 0 0 0 0 0 0 0 
0 0 0 0 0 0 60 26 27 255 75 81 255 72 79 85 44 46 37 37 37 38 38 38 
38 38 38 38 38 38 29 30 30 21 21 22 22 22 22 22 22 23 24 24 25 25 25 25 
27 27 28 28 28 29 28 28 29 30 31 31 31 31 32 32 33 33 34 34 35 36 37 37 
38 38 39 39 39 40 41 42 42 43 44 44 44 44 45 46 47 47 48 48 50 49 50 51 
52 52 53 54 55 56 55 56 57 58 60 61 61 62 63 63 64 65 65 66 67 68 69 70 
68 69 70 70 71 72 71 73 74 72 73 74 73 74 75 79 80 82 97 98 98 184 184 184 
193 193 193 183 183 183 186 186 186 185 185 185 184 184 184 188 188 188 188 188 188 190 190 190 
191 191 191 192 192 192 197 197 197 195 195 195 197 197 197 196 196 196 200 200 200 199 199 199 
202 202 202 201 201 201 205 205 205 204 204 204 203 203 203 199 199 199 196 196 196 197 197 197 
205 205 205 177 178 178 69 70 71 75 77 78 82 82 85 85 86 88 90 92 94 93 94 96 
95 96 98 95 96 97 93 94 96 92 93 95 90 91 94 86 88 89 83 85 86 80 81 83 
78 79 81 75 75 77 71 72 73 68 69 70 65 66 67 60 61 62 56 57 58 51 52 53 
155 155 156 184 184 184 170 170 170 169 169 169 165 165 165 168 168 168 170 170 170 169 169 169 
166 166 166 165 165 165 165 165 165 164 164 164 166 166 166 165 165 165 162 162 162 163 163 163 
164 164 164 164 164 164 164 164 164 163 163 163 166 166 166 165 165 165 164 164 164 163 163 163 
164 164 164 178 178 178 161 161 161 57 57 57 9 9 10 11 11 11 11 11 11 12 12 12 
11 11 12 12 12 12 12 12 12 12 12 12 10 11 11 12 12 12 11 11 11 11 11 11 
10 10 10 10 10 10 10 10 10 9 9 9 9 9 9 9 9 9 8 8 8 8 8 8 
8 8 8 7 7 7 7 7 7 7 7 7 7 7 7 8 8 8 7 7 7 8 8 8 
7 7 7 7 7 7 6 6 6 6 6 6 6 6 6 7 7 7 7 7 7 17 17 17 
30 30 30 31 31 31 31 31 31 30 30 30 56 42 42 251 133 134 255 136 137 79 42 43 
0 0 0 0 0 0 0 0 0 0 0 0 0 0 0 0 0 0 0 0 0 0 0 0 
0 0 0 0 0 0 
0 0 0 0 0 0 0 0 0 0 0 0 0 0 0 0 0 0 0 0 0 0 0 0 
0 0 0 0 0 0 0 0 0 176 58 62 255 76 83 202 65 70 36 35 35 35 35 35 
37 37 37 37 37 37 37 37 37 23 23 23 21 22 22 22 22 22 23 23 23 24 24 25 
25 26 26 26 27 27 28 28 28 29 30 30 30 31 31 31 31 32 33 34 34 35 36 36 
36 37 37 39 39 40 40 40 41 42 43 43 44 44 45 45 45 46 47 47 48 48 49 50 
52 52 53 53 54 55 56 57 58 58 59 60 60 61 62 61 62 63 65 66 67 65 66 67 
68 69 70 67 68 70 69 70 71 68 70 72 77 78 80 99 100 100 185 185 185 192 192 192 
181 181 181 181 181 181 187 187 187 187 187 187 187 187 187 187 187 187 190 190 190 190 190 190 
191 191 191 191 191 191 194 194 194 197 197 197 198 198 198 204 204 204 203 203 203 207 207 207 
204 204 204 205 205 205 202 202 202 201 201 201 203 203 203 202 202 202 198 198 198 199 199 199 
218 218 218 99 99 100 70 71 73 77 78 80 82 85 86 88 88 90 91 92 94 92 94 96 
93 95 97 92 94 96 91 92 93 89 90 91 87 88 90 83 84 86 81 82 83 77 78 80 
75 76 77 71 72 74 69 70 71 65 66 67 63 64 65 58 59 60 54 55 56 51 52 53 
73 73 74 188 188 188 172 172 172 166 166 166 168 168 168 172 172 172 169 169 169 169 169 169 
166 166 166 166 166 166 165 165 165 164 164 164 165 165 165 165 165 165 165 165 165 168 168 168 
165 165 165 164 164 164 165 165 165 164 164 164 163 163 163 164 164 164 165 165 165 162 162 162 
165 165 165 162 162 162 179 179 179 168 168 168 65 65 65 9 9 9 9 9 9 10 10 10 
9 9 9 10 10 11 10 10 10 9 9 9 10 10 10 9 9 9 10 10 10 9 9 9 
9 9 9 8 8 8 8 8 8 7 7 7 8 8 8 7 7 7 7 7 7 6 6 6 
7 7 7 6 6 6 6 6 6 6 6 6 6 6 6 6 6 6 6 6 6 5 5 5 
5 5 5 6 6 6 5 5 5 4 4 4 5 5 5 5 5 5 6 6 6 27 27 27 
29 29 29 28 28 28 29 29 29 29 29 29 175 94 95 255 131 133 202 106 107 0 0 0 
0 0 0 0 0 0 0 0 0 0 0 0 0 0 0 0 0 0 0 0 0 0 0 0 
0 0 0 0 0 0 
0 0 0 0 0 0 0 0 0 0 0 0 0 0 0 0 0 0 0 0 0 0 0 0 
0 0 0 0 0 0 0 0 0 50 23 25 251 80 86 255 79 85 111 50 52 37 38 38 
37 38 38 37 37 37 38 39 39 34 35 35 22 22 22 23 23 24 24 24 25 25 26 26 
26 27 27 28 28 29 28 29 29 30 30 31 32 33 33 34 34 35 35 36 36 36 36 37 
37 38 38 39 40 40 41 42 42 43 44 45 45 46 47 47 47 48 49 50 51 50 50 51 
53 54 55 54 55 56 58 59 60 59 61 62 61 62 63 63 65 66 65 66 67 65 67 68 
67 68 69 68 68 70 67 68 69 75 76 78 95 96 97 180 181 181 192 192 192 182 182 182 
177 177 177 183 183 183 183 183 183 185 185 185 184 184 184 188 188 188 185 185 185 191 191 191 
193 193 193 193 193 193 192 192 192 195 195 195 194 194 194 198 198 198 199 199 199 204 204 204 
201 201 201 202 202 202 202 202 202 197 197 197 199 199 199 194 194 194 193 193 193 199 199 199 
212 212 212 66 67 68 74 74 75 80 80 82 86 87 88 89 90 92 92 94 96 93 95 97 
94 96 97 92 93 95 90 92 94 88 90 92 87 88 89 82 83 85 78 79 81 77 78 79 
74 74 76 70 71 72 68 69 70 65 66 67 62 63 64 59 60 61 55 55 56 51 52 52 
46 47 48 166 166 166 178 178 178 164 164 164 169 169 169 166 166 166 164 164 164 165 165 165 
165 165 165 164 164 164 165 165 165 163 163 163 162 162 162 165 165 165 163 163 163 164 164 164 
161 161 161 162 162 162 163 163 163 163 163 163 162 162 162 161 161 161 160 160 160 163 163 163 
165 165 165 160 160 160 162 162 162 174 174 174 174 174 174 72 72 72 13 13 13 9 9 9 
9 9 9 9 9 9 10 10 10 9 9 9 10 10 10 9 9 9 8 8 8 9 9 9 
9 9 9 9 9 9 8 8 8 8 8 8 7 7 8 7 7 7 7 7 7 7 7 7 
6 6 7 6 6 6 7 7 7 6 6 6 6 6 6 7 7 7 6 6 6 6 6 6 
5 5 5 6 6 6 6 6 6 5 5 5 6 6 6 5 5 5 20 20 20 30 30 30 
30 30 30 29 29 29 29 29 29 80 51 52 255 126 128 255 128 130 64 33 33 0 0 0 
0 0 0 0 0 0 0 0 0 0 0 0 0 0 0 0 0 0 0 0 0 0 0 0 
0 0 0 0 0 0 
0 0 0 0 0 0 0 0 0 0 0 0 0 0 0 0 0 0 0 0 0 0 0 0 
0 0 0 0 0 0 0 0 0 0 0 0 151 55 59 255 83 90 228 76 82 44 38 38 
36 36 36 37 37 37 38 38 38 39 39 39 29 29 29 22 23 23 24 24 25 25 25 26 
26 27 27 27 27 27 28 28 29 30 31 31 32 32 33 32 33 33 34 35 35 35 36 36 
38 38 39 39 39 40 41 42 42 44 44 45 45 45 46 46 47 48 50 51 51 51 51 52 
53 54 55 55 56 57 58 59 60 59 60 61 62 63 64 62 63 64 65 66 67 64 65 67 
65 66 68 66 67 68 75 75 77 99 99 99 182 182 182 187 187 187 177 177 177 178 178 178 
176 176 176 183 183 183 182 182 182 181 181 181 184 184 184 185 185 185 184 184 184 185 185 185 
188 188 188 194 194 194 194 194 194 197 197 197 199 199 199 197 197 197 200 200 200 202 202 202 
199 199 199 200 200 200 200 200 200 198 198 198 196 196 196 190 190 190 192 192 192 201 201 201 
185 185 186 66 67 69 74 75 76 80 82 83 86 87 89 90 90 92 91 93 94 94 95 97 
92 94 96 91 92 94 89 90 91 86 87 89 84 85 87 81 82 83 77 78 80 75 76 77 
71 72 74 69 70 71 66 67 68 64 65 66 60 61 62 59 60 61 54 55 56 50 51 52 
45 46 47 138 138 138 180 180 180 163 163 163 162 162 162 163 163 163 163 163 163 162 162 162 
164 164 164 164 164 164 161 161 161 162 162 162 162 162 162 162 162 162 165 165 165 163 163 163 
164 164 164 163 163 163 162 162 162 163 163 163 162 162 162 160 160 160 162 162 162 161 161 161 
162 162 162 162 162 162 161 161 161 162 162 162 173 173 173 177 177 177 85 85 85 15 15 15 
8 8 8 8 8 8 8 8 8 8 8 8 9 9 9 9 9 9 6 6 7 8 8 8 
8 8 8 7 7 7 8 8 8 7 7 7 7 7 7 6 6 6 6 6 6 6 6 6 
5 5 5 6 6 6 5 5 5 6 6 6 6 6 6 6 6 6 4 4 4 4 4 4 
5 5 5 4 4 4 5 5 5 5 5 5 4 4 4 10 10 10 28 28 28 29 29 29 
29 29 29 29 29 29 29 28 28 208 103 104 255 123 125 175 87 88 0 0 0 0 0 0 
0 0 0 0 0 0 0 0 0 0 0 0 0 0 0 0 0 0 0 0 0 0 0 0 
0 0 0 0 0 0 
0 0 0 0 0 0 0 0 0 0 0 0 0 0 0 0 0 0 0 0 0 0 0 0 
0 0 0 0 0 0 0 0 0 0 0 0 22 11 12 237 83 89 255 86 92 144 60 63 
39 39 39 40 40 40 40 40 40 41 41 41 40 40 40 26 26 27 25 26 26 27 28 28 
29 29 30 29 30 30 32 32 33 33 33 34 35 35 36 35 36 37 38 38 39 39 40 40 
40 41 41 42 42 43 44 44 45 46 47 48 49 49 50 49 49 51 52 52 54 53 54 55 
56 57 58 59 60 61 60 61 62 63 64 65 63 65 66 64 65 66 65 66 67 65 66 68 
66 67 68 83 85 85 105 106 107 188 188 188 190 190 190 181 181 181 179 179 179 184 184 184 
185 185 185 188 188 188 188 188 188 186 186 186 191 191 191 192 192 192 192 192 192 192 192 192 
194 194 194 195 195 195 197 197 197 198 198 198 204 204 204 201 201 201 204 204 204 208 208 208 
208 208 208 204 204 204 207 207 207 201 201 201 197 197 197 198 198 198 197 197 197 206 206 206 
163 163 164 69 69 71 76 77 79 83 84 86 88 90 91 92 93 95 94 95 96 94 96 97 
93 94 96 93 94 96 89 90 92 87 88 90 83 85 86 82 83 84 77 78 79 76 77 78 
72 73 74 71 72 73 67 68 69 65 66 67 62 63 63 60 61 62 56 57 58 51 52 53 
48 48 50 127 127 127 187 187 187 172 172 172 167 167 167 168 168 168 165 165 165 164 164 164 
167 167 167 165 165 165 167 167 167 167 167 167 163 163 163 167 167 167 167 167 167 165 165 165 
166 166 166 166 166 166 164 164 164 164 164 164 166 166 166 166 166 166 165 165 165 167 167 167 
163 163 163 165 165 165 166 166 166 164 164 164 163 163 163 173 173 173 184 184 184 104 104 104 
20 20 20 8 8 8 8 8 8 9 9 9 9 9 9 9 10 9 10 10 10 10 10 10 
8 8 8 9 9 9 9 9 9 8 8 9 9 9 9 8 8 8 9 9 9 7 7 8 
8 8 8 8 8 8 7 7 7 7 7 7 7 7 7 8 8 8 6 6 6 6 6 6 
6 6 6 6 6 6 6 6 6 7 7 7 8 8 8 27 27 27 31 31 31 31 31 31 
31 31 31 31 31 31 113 62 63 255 119 121 248 117 119 33 16 16 0 0 0 0 0 0 
0 0 0 0 0 0 0 0 0 0 0 0 0 0 0 0 0 0 0 0 0 0 0 0 
0 0 0 0 0 0 
0 0 0 0 0 0 0 0 0 0 0 0 0 0 0 0 0 0 0 0 0 0 0 0 
0 0 0 0 0 0 0 0 0 0 0 0 0 0 0 115 48 51 255 91 97 248 86 92 
71 47 48 39 39 39 40 40 40 40 40 40 41 41 42 37 37 37 27 27 28 28 28 29 
29 29 29 30 31 31 32 33 33 34 34 35 34 35 36 37 38 38 37 39 39 40 40 41 
41 41 42 43 44 44 44 45 46 47 47 48 48 48 49 51 52 52 53 53 54 54 55 56 
56 57 58 58 59 60 60 61 62 61 62 63 63 64 65 63 64 65 63 64 66 63 64 66 
83 84 84 112 112 112 189 189 189 182 182 182 178 178 178 179 179 179 179 179 179 180 180 180 
181 181 181 184 184 184 183 183 183 184 184 184 188 188 188 186 186 186 186 186 186 192 192 192 
191 191 191 195 195 195 196 196 196 195 195 195 202 202 202 200 200 200 202 202 202 206 206 206 
205 205 205 204 204 204 200 200 200 196 196 196 195 195 195 193 193 193 194 194 194 203 203 203 
153 154 155 69 70 71 77 78 80 83 85 87 88 89 91 91 92 94 93 94 96 93 95 96 
92 94 95 91 92 94 88 89 91 85 87 88 82 83 84 79 80 82 76 77 79 72 73 75 
71 72 73 68 70 71 66 67 68 63 64 65 61 62 63 57 58 60 54 55 56 50 51 52 
48 48 49 121 121 121 184 184 184 168 168 168 167 167 167 166 166 166 165 165 165 165 165 165 
165 165 165 165 165 165 165 165 165 165 165 165 165 165 165 165 165 165 163 163 163 164 164 164 
164 164 164 164 164 164 163 163 163 162 162 162 162 162 162 165 165 165 164 164 164 164 164 164 
164 164 164 164 164 164 166 166 166 165 165 165 164 164 164 162 162 162 168 168 168 184 184 184 
127 127 127 31 31 32 8 8 8 8 8 8 8 8 8 8 8 9 8 8 8 9 9 9 
8 8 8 8 8 8 9 9 9 8 8 8 8 8 8 8 8 8 8 8 8 6 6 6 
7 7 7 7 7 7 7 7 7 7 7 7 7 7 7 6 6 6 6 6 6 6 6 6 
6 6 6 6 6 6 6 6 6 6 6 6 20 20 20 30 30 30 30 30 30 31 31 31 
31 31 31 47 36 36 237 108 110 255 116 118 135 63 64 0 0 0 0 0 0 0 0 0 
0 0 0 0 0 0 0 0 0 0 0 0 0 0 0 0 0 0 0 0 0 0 0 0 
0 0 0 0 0 0 
0 0 0 0 0 0 0 0 0 0 0 0 0 0 0 0 0 0 0 0 0 0 0 0 
0 0 0 0 0 0 0 0 0 0 0 0 0 0 0 6 4 4 207 80 85 255 93 99 
200 78 82 40 40 40 41 41 41 41 41 41 42 42 42 43 43 44 33 33 33 29 29 30 
29 30 31 31 32 33 33 33 34 35 35 36 35 36 37 38 38 39 39 40 40 40 41 41 
42 43 44 44 44 45 45 46 47 49 49 50 48 49 50 52 52 53 54 54 55 54 55 56 
57 58 59 58 59 60 60 61 61 62 63 64 62 63 64 62 63 65 61 62 63 88 88 90 
135 135 135 199 199 199 189 189 189 183 183 183 185 185 185 190 190 190 191 191 191 191 191 191 
192 192 192 193 193 193 193 193 193 196 196 196 196 196 196 198 198 198 201 201 201 204 204 204 
204 204 204 207 207 207 207 207 207 208 208 208 207 207 207 210 210 210 211 211 211 215 215 215 
213 213 213 210 210 210 204 204 204 202 202 202 204 204 204 204 204 204 205 205 205 211 211 211 
165 166 166 69 69 71 76 77 78 82 84 86 88 90 91 90 92 94 93 94 95 91 93 95 
91 92 94 88 89 92 87 88 90 83 85 86 82 83 84 78 79 81 76 77 78 72 73 74 
70 71 72 67 68 69 65 66 67 62 63 64 61 62 63 58 59 60 55 56 56 50 51 52 
47 47 48 130 130 131 187 187 187 175 175 175 176 176 176 174 174 174 177 177 177 177 177 177 
170 170 170 172 172 172 172 172 172 172 172 172 171 171 171 172 172 172 171 171 171 171 171 171 
173 173 173 171 171 171 170 170 170 172 172 172 172 172 172 172 172 172 170 170 170 172 172 172 
172 172 172 169 169 169 169 169 169 169 169 169 169 169 169 167 167 167 166 166 166 173 173 173 
187 187 187 156 156 156 52 52 52 8 8 8 7 7 7 7 7 7 8 8 8 7 8 8 
8 8 8 8 8 8 7 7 8 8 8 8 9 9 9 9 9 9 7 7 8 7 7 7 
7 7 7 7 7 7 8 8 8 7 7 7 7 7 7 7 7 7 6 6 6 7 7 7 
6 6 6 7 7 7 7 7 7 12 12 12 31 31 31 30 30 30 30 30 30 30 30 30 
30 30 30 172 81 83 255 112 114 225 101 103 12 5 6 0 0 0 0 0 0 0 0 0 
0 0 0 0 0 0 0 0 0 0 0 0 0 0 0 0 0 0 0 0 0 0 0 0 
0 0 0 0 0 0 
0 0 0 0 0 0 0 0 0 0 0 0 0 0 0 0 0 0 0 0 0 0 0 0 
0 0 0 0 0 0 0 0 0 0 0 0 0 0 0 0 0 0 54 27 28 251 97 102 
255 96 101 124 62 64 40 40 41 41 41 42 42 42 42 42 42 43 43 43 43 31 31 31 
30 30 30 31 32 32 32 33 33 34 35 35 36 37 37 37 38 38 39 40 40 41 41 42 
42 43 44 45 45 46 46 47 47 48 49 50 51 52 52 52 52 53 53 54 55 55 56 57 
57 58 59 58 59 60 60 61 62 60 61 62 61 61 62 64 65 66 85 85 86 146 146 146 
191 191 191 176 176 176 174 174 174 174 174 174 176 176 176 175 175 175 181 181 181 180 180 180 
183 183 183 184 184 184 185 185 185 187 187 187 190 190 190 191 191 191 191 191 191 195 195 195 
195 195 195 193 193 193 199 199 199 196 196 196 200 200 200 201 201 201 206 206 206 203 203 203 
201 201 201 198 198 198 199 199 199 196 196 196 192 192 192 190 190 190 189 189 189 197 197 197 
181 182 182 68 69 70 76 77 78 82 83 85 86 88 90 90 90 92 91 93 94 91 92 93 
89 90 93 87 88 91 86 88 89 82 83 84 80 81 83 76 78 79 75 75 77 70 72 73 
68 69 71 66 67 68 64 65 66 61 62 63 59 60 61 55 56 57 53 54 55 49 50 51 
45 46 46 139 139 139 177 177 177 167 167 167 163 163 163 165 165 165 166 166 166 165 165 165 
164 164 164 165 165 165 162 162 162 163 163 163 163 163 163 162 162 162 161 161 161 163 163 163 
162 162 162 161 161 161 162 162 162 162 162 162 162 162 162 165 165 165 162 162 162 162 162 162 
162 162 162 164 164 164 162 162 162 162 162 162 160 160 160 161 161 161 162 162 162 164 164 164 
163 163 163 176 176 176 165 165 165 66 66 66 11 11 12 7 7 7 7 7 7 7 7 7 
7 7 7 8 8 8 7 7 7 7 7 7 7 7 7 8 8 8 7 7 7 7 7 7 
7 7 7 7 7 7 6 6 6 7 7 7 7 7 7 6 6 6 6 6 6 6 6 6 
6 6 6 6 6 6 8 8 8 27 27 27 30 30 30 30 30 30 30 30 30 30 30 30 
91 51 51 255 107 110 255 109 112 71 31 31 0 0 0 0 0 0 0 0 0 0 0 0 
0 0 0 0 0 0 0 0 0 0 0 0 0 0 0 0 0 0 0 0 0 0 0 0 
0 0 0 0 0 0 
0 0 0 0 0 0 0 0 0 0 0 0 0 0 0 0 0 0 0 0 0 0 0 0 
0 0 0 0 0 0 0 0 0 0 0 0 0 0 0 0 0 0 0 0 0 141 63 65 
255 101 106 242 96 100 64 48 48 42 42 42 43 43 43 43 43 43 44 44 44 41 41 41 
30 31 31 33 33 34 34 34 35 35 36 37 37 38 38 40 41 41 41 42 42 43 43 44 
44 45 46 45 46 47 49 49 50 50 50 52 53 53 54 54 55 56 55 56 57 58 59 60 
58 60 61 59 60 61 60 61 62 60 61 61 69 70 72 89 90 91 164 164 165 192 192 192 
178 178 178 177 177 177 177 177 177 181 181 181 177 177 177 180 180 180 185 185 185 183 183 183 
185 185 185 186 186 186 188 188 188 189 189 189 189 189 189 191 191 191 192 192 192 196 196 196 
199 199 199 200 200 200 201 201 201 202 202 202 201 201 201 199 199 199 206 206 206 202 202 202 
205 205 205 198 198 198 196 196 196 198 198 198 195 195 195 191 191 191 191 191 191 197 197 197 
202 202 202 68 70 71 76 77 78 81 83 85 86 88 90 88 89 90 90 92 93 90 91 93 
89 90 91 87 88 89 85 86 88 82 83 84 78 79 81 76 77 78 72 73 75 70 72 73 
67 69 70 66 67 68 62 63 64 61 62 63 58 59 60 55 56 57 52 53 55 49 49 50 
55 56 57 158 158 158 175 175 175 167 167 167 167 167 167 165 165 165 164 164 164 165 165 165 
165 165 165 166 166 166 163 163 163 163 163 163 164 164 164 167 167 167 164 164 164 165 165 165 
162 162 162 165 165 165 165 165 165 162 162 162 164 164 164 163 163 163 163 163 163 161 161 161 
166 166 166 161 161 161 162 162 162 162 162 162 163 163 163 165 165 165 161 161 161 162 162 162 
162 162 162 162 162 162 174 174 174 179 179 179 86 86 86 19 19 19 7 7 7 6 6 6 
7 7 7 7 7 7 8 8 8 8 8 8 7 7 7 7 7 8 8 8 8 8 8 8 
8 8 8 8 8 8 7 7 7 8 8 8 7 7 7 7 7 7 7 7 7 6 6 6 
7 7 7 7 7 7 22 22 22 31 31 31 31 31 31 31 31 31 31 31 31 42 34 34 
227 94 97 255 104 107 164 69 70 0 0 0 0 0 0 0 0 0 0 0 0 0 0 0 
0 0 0 0 0 0 0 0 0 0 0 0 0 0 0 0 0 0 0 0 0 0 0 0 
0 0 0 0 0 0 
0 0 0 0 0 0 0 0 0 0 0 0 0 0 0 0 0 0 0 0 0 0 0 0 
0 0 0 0 0 0 0 0 0 0 0 0 0 0 0 0 0 0 0 0 0 11 6 6 
219 93 98 255 104 109 198 85 89 42 41 41 43 43 43 43 43 43 44 44 44 44 44 45 
39 39 39 32 33 33 34 35 35 36 36 36 37 38 38 39 39 40 40 41 41 42 43 43 
44 45 46 46 47 47 48 49 50 49 50 51 52 52 53 53 54 55 55 56 57 57 58 59 
58 59 60 58 59 60 58 59 60 77 78 79 101 101 102 182 182 182 189 189 189 180 180 180 
180 180 180 181 181 181 182 182 182 181 181 181 182 182 182 185 185 185 185 185 185 190 190 190 
188 188 188 189 189 189 192 192 192 192 192 192 195 195 195 196 196 196 196 196 196 205 205 205 
205 205 205 203 203 203 206 206 206 204 204 204 206 206 206 211 211 211 209 209 209 203 203 203 
205 205 205 204 204 204 197 197 197 196 196 196 198 198 198 196 196 196 194 194 194 192 192 192 
210 210 210 90 91 93 74 74 76 80 81 83 84 84 86 88 89 90 88 89 90 87 88 90 
86 87 89 84 86 87 82 83 84 79 80 82 76 77 79 74 75 77 70 71 72 68 69 70 
66 67 68 64 65 66 61 62 63 59 60 61 56 57 58 53 54 56 52 52 53 47 47 48 
80 80 80 188 188 188 172 172 172 165 165 165 167 167 167 171 171 171 168 168 168 165 165 165 
164 164 164 168 168 168 169 169 169 167 167 167 170 170 170 169 169 169 166 166 166 167 167 167 
168 168 168 165 165 165 166 166 166 164 164 164 169 169 169 165 165 165 166 166 166 164 164 164 
165 165 165 168 168 168 168 168 168 165 165 165 167 167 167 167 167 167 167 167 167 168 168 168 
166 166 166 166 166 166 164 164 164 172 172 172 186 186 186 115 115 115 26 26 26 6 6 6 
6 6 6 6 6 6 6 6 6 6 6 6 6 6 6 6 6 6 7 7 7 7 7 7 
7 7 7 7 7 7 7 7 7 7 7 7 6 6 6 6 6 6 5 5 5 6 6 6 
6 6 6 15 15 15 29 29 29 30 30 30 30 30 30 30 30 30 30 30 30 170 73 75 
255 100 103 236 94 98 20 8 8 0 0 0 0 0 0 0 0 0 0 0 0 0 0 0 
0 0 0 0 0 0 0 0 0 0 0 0 0 0 0 0 0 0 0 0 0 0 0 0 
0 0 0 0 0 0 
0 0 0 0 0 0 0 0 0 0 0 0 0 0 0 0 0 0 0 0 0 0 0 0 
0 0 0 0 0 0 0 0 0 0 0 0 0 0 0 0 0 0 0 0 0 0 0 0 
60 31 32 251 109 114 255 106 111 138 70 72 42 42 42 43 43 43 44 44 44 45 45 45 
44 45 45 36 36 36 34 34 35 35 36 36 37 38 38 39 39 40 40 40 41 42 43 44 
43 44 45 46 46 47 47 48 49 51 51 52 53 53 54 53 54 55 54 55 56 56 57 58 
57 58 59 57 58 59 80 81 82 119 120 120 190 190 190 184 184 184 177 177 177 174 174 174 
176 176 176 176 176 176 178 178 178 176 176 176 175 175 175 181 181 181 184 184 184 181 181 181 
182 182 182 187 187 187 189 189 189 189 189 189 193 193 193 190 190 190 193 193 193 197 197 197 
198 198 198 199 199 199 201 201 201 202 202 202 201 201 201 202 202 202 201 201 201 203 203 203 
200 200 200 195 195 195 194 194 194 195 195 195 193 193 193 189 189 189 193 193 193 190 190 190 
200 200 200 158 158 159 72 74 75 79 80 81 82 83 85 84 86 87 85 86 88 86 86 88 
83 84 85 82 83 85 79 81 82 77 78 80 75 76 77 71 73 74 69 70 71 66 68 69 
64 65 66 62 63 64 60 61 62 57 58 59 55 56 57 50 51 52 50 50 51 45 46 47 
125 125 126 182 182 182 166 166 166 166 166 166 163 163 163 166 166 166 165 165 165 164 164 164 
165 165 165 162 162 162 164 164 164 163 163 163 162 162 162 163 163 163 162 162 162 163 163 163 
162 162 162 162 162 162 162 162 162 160 160 160 163 163 163 161 161 161 162 162 162 163 163 163 
161 161 161 163 163 163 161 161 161 161 161 161 162 162 162 160 160 160 164 164 164 162 162 162 
163 163 163 162 162 162 160 160 160 161 161 161 169 169 169 184 184 184 135 135 135 36 36 36 
5 5 5 5 5 5 6 6 6 6 6 6 5 5 5 5 5 5 6 6 6 6 6 6 
6 6 6 6 6 6 6 6 6 5 5 5 5 5 5 5 5 5 5 5 5 5 5 5 
9 9 9 28 28 28 29 29 29 29 29 29 29 29 29 29 29 29 104 51 52 255 96 100 
255 97 101 77 30 31 0 0 0 0 0 0 0 0 0 0 0 0 0 0 0 0 0 0 
0 0 0 0 0 0 0 0 0 0 0 0 0 0 0 0 0 0 0 0 0 0 0 0 
0 0 0 0 0 0 
0 0 0 0 0 0 0 0 0 0 0 0 0 0 0 0 0 0 0 0 0 0 0 0 
0 0 0 0 0 0 0 0 0 0 0 0 0 0 0 0 0 0 0 0 0 0 0 0 
0 0 0 130 64 66 255 112 117 250 108 113 84 56 57 44 44 44 45 45 45 45 46 46 
46 46 47 45 46 46 37 38 38 37 38 38 39 39 40 40 41 42 42 43 43 45 45 46 
45 46 47 48 48 50 49 50 51 52 53 54 52 53 54 55 56 57 56 58 59 58 59 60 
62 62 63 85 86 87 145 145 145 196 196 196 182 182 182 179 179 179 177 177 177 182 182 182 
185 185 185 185 185 185 184 184 184 188 188 188 185 185 185 183 183 183 189 189 189 193 193 193 
194 194 194 193 193 193 193 193 193 197 197 197 195 195 195 193 193 193 200 200 200 200 200 200 
204 204 204 205 205 205 209 209 209 208 208 208 207 207 207 209 209 209 210 210 210 204 204 204 
203 203 203 205 205 205 200 200 200 201 201 201 194 194 194 195 195 195 195 195 195 197 197 197 
198 198 198 200 200 200 75 76 77 79 80 82 83 84 85 84 85 87 85 86 89 86 86 88 
83 85 86 81 82 84 79 80 82 76 77 78 74 74 76 71 72 73 69 70 71 66 67 68 
64 65 66 60 61 62 59 60 62 56 57 58 55 55 57 52 52 53 50 50 51 62 63 64 
164 164 164 179 179 179 172 172 172 169 169 169 169 169 169 169 169 169 171 171 171 167 167 167 
168 168 168 168 168 168 166 166 166 166 166 166 169 169 169 169 169 169 166 166 166 167 167 167 
166 166 166 164 164 164 165 165 165 167 167 167 167 167 167 166 166 166 166 166 166 167 167 167 
166 166 166 166 166 166 166 166 166 167 167 167 166 166 166 165 165 165 169 169 169 167 167 167 
169 169 169 166 166 166 165 165 165 166 166 166 170 170 170 169 169 169 182 182 182 158 158 158 
51 51 51 5 5 5 6 6 6 7 7 7 5 5 5 6 6 6 6 6 6 7 7 7 
6 6 6 7 7 7 6 6 6 6 6 6 6 6 6 6 6 6 6 6 6 7 7 7 
26 26 26 30 30 30 31 31 31 29 29 29 30 30 30 55 37 37 240 87 92 255 93 97 
151 56 59 0 0 0 0 0 0 0 0 0 0 0 0 0 0 0 0 0 0 0 0 0 
0 0 0 0 0 0 0 0 0 0 0 0 0 0 0 0 0 0 0 0 0 0 0 0 
0 0 0 0 0 0 
0 0 0 0 0 0 0 0 0 0 0 0 0 0 0 0 0 0 0 0 0 0 0 0 
0 0 0 0 0 0 0 0 0 0 0 0 0 0 0 0 0 0 0 0 0 0 0 0 
0 0 0 2 1 1 198 95 97 255 115 120 224 103 107 57 49 49 47 47 47 46 46 47 
48 48 48 49 49 49 47 48 48 39 40 40 40 40 41 42 42 43 43 44 44 46 46 48 
48 48 49 49 50 51 51 52 53 54 54 55 54 55 56 57 58 59 57 58 59 59 60 61 
95 96 97 184 185 185 212 212 212 212 212 212 213 213 213 214 214 214 215 215 215 214 214 214 
217 217 217 215 215 215 215 215 215 216 216 216 215 215 215 215 215 215 218 218 218 219 219 219 
218 218 218 220 220 220 220 220 220 221 221 221 221 221 221 220 220 220 223 223 223 224 224 224 
224 224 224 224 224 224 224 224 224 225 225 225 228 228 228 227 227 227 227 227 227 226 226 226 
224 224 224 223 223 223 224 224 224 222 222 222 221 221 221 221 221 221 222 222 222 220 220 220 
219 219 219 219 219 219 139 140 141 79 80 82 82 84 85 83 84 86 86 86 87 85 86 86 
83 84 86 81 82 83 79 80 82 75 76 78 72 74 76 71 72 73 69 70 71 66 67 68 
63 64 65 60 61 62 59 60 61 56 57 58 54 55 56 50 51 52 49 50 50 103 103 103 
211 211 211 211 211 211 211 211 211 209 209 209 209 209 209 210 210 210 210 210 210 209 209 209 
209 209 209 210 210 210 209 209 209 210 210 210 209 209 209 209 209 209 209 209 209 209 209 209 
210 210 210 209 209 209 209 209 209 209 209 209 209 209 209 208 208 208 209 209 209 209 209 209 
209 209 209 208 208 208 210 210 210 210 210 210 209 209 209 209 209 209 209 209 209 209 209 209 
209 209 209 209 209 209 209 209 209 209 209 209 209 209 209 209 209 209 209 209 209 209 209 209 
189 189 189 63 63 63 6 6 6 6 6 7 6 6 6 6 7 7 6 6 6 8 8 8 
8 8 8 7 7 7 6 6 6 6 6 6 6 6 6 6 6 6 6 6 6 23 23 23 
30 30 30 30 30 30 30 30 30 30 30 30 34 31 31 203 74 78 255 88 93 216 77 80 
10 4 4 0 0 0 0 0 0 0 0 0 0 0 0 0 0 0 0 0 0 0 0 0 
0 0 0 0 0 0 0 0 0 0 0 0 0 0 0 0 0 0 0 0 0 0 0 0 
0 0 0 0 0 0 
0 0 0 0 0 0 0 0 0 0 0 0 0 0 0 0 0 0 0 0 0 0 0 0 
0 0 0 0 0 0 0 0 0 0 0 0 0 0 0 0 0 0 0 0 0 0 0 0 
0 0 0 0 0 0 34 19 19 237 114 118 255 119 123 189 93 96 45 44 44 46 46 46 
46 46 46 47 47 47 48 48 48 45 46 46 39 40 40 41 42 42 42 43 43 44 46 46 
47 47 48 48 49 50 51 52 53 52 53 54 54 55 56 56 57 58 57 58 59 58 59 60 
59 60 61 58 59 60 58 59 60 58 58 59 57 58 59 57 58 58 56 57 58 55 56 57 
56 56 57 55 56 57 57 58 59 57 58 59 59 60 61 60 61 62 62 64 65 64 65 66 
66 67 68 68 68 70 71 71 73 73 74 75 75 77 78 77 78 80 80 81 82 82 83 85 
85 86 88 87 89 91 90 92 93 93 94 96 91 92 94 88 89 91 86 87 89 82 84 85 
81 82 84 78 80 81 77 78 79 74 75 76 73 74 75 71 72 73 71 72 74 71 72 74 
72 74 75 74 75 76 77 78 79 80 82 82 81 83 84 83 84 85 83 84 85 81 83 84 
81 82 83 77 78 80 77 78 79 73 73 75 71 72 73 67 69 70 66 67 68 62 63 64 
60 61 62 58 59 60 57 58 59 53 54 55 51 51 52 48 48 49 46 47 48 44 44 45 
40 41 42 37 37 38 35 35 35 30 31 31 27 27 28 24 24 25 22 22 23 20 20 21 
19 19 19 17 18 18 16 16 16 16 16 16 15 15 15 14 15 15 13 13 13 13 13 13 
12 12 12 12 12 12 11 11 11 10 10 10 10 10 10 9 9 10 9 9 9 9 9 9 
8 8 8 8 8 8 8 8 8 8 8 8 7 7 7 6 6 7 6 6 6 6 6 6 
5 5 5 5 5 5 5 5 5 5 5 5 4 4 4 5 5 5 5 5 5 5 5 5 
5 5 5 5 5 5 5 5 5 5 5 5 5 5 5 5 5 5 5 5 5 6 6 6 
5 5 5 6 6 6 5 5 5 6 6 6 5 5 5 5 5 5 19 19 19 29 29 29 
30 30 30 30 30 30 29 29 29 29 29 29 158 60 63 255 85 89 248 84 87 48 16 17 
0 0 0 0 0 0 0 0 0 0 0 0 0 0 0 0 0 0 0 0 0 0 0 0 
0 0 0 0 0 0 0 0 0 0 0 0 0 0 0 0 0 0 0 0 0 0 0 0 
0 0 0 0 0 0 
0 0 0 0 0 0 0 0 0 0 0 0 0 0 0 0 0 0 0 0 0 0 0 0 
0 0 0 0 0 0 0 0 0 0 0 0 0 0 0 0 0 0 0 0 0 0 0 0 
0 0 0 0 0 0 0 0 0 76 43 44 253 124 128 255 121 126 144 80 82 46 46 46 
47 47 47 48 48 48 49 49 49 50 50 50 46 47 47 42 43 43 45 46 47 46 46 47 
48 49 50 50 51 51 53 53 54 53 55 56 56 57 58 58 59 60 60 61 61 59 60 61 
60 61 62 60 61 62 60 61 62 60 60 62 60 61 61 59 60 61 61 62 62 60 60 62 
61 62 64 62 63 64 64 65 66 65 66 67 68 68 70 69 70 71 72 72 74 73 74 75 
76 77 79 79 80 81 81 82 83 83 84 86 86 87 89 89 91 92 91 92 94 95 96 98 
98 99 101 101 102 104 103 104 106 105 106 108 102 103 105 98 100 102 96 97 99 92 94 96 
90 92 94 88 89 91 85 86 88 82 83 85 81 82 84 79 80 81 78 79 81 78 79 80 
78 78 81 77 79 80 81 82 83 81 83 83 83 84 85 83 84 84 82 83 85 81 82 84 
79 80 81 77 78 80 74 76 77 71 72 74 69 70 71 68 69 70 65 66 67 62 63 64 
60 61 62 57 58 60 54 55 56 52 53 54 51 51 52 48 49 49 46 46 47 43 43 44 
40 40 41 37 38 38 34 35 35 31 32 32 27 28 28 26 27 27 24 24 24 22 22 23 
20 20 20 19 19 19 18 18 18 18 18 18 16 16 17 15 15 16 15 15 15 14 14 14 
13 14 14 12 13 13 12 12 12 12 12 12 12 12 12 11 11 11 10 10 10 10 10 10 
9 10 10 9 9 9 8 8 8 7 7 8 7 7 7 7 7 7 7 7 7 7 7 7 
7 7 7 6 6 6 6 6 6 6 6 6 5 5 5 5 5 5 6 6 6 5 5 5 
5 5 5 5 5 5 6 6 6 5 5 5 5 5 5 5 5 5 6 6 6 6 6 6 
6 6 6 6 6 6 5 5 5 5 5 5 5 5 5 16 16 16 30 30 30 29 29 29 
29 29 29 30 30 30 29 29 29 111 47 49 255 81 86 255 82 87 95 31 33 0 0 0 
0 0 0 0 0 0 0 0 0 0 0 0 0 0 0 0 0 0 0 0 0 0 0 0 
0 0 0 0 0 0 0 0 0 0 0 0 0 0 0 0 0 0 0 0 0 0 0 0 
0 0 0 0 0 0 
0 0 0 0 0 0 0 0 0 0 0 0 0 0 0 0 0 0 0 0 0 0 0 0 
0 0 0 0 0 0 0 0 0 0 0 0 0 0 0 0 0 0 0 0 0 0 0 0 
0 0 0 0 0 0 0 0 0 0 0 0 127 70 71 255 127 131 253 124 128 106 68 70 
47 47 47 48 49 49 49 49 49 50 50 50 51 52 52 47 47 48 45 46 46 47 48 49 
48 49 50 51 51 52 53 54 55 55 56 57 56 57 58 58 60 61 60 61 62 61 62 63 
62 63 64 62 63 64 63 64 64 64 64 65 64 65 66 65 66 67 65 66 67 67 67 69 
68 69 70 70 71 72 71 73 74 74 74 76 76 78 79 78 80 81 81 82 84 84 84 86 
87 87 89 89 90 92 92 93 95 95 96 98 98 100 102 102 103 105 104 106 108 108 109 111 
111 112 114 114 117 118 117 118 120 116 117 120 113 114 117 109 110 112 106 108 109 103 104 106 
101 101 103 96 98 100 94 95 97 91 92 94 89 89 91 86 87 89 84 85 87 83 85 86 
82 83 85 82 83 85 83 83 85 83 84 86 83 84 85 82 83 85 80 82 84 80 81 82 
78 79 81 77 78 79 74 74 76 71 72 73 68 69 70 66 67 68 63 64 65 62 63 64 
59 60 61 56 57 58 54 55 56 51 52 53 50 50 51 47 48 49 45 45 46 43 44 44 
40 40 41 37 38 38 35 36 36 33 33 34 30 30 31 28 28 28 25 26 26 23 23 24 
22 22 23 21 21 21 20 21 21 18 19 19 18 18 18 17 17 18 17 17 18 15 15 15 
15 15 15 14 14 14 14 14 14 13 13 13 12 12 13 12 12 12 12 12 12 11 12 12 
10 10 10 10 10 10 10 10 10 9 9 9 9 9 9 8 8 8 8 8 8 7 7 7 
7 7 7 7 7 7 7 7 7 6 6 6 5 5 5 6 6 6 6 6 7 6 6 6 
6 6 6 6 6 6 6 6 6 5 5 5 5 5 5 5 5 5 6 6 6 6 6 6 
5 5 5 5 5 5 5 5 5 6 6 6 13 13 13 29 29 29 29 29 29 29 29 29 
29 29 29 30 30 30 73 39 40 247 75 80 255 78 83 150 47 50 0 0 0 0 0 0 
0 0 0 0 0 0 0 0 0 0 0 0 0 0 0 0 0 0 0 0 0 0 0 0 
0 0 0 0 0 0 0 0 0 0 0 0 0 0 0 0 0 0 0 0 0 0 0 0 
0 0 0 0 0 0 
0 0 0 0 0 0 0 0 0 0 0 0 0 0 0 0 0 0 0 0 0 0 0 0 
0 0 0 0 0 0 0 0 0 0 0 0 0 0 0 0 0 0 0 0 0 0 0 0 
0 0 0 0 0 0 0 0 0 0 0 0 1 1 1 180 98 100 255 131 135 244 124 129 
85 62 63 49 49 49 49 49 49 50 50 50 51 51 51 52 52 52 48 48 49 47 48 49 
48 49 50 52 52 53 53 54 55 55 56 57 57 58 59 59 60 61 60 61 62 63 64 65 
64 65 66 65 66 67 66 67 69 67 68 69 67 68 70 70 71 72 70 71 73 72 73 75 
75 75 76 77 78 79 78 80 80 82 82 84 84 86 87 87 88 90 90 91 92 94 95 97 
96 97 99 99 101 103 103 103 106 106 107 109 108 110 111 112 115 116 116 118 120 120 121 124 
122 124 127 127 129 131 129 131 133 126 128 130 121 124 126 119 120 122 114 116 117 111 112 115 
107 108 111 104 106 107 100 102 104 98 99 101 95 95 97 92 94 95 90 91 93 88 89 90 
86 88 89 86 87 89 84 86 87 85 86 87 83 84 86 82 84 85 80 81 83 78 79 80 
76 77 79 75 76 77 72 73 75 69 70 71 66 68 69 65 66 67 61 62 63 59 60 61 
57 58 59 56 57 58 53 54 55 50 51 52 48 49 49 46 46 47 44 44 45 41 41 42 
38 40 40 38 38 39 35 35 36 31 32 32 30 30 30 27 28 28 27 27 28 24 25 25 
24 24 24 23 23 23 21 22 22 19 20 20 19 19 19 19 19 19 18 18 18 16 17 17 
16 16 16 15 16 16 14 14 14 14 14 14 13 13 13 12 12 12 11 11 12 11 11 11 
11 11 11 10 10 10 10 10 10 9 9 9 9 9 9 8 8 8 7 7 7 8 8 8 
7 7 7 7 7 7 7 7 7 6 6 6 7 7 7 6 6 6 5 5 5 6 6 6 
5 5 5 5 5 5 5 5 5 5 5 5 5 5 5 6 6 6 6 6 6 6 6 6 
5 5 5 5 5 5 5 5 5 11 11 11 27 27 27 28 28 28 29 29 29 29 29 29 
29 29 29 54 33 34 232 68 74 255 74 79 200 61 64 6 2 2 0 0 0 0 0 0 
0 0 0 0 0 0 0 0 0 0 0 0 0 0 0 0 0 0 0 0 0 0 0 0 
0 0 0 0 0 0 0 0 0 0 0 0 0 0 0 0 0 0 0 0 0 0 0 0 
0 0 0 0 0 0 
0 0 0 0 0 0 0 0 0 0 0 0 0 0 0 0 0 0 0 0 0 0 0 0 
0 0 0 0 0 0 0 0 0 0 0 0 0 0 0 0 0 0 0 0 0 0 0 0 
0 0 0 0 0 0 0 0 0 0 0 0 0 0 0 11 6 6 210 116 119 255 135 139 
232 122 126 72 58 59 52 52 52 53 53 53 54 54 55 55 55 55 56 56 57 52 53 54 
52 52 54 54 55 56 56 57 58 58 59 60 61 62 63 63 64 65 64 65 66 67 68 69 
67 68 70 70 71 72 70 71 72 73 74 75 73 74 76 75 76 78 77 79 80 80 81 83 
82 83 85 85 86 88 88 89 91 91 92 94 93 95 96 96 98 100 101 101 103 103 104 107 
107 108 110 110 112 114 114 115 118 116 119 121 121 122 125 124 126 128 129 131 133 132 134 136 
136 138 140 139 140 143 139 140 143 135 137 140 130 132 134 127 129 131 122 124 127 120 121 123 
115 117 120 112 114 116 109 110 113 106 107 109 102 103 105 99 100 102 96 98 100 94 96 97 
92 93 94 90 91 93 88 89 91 87 88 90 85 86 88 86 86 87 82 83 84 79 80 82 
77 78 79 75 75 77 72 74 75 69 70 71 68 69 70 65 66 67 62 63 65 60 61 62 
58 59 60 55 56 57 53 54 55 51 51 52 50 51 52 47 48 49 44 45 46 43 43 44 
40 41 41 38 39 39 37 37 38 34 34 35 33 33 33 31 31 32 28 29 29 28 28 29 
26 26 27 24 24 25 24 24 24 23 23 23 23 23 23 22 22 22 20 20 21 19 19 19 
18 18 18 18 18 18 16 16 16 16 16 17 15 15 16 15 15 15 14 14 14 13 13 13 
13 13 14 12 12 12 11 11 11 12 12 12 11 11 11 11 11 11 10 10 10 10 10 10 
9 9 9 9 9 9 9 9 9 8 8 8 8 8 8 7 7 8 8 8 8 7 7 7 
7 7 7 7 7 7 7 7 7 7 7 7 7 7 7 7 7 7 7 7 7 8 8 8 
7 7 7 6 6 6 13 13 13 30 30 30 31 31 31 31 31 31 30 30 30 31 31 31 
43 33 33 214 62 67 255 70 76 225 63 69 23 7 7 0 0 0 0 0 0 0 0 0 
0 0 0 0 0 0 0 0 0 0 0 0 0 0 0 0 0 0 0 0 0 0 0 0 
0 0 0 0 0 0 0 0 0 0 0 0 0 0 0 0 0 0 0 0 0 0 0 0 
0 0 0 0 0 0 
0 0 0 0 0 0 0 0 0 0 0 0 0 0 0 0 0 0 0 0 0 0 0 0 
0 0 0 0 0 0 0 0 0 0 0 0 0 0 0 0 0 0 0 0 0 0 0 0 
0 0 0 0 0 0 0 0 0 0 0 0 0 0 0 0 0 0 25 14 15 229 129 132 
255 137 141 217 119 122 63 57 57 53 53 53 54 54 54 54 54 55 56 56 56 57 57 57 
54 54 55 55 56 57 57 58 59 59 60 61 61 62 63 63 65 66 65 66 67 68 69 69 
69 70 71 71 72 74 73 74 75 76 77 78 78 80 81 79 81 83 82 83 85 85 87 88 
88 89 90 90 92 93 94 95 96 96 98 100 101 102 104 104 105 106 106 108 110 110 111 113 
114 116 117 117 118 121 121 123 126 125 127 128 129 131 134 132 134 136 139 139 142 140 143 146 
145 147 150 148 150 153 144 146 149 140 142 145 137 138 140 132 135 137 127 129 132 124 126 128 
120 121 124 117 118 120 112 114 116 110 112 115 106 107 109 101 103 105 100 102 103 95 97 99 
94 96 98 90 92 93 89 90 92 86 87 89 85 87 89 83 84 86 82 83 84 77 79 81 
76 77 78 73 74 76 71 73 74 68 69 70 66 67 68 63 64 65 61 62 63 59 60 61 
56 57 58 54 55 56 52 53 54 50 51 52 49 50 51 47 47 48 44 45 46 42 42 43 
40 40 41 38 38 39 37 38 38 34 35 35 32 33 33 31 31 32 29 30 30 29 29 29 
27 27 28 25 26 26 25 25 26 23 23 24 22 22 22 21 21 21 20 20 21 19 20 20 
18 18 18 18 18 18 17 17 17 16 16 16 16 16 16 15 15 16 14 15 15 14 14 14 
13 13 13 13 13 13 12 12 12 11 11 12 11 11 11 10 10 10 10 10 10 9 9 10 
9 9 9 9 9 9 8 8 8 8 8 8 8 8 8 7 7 7 7 7 7 7 7 7 
7 7 7 7 7 7 7 7 7 8 8 8 7 7 7 7 7 7 7 7 7 7 7 7 
7 7 7 11 11 11 29 29 29 30 30 30 30 30 30 30 30 30 30 30 30 36 32 32 
193 55 60 255 66 72 241 65 71 41 11 12 0 0 0 0 0 0 0 0 0 0 0 0 
0 0 0 0 0 0 0 0 0 0 0 0 0 0 0 0 0 0 0 0 0 0 0 0 
0 0 0 0 0 0 0 0 0 0 0 0 0 0 0 0 0 0 0 0 0 0 0 0 
0 0 0 0 0 0 
0 0 0 0 0 0 0 0 0 0 0 0 0 0 0 0 0 0 0 0 0 0 0 0 
0 0 0 0 0 0 0 0 0 0 0 0 0 0 0 0 0 0 0 0 0 0 0 0 
0 0 0 0 0 0 0 0 0 0 0 0 0 0 0 0 0 0 0 0 0 45 27 27 
243 139 142 255 141 145 204 117 119 62 57 58 55 55 56 57 57 58 57 57 58 58 58 59 
59 60 60 58 59 59 59 60 61 61 62 63 64 65 66 66 67 68 67 68 70 69 70 72 
72 73 74 74 74 76 77 78 79 80 81 83 83 84 85 84 86 86 87 88 90 90 91 92 
93 94 96 95 97 99 99 100 102 102 103 105 106 108 110 109 111 113 113 115 117 117 119 121 
121 123 125 124 126 128 129 131 133 132 134 136 136 138 141 140 142 145 146 148 151 149 152 155 
154 155 158 153 155 157 148 150 153 143 145 148 140 142 144 135 137 140 132 133 136 127 129 132 
124 126 128 119 121 123 117 118 120 113 114 116 110 111 113 105 107 109 102 104 106 98 100 101 
96 97 99 94 95 97 91 92 95 88 89 91 87 88 89 83 84 86 81 82 83 78 79 80 
76 77 78 73 74 75 71 72 73 67 68 70 66 67 68 62 63 64 61 62 63 58 59 60 
56 57 58 53 54 55 51 51 53 50 51 52 48 48 49 45 46 47 44 44 45 42 43 43 
40 41 41 37 38 39 36 37 37 35 35 35 33 33 34 32 33 33 31 31 32 30 30 30 
28 28 29 27 27 28 24 25 25 24 24 24 23 23 24 22 22 23 21 21 21 20 20 21 
19 19 19 18 18 19 17 17 18 17 17 17 16 16 17 15 15 15 15 15 15 14 14 15 
13 13 13 12 12 13 12 12 12 12 12 12 11 11 11 10 10 10 10 11 10 10 10 10 
10 10 10 10 10 10 10 10 10 10 10 10 9 9 10 9 9 9 10 10 10 9 9 9 
8 8 9 8 8 8 7 7 7 8 8 8 8 8 8 8 8 8 8 8 8 7 7 7 
14 14 14 29 29 29 31 31 31 31 31 31 31 31 31 31 31 31 34 31 31 178 51 55 
255 63 69 250 63 69 65 17 18 0 0 0 0 0 0 0 0 0 0 0 0 0 0 0 
0 0 0 0 0 0 0 0 0 0 0 0 0 0 0 0 0 0 0 0 0 0 0 0 
0 0 0 0 0 0 0 0 0 0 0 0 0 0 0 0 0 0 0 0 0 0 0 0 
0 0 0 0 0 0 
0 0 0 0 0 0 0 0 0 0 0 0 0 0 0 0 0 0 0 0 0 0 0 0 
0 0 0 0 0 0 0 0 0 0 0 0 0 0 0 0 0 0 0 0 0 0 0 0 
0 0 0 0 0 0 0 0 0 0 0 0 0 0 0 0 0 0 0 0 0 0 0 0 
67 40 41 248 144 147 255 146 149 199 117 120 58 56 56 55 56 56 57 57 57 58 58 58 
60 60 60 60 61 61 60 61 62 61 62 63 63 64 65 65 67 68 69 70 71 70 71 72 
72 73 75 75 76 77 78 79 81 81 82 83 84 85 87 86 87 88 89 90 92 93 94 96 
96 98 100 100 101 103 101 103 105 105 107 109 109 110 112 113 115 117 117 118 120 120 122 124 
124 124 127 129 130 133 131 134 136 136 138 141 139 142 144 146 147 150 149 151 154 154 157 160 
156 158 161 153 155 158 148 151 154 144 145 148 140 142 144 134 136 139 132 134 136 127 128 131 
124 125 127 119 121 123 116 118 120 111 113 115 108 110 112 105 106 108 102 103 104 98 100 102 
96 98 100 93 94 95 91 92 94 86 87 89 84 86 87 81 82 83 78 79 81 76 77 78 
73 74 76 71 72 73 67 69 70 65 66 67 63 64 65 61 62 63 58 59 60 56 57 58 
53 54 55 52 52 53 50 51 51 48 49 50 46 46 47 43 44 45 42 43 43 41 41 42 
39 39 40 37 38 38 35 36 36 34 34 35 32 32 33 30 31 31 28 28 29 28 28 29 
26 27 27 25 26 26 23 23 24 22 23 23 22 22 22 21 21 21 20 20 20 18 19 19 
18 18 19 18 18 18 17 17 17 16 17 17 15 15 16 14 15 15 15 15 15 13 13 13 
14 14 14 13 13 13 11 11 12 11 11 11 11 11 12 11 11 11 10 10 11 10 10 10 
9 9 9 8 8 8 8 9 9 8 8 8 8 8 8 8 8 8 8 8 8 7 7 7 
7 7 7 7 7 7 7 7 7 7 7 7 7 7 7 6 6 6 7 7 7 13 13 13 
29 29 29 30 30 30 30 30 30 30 30 30 30 30 30 31 30 30 169 47 52 255 60 66 
253 61 67 89 22 24 0 0 0 0 0 0 0 0 0 0 0 0 0 0 0 0 0 0 
0 0 0 0 0 0 0 0 0 0 0 0 0 0 0 0 0 0 0 0 0 0 0 0 
0 0 0 0 0 0 0 0 0 0 0 0 0 0 0 0 0 0 0 0 0 0 0 0 
0 0 0 0 0 0 
0 0 0 0 0 0 0 0 0 0 0 0 0 0 0 0 0 0 0 0 0 0 0 0 
0 0 0 0 0 0 0 0 0 0 0 0 0 0 0 0 0 0 0 0 0 0 0 0 
0 0 0 0 0 0 0 0 0 0 0 0 0 0 0 0 0 0 0 0 0 0 0 0 
0 0 0 78 48 49 251 150 152 255 148 151 193 117 120 58 57 57 57 57 57 57 58 58 
59 59 59 59 60 60 61 61 62 62 63 63 63 64 65 66 67 68 69 70 71 71 72 73 
74 74 76 76 77 78 79 80 82 82 83 84 83 85 87 88 89 91 91 92 94 95 96 98 
97 99 101 102 103 105 104 105 108 107 109 111 111 113 115 115 116 119 119 121 123 124 126 127 
126 128 130 131 133 136 134 136 138 139 141 144 143 145 147 148 150 153 152 154 157 156 158 161 
157 159 162 152 154 157 148 150 153 143 145 147 139 141 143 134 136 138 130 132 134 126 127 129 
124 126 128 118 119 122 115 116 118 111 112 114 106 108 110 103 105 107 101 102 104 98 99 101 
94 95 97 90 92 94 88 89 91 85 87 88 82 83 84 79 80 82 76 77 78 74 75 76 
71 72 73 69 70 71 65 66 67 64 65 66 61 62 63 59 60 61 57 58 59 54 55 56 
51 52 53 50 50 51 47 48 49 46 47 47 44 45 45 43 43 44 40 41 41 39 39 40 
37 37 38 35 36 36 34 34 34 32 33 33 30 31 31 30 30 30 28 29 29 27 27 28 
25 25 26 23 24 24 23 23 23 22 22 23 20 21 21 19 20 20 19 20 20 18 18 18 
17 17 18 16 16 17 16 16 16 15 15 15 14 14 14 13 13 13 13 13 13 12 12 12 
11 11 12 11 11 11 10 10 10 10 10 10 9 9 9 9 9 9 8 8 8 9 9 9 
7 8 8 7 7 7 8 8 8 7 7 7 7 7 7 6 6 6 7 7 7 5 5 6 
5 5 6 5 5 5 5 5 5 6 6 6 5 5 5 6 6 6 14 14 14 28 28 28 
28 28 28 29 29 29 29 29 29 28 28 28 29 29 29 161 44 48 255 56 63 255 57 64 
101 23 26 0 0 0 0 0 0 0 0 0 0 0 0 0 0 0 0 0 0 0 0 0 
0 0 0 0 0 0 0 0 0 0 0 0 0 0 0 0 0 0 0 0 0 0 0 0 
0 0 0 0 0 0 0 0 0 0 0 0 0 0 0 0 0 0 0 0 0 0 0 0 
0 0 0 0 0 0 
0 0 0 0 0 0 0 0 0 0 0 0 0 0 0 0 0 0 0 0 0 0 0 0 
0 0 0 0 0 0 0 0 0 0 0 0 0 0 0 0 0 0 0 0 0 0 0 0 
0 0 0 0 0 0 0 0 0 0 0 0 0 0 0 0 0 0 0 0 0 0 0 0 
0 0 0 0 0 0 85 54 55 253 154 157 255 153 155 194 121 123 64 61 61 59 59 60 
61 61 62 62 63 63 64 64 64 65 65 66 67 67 67 68 69 70 72 73 74 75 76 78 
77 78 79 81 82 84 82 84 85 86 87 89 88 89 90 92 93 94 93 94 96 98 100 101 
102 103 105 105 107 109 107 109 111 112 113 116 116 118 120 120 121 123 123 124 126 127 128 131 
130 132 134 134 137 139 139 140 143 144 146 148 148 150 152 152 154 157 156 158 161 160 162 165 
156 158 161 152 154 157 148 149 152 144 146 148 138 140 143 136 138 140 130 131 134 127 129 131 
123 125 127 120 122 124 115 117 119 113 115 117 108 109 111 105 107 109 101 103 105 98 99 101 
95 96 97 92 93 95 88 89 91 85 87 88 82 84 85 80 81 83 77 78 79 75 75 77 
71 72 73 69 70 71 66 67 68 64 65 66 62 63 64 59 60 62 57 58 59 55 56 57 
53 53 54 50 51 51 48 49 50 46 46 47 45 46 47 42 43 43 41 41 42 40 40 41 
38 39 39 36 37 37 35 36 37 33 33 34 32 32 33 30 30 31 29 29 30 27 28 28 
26 27 27 25 25 26 24 24 25 24 24 24 22 23 23 21 21 21 20 20 20 20 20 20 
18 18 18 19 19 19 17 17 18 17 17 17 16 16 16 15 15 16 14 14 15 14 14 14 
13 13 13 12 12 12 12 12 12 11 11 12 11 11 11 10 10 11 10 10 10 11 11 11 
9 9 9 9 9 9 10 10 10 9 9 9 8 8 8 8 8 8 8 8 8 7 7 7 
7 8 8 8 8 8 6 6 6 7 7 7 7 7 7 17 17 17 31 31 31 30 30 30 
31 31 31 31 31 31 31 31 31 32 31 31 162 43 47 255 53 60 255 54 61 112 25 27 
0 0 0 0 0 0 0 0 0 0 0 0 0 0 0 0 0 0 0 0 0 0 0 0 
0 0 0 0 0 0 0 0 0 0 0 0 0 0 0 0 0 0 0 0 0 0 0 0 
0 0 0 0 0 0 0 0 0 0 0 0 0 0 0 0 0 0 0 0 0 0 0 0 
0 0 0 0 0 0 
0 0 0 0 0 0 0 0 0 0 0 0 0 0 0 0 0 0 0 0 0 0 0 0 
0 0 0 0 0 0 0 0 0 0 0 0 0 0 0 0 0 0 0 0 0 0 0 0 
0 0 0 0 0 0 0 0 0 0 0 0 0 0 0 0 0 0 0 0 0 0 0 0 
0 0 0 0 0 0 0 0 0 94 61 62 253 159 161 255 157 160 199 126 128 68 64 64 
61 61 61 62 62 62 63 64 64 66 67 67 67 67 67 68 69 69 71 72 74 75 75 77 
77 78 79 79 81 83 83 84 85 85 87 88 89 90 92 92 93 95 95 96 98 99 100 102 
102 103 105 106 107 109 108 109 111 113 115 117 117 118 121 120 122 124 124 126 128 127 129 132 
133 135 138 137 139 141 141 144 146 146 148 150 151 153 156 154 156 159 158 161 164 160 162 165 
154 156 159 150 152 155 145 148 150 142 144 146 137 138 141 133 135 137 128 130 132 125 126 129 
120 121 123 118 119 121 113 115 117 110 111 113 105 107 109 102 104 106 98 99 101 95 97 99 
92 93 95 90 91 92 86 87 89 83 84 86 80 81 82 77 78 79 74 75 76 70 71 72 
68 70 71 66 67 68 65 66 67 62 63 64 60 61 62 57 58 59 55 56 57 52 53 54 
51 51 52 48 49 50 46 47 48 45 46 46 44 44 45 41 42 42 39 40 40 37 37 38 
36 37 37 34 34 34 33 34 34 30 31 31 30 31 31 29 29 29 28 28 28 26 26 27 
25 25 25 25 25 25 23 24 24 21 21 22 21 22 22 19 20 20 19 19 19 18 18 19 
16 16 17 17 17 17 15 15 15 14 14 14 14 14 14 13 13 13 13 13 13 11 11 12 
12 12 12 10 10 10 11 11 11 10 10 10 10 10 10 9 9 9 9 9 9 9 9 9 
7 7 7 8 8 8 7 7 8 8 8 8 7 7 7 7 7 7 6 6 7 6 6 6 
6 6 6 6 6 6 7 7 7 6 6 6 20 20 20 29 29 29 29 29 29 29 29 29 
29 29 29 28 28 28 31 28 28 171 41 46 255 50 57 255 50 58 121 24 28 0 0 0 
0 0 0 0 0 0 0 0 0 0 0 0 0 0 0 0 0 0 0 0 0 0 0 0 
0 0 0 0 0 0 0 0 0 0 0 0 0 0 0 0 0 0 0 0 0 0 0 0 
0 0 0 0 0 0 0 0 0 0 0 0 0 0 0 0 0 0 0 0 0 0 0 0 
0 0 0 0 0 0 
0 0 0 0 0 0 0 0 0 0 0 0 0 0 0 0 0 0 0 0 0 0 0 0 
0 0 0 0 0 0 0 0 0 0 0 0 0 0 0 0 0 0 0 0 0 0 0 0 
0 0 0 0 0 0 0 0 0 0 0 0 0 0 0 0 0 0 0 0 0 0 0 0 
0 0 0 0 0 0 0 0 0 0 0 0 86 57 58 251 161 164 255 160 162 206 133 135 
74 68 69 64 65 65 65 65 65 67 67 67 68 68 68 70 70 71 71 73 73 77 77 78 
79 81 83 83 84 85 86 87 89 88 89 90 92 93 95 95 96 98 98 100 101 101 102 104 
105 107 109 107 109 111 113 114 116 115 116 119 119 121 123 123 124 126 127 129 132 132 134 136 
136 138 140 140 142 145 144 146 148 148 150 152 153 155 158 157 159 162 161 164 167 159 161 164 
153 155 158 150 152 155 145 147 149 141 143 146 136 138 140 132 134 137 127 129 131 124 126 129 
120 122 124 115 117 119 112 114 116 108 109 111 105 106 108 102 103 105 99 100 102 95 96 97 
92 94 96 88 89 91 85 87 88 83 84 85 80 81 83 77 78 79 75 75 77 71 72 73 
69 70 72 66 67 68 64 65 66 63 64 65 60 61 62 56 57 58 54 55 56 53 54 55 
50 51 52 48 49 50 47 47 48 44 45 46 44 44 45 42 42 43 39 41 41 37 39 39 
37 37 38 35 35 36 33 33 34 32 32 33 30 30 31 29 29 30 28 29 29 27 28 28 
26 26 27 25 25 26 24 24 24 23 23 23 22 22 22 21 21 21 20 20 20 18 19 19 
18 18 18 17 17 18 16 16 17 16 16 16 14 14 14 14 14 15 14 14 14 13 13 13 
12 12 13 11 11 11 11 11 12 11 11 11 10 10 10 10 10 10 10 10 10 10 10 10 
10 10 10 9 9 9 8 8 8 8 8 8 8 8 8 8 8 8 8 8 8 8 8 8 
8 8 8 8 8 8 9 9 9 24 24 24 30 30 30 30 30 30 31 31 31 30 30 30 
31 31 31 35 30 31 178 40 45 255 46 54 255 47 55 110 21 25 0 0 0 0 0 0 
0 0 0 0 0 0 0 0 0 0 0 0 0 0 0 0 0 0 0 0 0 0 0 0 
0 0 0 0 0 0 0 0 0 0 0 0 0 0 0 0 0 0 0 0 0 0 0 0 
0 0 0 0 0 0 0 0 0 0 0 0 0 0 0 0 0 0 0 0 0 0 0 0 
0 0 0 0 0 0 
0 0 0 0 0 0 0 0 0 0 0 0 0 0 0 0 0 0 0 0 0 0 0 0 
0 0 0 0 0 0 0 0 0 0 0 0 0 0 0 0 0 0 0 0 0 0 0 0 
0 0 0 0 0 0 0 0 0 0 0 0 0 0 0 0 0 0 0 0 0 0 0 0 
0 0 0 0 0 0 0 0 0 0 0 0 0 0 0 78 53 54 248 163 165 255 164 167 
219 142 145 83 73 74 65 66 66 67 67 67 67 67 68 70 70 70 71 72 72 73 73 73 
77 78 80 83 84 85 86 87 89 88 89 91 92 93 95 95 96 97 99 100 102 103 104 106 
106 107 109 109 110 112 113 115 117 115 117 120 120 122 124 123 125 127 128 130 132 132 133 136 
137 139 141 140 142 145 146 148 150 148 150 153 154 156 159 157 159 162 160 162 165 154 156 159 
150 152 155 145 148 150 142 144 146 137 138 141 133 135 137 128 130 132 125 126 129 120 121 123 
117 118 120 113 114 116 110 111 113 106 108 110 102 104 106 99 100 102 96 98 99 92 93 95 
90 91 92 86 88 89 83 84 86 79 81 82 77 78 80 74 75 76 72 73 75 68 69 70 
67 68 69 64 66 67 62 63 64 59 61 62 57 58 59 54 55 56 51 52 54 51 51 52 
48 49 50 47 47 48 44 45 45 43 43 44 41 42 42 39 39 40 37 38 38 36 37 37 
34 35 35 33 34 34 31 32 32 30 31 31 30 30 30 28 28 28 26 26 27 25 25 26 
24 24 24 23 23 23 21 21 22 21 22 22 19 19 20 19 20 20 17 17 18 17 17 17 
16 16 16 15 15 15 14 14 14 14 14 14 14 14 14 13 13 13 12 12 13 11 11 11 
11 11 11 11 11 11 10 10 10 9 10 9 9 9 9 9 9 9 8 9 9 8 8 8 
7 7 7 7 7 8 7 7 7 7 7 7 7 7 7 7 7 8 6 6 6 6 6 6 
6 6 6 11 11 11 26 26 26 29 29 29 30 30 30 29 29 29 29 29 29 29 29 29 
42 30 30 195 39 44 255 43 51 253 44 52 99 18 21 0 0 0 0 0 0 0 0 0 
0 0 0 0 0 0 0 0 0 0 0 0 0 0 0 0 0 0 0 0 0 0 0 0 
0 0 0 0 0 0 0 0 0 0 0 0 0 0 0 0 0 0 0 0 0 0 0 0 
0 0 0 0 0 0 0 0 0 0 0 0 0 0 0 0 0 0 0 0 0 0 0 0 
0 0 0 0 0 0 
0 0 0 0 0 0 0 0 0 0 0 0 0 0 0 0 0 0 0 0 0 0 0 0 
0 0 0 0 0 0 0 0 0 0 0 0 0 0 0 0 0 0 0 0 0 0 0 0 
0 0 0 0 0 0 0 0 0 0 0 0 0 0 0 0 0 0 0 0 0 0 0 0 
0 0 0 0 0 0 0 0 0 0 0 0 0 0 0 0 0 0 67 47 47 244 165 167 
255 169 171 234 153 156 101 84 85 68 68 69 70 70 71 72 72 73 74 74 74 75 75 75 
77 77 78 82 83 83 89 90 92 91 92 94 94 95 97 97 98 100 101 102 104 104 105 107 
108 110 112 111 113 115 116 117 119 120 121 123 123 124 127 128 130 133 131 133 135 136 138 140 
140 142 145 145 147 149 149 151 153 153 155 158 157 159 162 161 163 166 159 161 164 154 156 159 
150 152 155 145 147 150 141 143 146 136 138 140 132 134 137 128 130 132 124 126 129 120 122 124 
118 119 122 112 114 116 110 111 114 106 107 109 102 103 105 98 99 101 96 97 99 93 94 96 
90 91 93 86 88 89 83 84 86 79 80 82 77 78 79 75 75 77 72 73 74 69 71 72 
67 68 69 64 65 66 62 63 64 61 62 63 57 58 60 55 56 57 53 53 54 51 51 52 
48 49 50 48 48 49 44 46 46 43 43 44 41 41 42 40 41 42 38 39 39 36 37 38 
35 35 36 34 34 35 32 32 33 31 31 32 30 30 31 29 29 30 27 28 28 26 27 27 
24 24 25 23 24 24 23 23 23 22 22 22 21 21 21 20 20 20 19 19 19 18 18 18 
17 17 18 17 17 18 17 17 17 16 16 16 14 14 15 14 14 14 14 14 14 12 12 13 
12 12 12 11 11 12 11 11 11 11 11 12 10 10 10 10 10 10 10 10 10 9 9 9 
9 9 9 9 9 9 9 9 9 8 8 8 8 8 8 8 8 8 7 7 8 7 7 7 
17 17 17 30 30 30 31 31 31 31 31 31 30 30 30 31 31 31 31 31 31 58 32 33 
217 38 44 255 41 49 250 41 49 88 15 17 0 0 0 0 0 0 0 0 0 0 0 0 
0 0 0 0 0 0 0 0 0 0 0 0 0 0 0 0 0 0 0 0 0 0 0 0 
0 0 0 0 0 0 0 0 0 0 0 0 0 0 0 0 0 0 0 0 0 0 0 0 
0 0 0 0 0 0 0 0 0 0 0 0 0 0 0 0 0 0 0 0 0 0 0 0 
0 0 0 0 0 0 
0 0 0 0 0 0 0 0 0 0 0 0 0 0 0 0 0 0 0 0 0 0 0 0 
0 0 0 0 0 0 0 0 0 0 0 0 0 0 0 0 0 0 0 0 0 0 0 0 
0 0 0 0 0 0 0 0 0 0 0 0 0 0 0 0 0 0 0 0 0 0 0 0 
0 0 0 0 0 0 0 0 0 0 0 0 0 0 0 0 0 0 0 0 0 44 31 31 
232 161 163 255 172 174 245 164 166 122 96 97 70 70 71 72 73 73 74 74 75 76 76 76 
78 78 79 80 80 81 84 85 85 92 94 95 96 97 98 99 100 102 103 104 106 106 107 109 
109 110 112 113 115 117 117 119 121 121 123 125 124 126 128 128 130 132 132 134 137 137 139 141 
140 142 145 146 148 150 150 151 154 154 157 159 157 159 162 160 162 165 156 158 161 151 153 156 
147 148 151 142 144 146 139 141 144 133 135 137 130 131 134 126 127 130 122 124 126 118 120 122 
114 115 117 111 112 114 106 108 110 103 105 107 99 100 102 96 98 100 92 93 95 91 92 93 
87 88 90 84 85 87 81 82 83 78 79 81 75 76 78 72 74 75 70 71 72 67 69 70 
65 66 67 63 64 65 60 61 62 59 60 61 55 56 58 54 55 56 51 52 53 49 50 50 
48 48 49 46 46 47 43 44 44 42 44 44 40 41 41 38 39 39 36 37 37 35 36 36 
34 35 35 31 32 32 31 32 32 29 29 29 28 28 28 27 27 28 26 26 27 25 25 25 
23 23 23 22 22 23 21 22 22 20 20 21 19 20 20 19 19 20 18 18 18 17 17 17 
16 16 16 15 15 15 14 15 15 15 15 15 14 14 14 13 13 14 12 12 12 11 11 11 
12 12 12 10 10 10 11 11 11 10 10 10 10 10 10 9 10 10 9 9 9 9 9 9 
8 8 8 8 8 8 8 8 8 8 8 8 7 7 8 7 7 7 8 9 9 23 23 23 
30 30 30 30 30 30 30 30 30 31 31 31 30 30 30 30 30 30 76 31 33 234 36 43 
255 38 46 239 37 45 62 9 11 0 0 0 0 0 0 0 0 0 0 0 0 0 0 0 
0 0 0 0 0 0 0 0 0 0 0 0 0 0 0 0 0 0 0 0 0 0 0 0 
0 0 0 0 0 0 0 0 0 0 0 0 0 0 0 0 0 0 0 0 0 0 0 0 
0 0 0 0 0 0 0 0 0 0 0 0 0 0 0 0 0 0 0 0 0 0 0 0 
0 0 0 0 0 0 
0 0 0 0 0 0 0 0 0 0 0 0 0 0 0 0 0 0 0 0 0 0 0 0 
0 0 0 0 0 0 0 0 0 0 0 0 0 0 0 0 0 0 0 0 0 0 0 0 
0 0 0 0 0 0 0 0 0 0 0 0 0 0 0 0 0 0 0 0 0 0 0 0 
0 0 0 0 0 0 0 0 0 0 0 0 0 0 0 0 0 0 0 0 0 0 0 0 
25 18 18 212 152 152 255 176 178 254 172 174 158 118 118 73 73 73 73 74 74 76 76 77 
78 78 79 79 80 80 81 82 82 84 84 85 92 94 96 100 101 103 103 104 106 107 109 111 
110 112 114 115 116 118 117 118 121 122 123 125 126 128 130 130 132 134 133 135 138 139 140 143 
141 143 146 147 149 152 150 152 155 156 158 161 159 161 164 158 160 163 152 154 157 148 150 153 
143 146 148 141 143 146 136 138 140 131 133 136 127 129 131 124 126 128 119 121 123 116 117 120 
111 113 115 109 111 113 105 106 108 101 103 105 97 99 101 94 95 97 91 93 95 88 89 91 
84 86 87 82 83 84 78 80 82 76 77 78 73 74 76 71 72 73 67 68 69 66 67 68 
63 64 66 61 62 63 58 59 60 57 58 59 54 55 56 51 52 53 50 50 51 47 48 49 
46 47 47 43 44 45 43 43 44 40 40 41 38 39 40 36 37 37 36 36 37 34 34 35 
33 33 34 31 31 32 31 31 32 27 28 28 27 28 28 25 26 26 24 25 25 22 23 23 
23 23 24 22 22 22 20 20 20 19 19 19 18 19 19 19 19 19 17 17 18 16 16 16 
16 16 16 15 15 15 14 14 14 14 14 15 13 13 13 12 12 12 12 12 12 11 11 11 
10 10 11 10 10 10 9 9 10 9 9 9 9 9 9 8 8 8 8 8 8 7 7 7 
8 8 8 7 7 7 6 6 6 7 7 7 6 6 6 12 12 12 28 28 28 31 31 31 
29 29 29 29 29 29 29 29 29 29 29 29 29 29 29 114 31 34 248 34 43 255 35 43 
223 33 39 39 6 7 0 0 0 0 0 0 0 0 0 0 0 0 0 0 0 0 0 0 
0 0 0 0 0 0 0 0 0 0 0 0 0 0 0 0 0 0 0 0 0 0 0 0 
0 0 0 0 0 0 0 0 0 0 0 0 0 0 0 0 0 0 0 0 0 0 0 0 
0 0 0 0 0 0 0 0 0 0 0 0 0 0 0 0 0 0 0 0 0 0 0 0 
0 0 0 0 0 0 
0 0 0 0 0 0 0 0 0 0 0 0 0 0 0 0 0 0 0 0 0 0 0 0 
0 0 0 0 0 0 0 0 0 0 0 0 0 0 0 0 0 0 0 0 0 0 0 0 
0 0 0 0 0 0 0 0 0 0 0 0 0 0 0 0 0 0 0 0 0 0 0 0 
0 0 0 0 0 0 0 0 0 0 0 0 0 0 0 0 0 0 0 0 0 0 0 0 
0 0 0 11 8 8 183 134 136 255 181 183 255 176 178 198 142 143 85 81 81 77 78 78 
79 80 80 81 82 82 82 83 83 85 85 85 87 87 88 93 93 94 104 106 107 109 110 112 
112 113 115 116 118 120 121 123 125 123 125 127 128 130 132 132 133 136 136 138 140 140 142 145 
146 148 150 150 151 154 154 156 159 158 160 163 160 162 165 157 159 162 151 153 156 147 149 152 
142 144 146 138 140 143 134 136 138 130 132 135 126 127 130 122 124 126 118 119 121 114 116 118 
110 112 114 108 109 112 103 105 107 101 102 104 96 98 99 95 96 97 91 92 93 87 88 90 
84 85 87 82 83 84 78 79 81 75 76 77 72 73 75 70 71 72 68 69 70 64 66 67 
63 64 65 60 61 62 58 59 60 56 57 58 53 54 55 52 52 54 50 51 51 48 49 50 
46 46 47 44 44 45 41 42 42 40 40 41 38 39 40 36 37 37 35 36 36 34 35 35 
32 32 33 31 31 32 30 30 31 28 28 28 26 27 27 25 25 26 25 25 26 24 24 24 
23 24 24 21 22 22 21 21 21 19 20 20 17 18 18 18 18 18 17 18 17 17 17 17 
15 15 15 14 15 15 14 14 14 14 14 14 12 12 13 12 12 12 12 12 12 12 12 12 
10 10 10 10 10 10 9 9 9 9 9 9 8 9 9 9 9 9 9 9 9 9 9 9 
8 8 8 7 7 7 8 8 8 8 8 8 20 20 20 31 31 31 30 30 30 30 30 30 
31 31 31 30 30 30 30 30 30 34 29 29 163 31 36 255 32 40 255 33 41 195 26 33 
21 3 3 0 0 0 0 0 0 0 0 0 0 0 0 0 0 0 0 0 0 0 0 0 
0 0 0 0 0 0 0 0 0 0 0 0 0 0 0 0 0 0 0 0 0 0 0 0 
0 0 0 0 0 0 0 0 0 0 0 0 0 0 0 0 0 0 0 0 0 0 0 0 
0 0 0 0 0 0 0 0 0 0 0 0 0 0 0 0 0 0 0 0 0 0 0 0 
0 0 0 0 0 0 
0 0 0 0 0 0 0 0 0 0 0 0 0 0 0 0 0 0 0 0 0 0 0 0 
0 0 0 0 0 0 0 0 0 0 0 0 0 0 0 0 0 0 0 0 0 0 0 0 
0 0 0 0 0 0 0 0 0 0 0 0 0 0 0 0 0 0 0 0 0 0 0 0 
0 0 0 0 0 0 0 0 0 0 0 0 0 0 0 0 0 0 0 0 0 0 0 0 
0 0 0 0 0 0 1 1 1 128 97 97 254 183 185 255 181 183 228 163 165 111 96 96 
79 80 80 82 83 83 84 85 85 86 86 87 88 88 89 90 90 90 93 94 95 105 106 108 
115 116 118 118 119 122 123 124 126 125 127 129 130 132 134 133 136 139 139 140 143 142 144 147 
148 150 152 151 154 157 157 159 162 159 161 164 158 160 163 154 156 159 149 152 155 145 148 150 
140 142 145 137 138 141 131 134 136 128 130 133 124 126 128 121 122 124 116 118 120 111 113 115 
109 111 113 105 107 109 102 103 105 98 99 101 95 96 98 91 92 94 89 90 92 85 87 88 
83 84 85 79 80 82 77 78 79 74 75 76 71 72 73 68 69 70 66 67 68 64 65 66 
62 63 64 59 60 61 58 58 60 55 56 57 52 53 54 50 51 52 48 49 50 47 47 48 
45 46 46 43 43 44 41 42 42 39 41 41 38 38 39 36 36 37 36 36 36 33 34 35 
31 31 32 31 31 32 29 29 30 28 28 29 26 27 27 25 26 26 24 24 25 23 23 24 
21 21 21 21 21 21 20 21 21 19 19 19 18 18 18 17 17 18 16 16 17 16 16 16 
15 16 15 15 15 15 14 14 15 14 14 14 13 13 13 12 12 12 11 11 11 11 11 11 
10 10 10 10 10 10 9 9 9 9 9 9 9 9 9 8 8 8 8 8 8 8 8 9 
7 7 7 8 8 8 14 14 14 27 27 27 30 30 30 31 31 31 31 31 31 30 30 30 
30 30 30 29 29 29 58 30 31 206 29 36 255 30 38 255 30 39 145 18 23 5 1 1 
0 0 0 0 0 0 0 0 0 0 0 0 0 0 0 0 0 0 0 0 0 0 0 0 
0 0 0 0 0 0 0 0 0 0 0 0 0 0 0 0 0 0 0 0 0 0 0 0 
0 0 0 0 0 0 0 0 0 0 0 0 0 0 0 0 0 0 0 0 0 0 0 0 
0 0 0 0 0 0 0 0 0 0 0 0 0 0 0 0 0 0 0 0 0 0 0 0 
0 0 0 0 0 0 
0 0 0 0 0 0 0 0 0 0 0 0 0 0 0 0 0 0 0 0 0 0 0 0 
0 0 0 0 0 0 0 0 0 0 0 0 0 0 0 0 0 0 0 0 0 0 0 0 
0 0 0 0 0 0 0 0 0 0 0 0 0 0 0 0 0 0 0 0 0 0 0 0 
0 0 0 0 0 0 0 0 0 0 0 0 0 0 0 0 0 0 0 0 0 0 0 0 
0 0 0 0 0 0 0 0 0 0 0 0 70 53 54 240 180 181 255 186 187 251 179 181 
158 124 125 84 83 84 85 85 86 87 87 88 89 90 90 91 92 92 93 94 94 96 97 97 
103 105 106 117 118 121 124 126 128 128 129 132 133 134 137 136 138 140 140 143 146 145 147 149 
151 152 155 154 156 159 158 161 164 162 164 167 157 159 162 151 153 156 149 150 153 143 145 147 
139 141 144 134 136 138 131 132 135 127 128 131 123 125 127 119 120 122 115 117 119 112 113 115 
108 109 111 103 105 107 102 103 105 97 99 100 95 96 98 92 93 94 88 89 91 85 86 88 
83 84 85 79 80 82 77 78 79 73 74 76 71 72 73 68 69 70 68 69 70 63 64 65 
61 62 63 59 60 61 57 58 60 54 55 56 52 52 53 51 52 52 47 48 49 46 46 47 
45 45 46 42 43 43 40 41 41 39 40 41 37 38 38 36 37 37 34 35 35 33 33 34 
31 32 32 31 31 32 29 29 29 28 29 29 26 26 27 25 26 26 25 25 25 23 23 24 
21 22 22 21 22 21 19 20 20 20 20 20 19 19 19 18 18 18 16 16 16 16 16 17 
16 17 17 15 15 15 14 14 14 14 14 14 13 13 13 12 12 12 12 12 12 12 12 12 
11 11 11 10 10 10 11 11 11 10 11 11 9 9 9 9 9 9 9 9 9 9 9 9 
10 10 10 23 23 23 31 31 31 31 31 31 31 31 31 31 31 31 30 30 30 31 31 31 
31 31 31 111 29 32 243 27 36 255 28 37 246 28 37 89 10 13 0 0 0 0 0 0 
0 0 0 0 0 0 0 0 0 0 0 0 0 0 0 0 0 0 0 0 0 0 0 0 
0 0 0 0 0 0 0 0 0 0 0 0 0 0 0 0 0 0 0 0 0 0 0 0 
0 0 0 0 0 0 0 0 0 0 0 0 0 0 0 0 0 0 0 0 0 0 0 0 
0 0 0 0 0 0 0 0 0 0 0 0 0 0 0 0 0 0 0 0 0 0 0 0 
0 0 0 0 0 0 
0 0 0 0 0 0 0 0 0 0 0 0 0 0 0 0 0 0 0 0 0 0 0 0 
0 0 0 0 0 0 0 0 0 0 0 0 0 0 0 0 0 0 0 0 0 0 0 0 
0 0 0 0 0 0 0 0 0 0 0 0 0 0 0 0 0 0 0 0 0 0 0 0 
0 0 0 0 0 0 0 0 0 0 0 0 0 0 0 0 0 0 0 0 0 0 0 0 
0 0 0 0 0 0 0 0 0 0 0 0 0 0 0 29 23 23 202 156 157 255 189 190 
255 186 187 209 157 157 102 95 96 87 87 88 89 90 90 91 92 92 94 94 95 96 97 97 
98 99 99 101 101 102 112 113 115 128 130 132 133 135 138 138 140 143 141 144 146 147 150 152 
150 153 156 156 159 162 159 161 164 158 160 163 154 156 159 148 150 153 145 148 150 140 142 145 
138 139 142 132 134 137 128 130 133 124 126 128 121 122 124 116 117 120 113 114 116 109 111 113 
106 108 110 102 103 105 99 100 102 95 96 98 92 93 95 88 89 91 86 87 88 82 83 85 
81 82 83 77 78 80 74 74 76 71 72 73 67 69 70 66 67 68 64 65 66 62 63 64 
59 60 61 57 58 59 54 55 56 53 54 55 50 50 51 48 49 50 46 46 47 44 45 45 
42 43 44 41 42 42 38 39 39 37 38 39 36 36 37 35 35 35 33 33 34 31 32 32 
30 30 31 29 29 29 27 28 28 26 26 27 25 26 26 24 24 24 22 22 23 21 21 22 
21 21 21 20 20 21 19 19 19 18 18 18 17 17 18 17 17 18 16 16 16 15 15 15 
14 14 14 13 13 14 13 13 13 12 12 12 12 12 12 11 11 11 11 11 11 10 10 10 
10 10 10 9 9 9 9 9 9 8 8 8 8 8 8 8 8 8 8 8 9 19 19 19 
29 29 29 31 31 31 31 31 31 30 30 30 31 31 31 30 30 30 30 30 30 43 30 30 
176 27 33 255 26 35 255 26 35 211 23 31 44 5 6 0 0 0 0 0 0 0 0 0 
0 0 0 0 0 0 0 0 0 0 0 0 0 0 0 0 0 0 0 0 0 0 0 0 
0 0 0 0 0 0 0 0 0 0 0 0 0 0 0 0 0 0 0 0 0 0 0 0 
0 0 0 0 0 0 0 0 0 0 0 0 0 0 0 0 0 0 0 0 0 0 0 0 
0 0 0 0 0 0 0 0 0 0 0 0 0 0 0 0 0 0 0 0 0 0 0 0 
0 0 0 0 0 0 
0 0 0 0 0 0 0 0 0 0 0 0 0 0 0 0 0 0 0 0 0 0 0 0 
0 0 0 0 0 0 0 0 0 0 0 0 0 0 0 0 0 0 0 0 0 0 0 0 
0 0 0 0 0 0 0 0 0 0 0 0 0 0 0 0 0 0 0 0 0 0 0 0 
0 0 0 0 0 0 0 0 0 0 0 0 0 0 0 0 0 0 0 0 0 0 0 0 
0 0 0 0 0 0 0 0 0 0 0 0 0 0 0 0 0 0 3 2 2 129 101 101 
252 192 193 255 191 192 244 179 180 152 124 125 91 91 91 93 93 93 94 95 95 97 97 98 
98 99 99 101 102 102 104 105 105 108 108 109 123 126 127 138 141 144 143 145 148 149 150 153 
152 154 157 158 160 163 160 163 165 156 158 161 152 155 157 147 149 152 142 145 147 138 140 143 
135 137 139 130 131 134 126 128 130 121 123 125 119 121 123 114 116 118 110 111 113 107 108 110 
103 105 107 100 101 103 95 97 98 94 95 96 90 91 93 86 87 89 83 84 86 81 82 83 
78 79 81 75 76 77 72 73 75 69 71 72 67 68 69 65 66 67 62 63 64 60 61 62 
57 58 59 56 57 58 52 53 54 52 53 54 49 50 51 46 47 48 45 45 46 43 44 45 
41 42 42 40 41 42 37 37 38 36 37 37 35 36 36 34 34 35 32 32 33 30 31 31 
28 28 29 28 28 28 26 27 27 25 25 26 24 24 25 23 23 23 23 23 23 20 21 21 
20 20 20 19 20 20 18 18 18 17 18 18 16 16 16 15 15 15 15 15 16 13 14 14 
14 14 14 13 13 13 12 12 12 11 11 11 11 11 11 10 11 11 10 10 11 9 9 9 
9 9 10 9 9 9 9 9 9 8 8 8 8 8 8 16 16 16 26 26 26 30 30 30 
31 31 31 30 30 30 29 29 29 30 30 30 30 30 30 29 29 29 98 28 31 231 25 33 
255 25 34 255 25 34 143 15 20 7 1 1 0 0 0 0 0 0 0 0 0 0 0 0 
0 0 0 0 0 0 0 0 0 0 0 0 0 0 0 0 0 0 0 0 0 0 0 0 
0 0 0 0 0 0 0 0 0 0 0 0 0 0 0 0 0 0 0 0 0 0 0 0 
0 0 0 0 0 0 0 0 0 0 0 0 0 0 0 0 0 0 0 0 0 0 0 0 
0 0 0 0 0 0 0 0 0 0 0 0 0 0 0 0 0 0 0 0 0 0 0 0 
0 0 0 0 0 0 
0 0 0 0 0 0 0 0 0 0 0 0 0 0 0 0 0 0 0 0 0 0 0 0 
0 0 0 0 0 0 0 0 0 0 0 0 0 0 0 0 0 0 0 0 0 0 0 0 
0 0 0 0 0 0 0 0 0 0 0 0 0 0 0 0 0 0 0 0 0 0 0 0 
0 0 0 0 0 0 0 0 0 0 0 0 0 0 0 0 0 0 0 0 0 0 0 0 
0 0 0 0 0 0 0 0 0 0 0 0 0 0 0 0 0 0 0 0 0 0 0 0 
54 43 43 225 178 178 255 194 195 255 191 192 213 163 164 116 107 107 97 97 98 99 99 100 
101 102 102 103 104 104 107 107 108 108 109 109 112 112 113 117 117 119 135 136 138 150 152 155 
155 158 161 160 163 166 159 161 164 155 157 160 149 151 154 147 149 151 141 143 146 137 139 142 
133 135 138 129 131 134 124 126 129 122 123 125 118 119 122 114 115 117 109 111 113 107 109 111 
102 104 106 100 101 103 96 97 99 94 95 97 89 90 92 87 88 89 84 85 86 81 83 84 
77 78 80 75 76 78 72 73 74 70 71 72 67 68 69 66 67 68 62 63 64 61 62 63 
58 59 60 56 57 58 53 54 55 51 51 53 49 50 51 48 48 49 45 46 46 43 43 44 
41 42 42 40 41 41 38 39 39 36 37 38 35 36 36 33 34 34 32 33 33 31 31 32 
30 30 30 28 28 29 27 27 28 25 26 26 25 26 26 24 24 25 23 23 24 21 21 21 
20 20 21 19 19 19 19 19 20 18 18 19 17 18 18 16 16 16 17 17 17 15 15 15 
15 15 16 14 14 14 13 13 14 13 13 13 12 12 12 13 13 13 12 12 12 10 11 11 
11 11 11 11 11 11 9 9 9 17 17 17 28 28 28 31 31 31 32 32 32 31 31 31 
32 32 32 32 32 32 32 32 32 31 31 31 52 30 31 179 27 33 255 25 34 255 25 34 
230 24 32 71 7 9 0 0 0 0 0 0 0 0 0 0 0 0 0 0 0 0 0 0 
0 0 0 0 0 0 0 0 0 0 0 0 0 0 0 0 0 0 0 0 0 0 0 0 
0 0 0 0 0 0 0 0 0 0 0 0 0 0 0 0 0 0 0 0 0 0 0 0 
0 0 0 0 0 0 0 0 0 0 0 0 0 0 0 0 0 0 0 0 0 0 0 0 
0 0 0 0 0 0 0 0 0 0 0 0 0 0 0 0 0 0 0 0 0 0 0 0 
0 0 0 0 0 0 
0 0 0 0 0 0 0 0 0 0 0 0 0 0 0 0 0 0 0 0 0 0 0 0 
0 0 0 0 0 0 0 0 0 0 0 0 0 0 0 0 0 0 0 0 0 0 0 0 
0 0 0 0 0 0 0 0 0 0 0 0 0 0 0 0 0 0 0 0 0 0 0 0 
0 0 0 0 0 0 0 0 0 0 0 0 0 0 0 0 0 0 0 0 0 0 0 0 
0 0 0 0 0 0 0 0 0 0 0 0 0 0 0 0 0 0 0 0 0 0 0 0 
0 0 0 8 7 7 143 115 115 252 197 198 255 196 197 249 188 189 173 141 142 105 103 104 
101 102 102 104 105 105 107 108 108 109 109 110 112 113 113 114 115 115 117 118 118 125 126 126 
143 145 147 159 161 164 157 159 162 154 156 159 148 149 152 144 146 149 139 141 144 136 138 140 
131 133 136 127 129 132 123 125 127 119 121 123 114 116 118 112 114 116 108 109 111 105 106 108 
102 103 105 99 100 102 95 96 97 92 93 95 88 89 91 85 87 88 82 84 85 80 81 83 
77 78 79 73 74 76 71 72 73 68 69 70 66 67 68 63 64 65 62 63 64 59 60 61 
56 57 58 53 54 56 52 53 54 50 51 51 48 49 50 46 46 47 44 45 46 42 43 43 
41 41 42 39 39 40 37 38 38 36 37 37 35 35 36 33 33 34 32 32 33 30 30 31 
29 29 30 27 28 28 26 27 27 25 25 26 24 24 25 22 23 23 22 22 22 21 21 21 
20 20 20 19 19 19 19 19 19 18 18 18 15 15 15 15 15 16 15 16 16 15 15 15 
13 13 13 13 13 13 12 12 12 13 13 14 11 11 11 10 10 11 10 10 10 10 10 10 
10 10 10 18 18 18 28 28 28 32 32 32 31 31 31 31 31 31 31 31 31 31 31 31 
32 32 32 30 30 30 35 31 31 124 30 33 240 25 34 255 25 34 255 25 34 154 16 21 
16 2 2 0 0 0 0 0 0 0 0 0 0 0 0 0 0 0 0 0 0 0 0 0 
0 0 0 0 0 0 0 0 0 0 0 0 0 0 0 0 0 0 0 0 0 0 0 0 
0 0 0 0 0 0 0 0 0 0 0 0 0 0 0 0 0 0 0 0 0 0 0 0 
0 0 0 0 0 0 0 0 0 0 0 0 0 0 0 0 0 0 0 0 0 0 0 0 
0 0 0 0 0 0 0 0 0 0 0 0 0 0 0 0 0 0 0 0 0 0 0 0 
0 0 0 0 0 0 
0 0 0 0 0 0 0 0 0 0 0 0 0 0 0 0 0 0 0 0 0 0 0 0 
0 0 0 0 0 0 0 0 0 0 0 0 0 0 0 0 0 0 0 0 0 0 0 0 
0 0 0 0 0 0 0 0 0 0 0 0 0 0 0 0 0 0 0 0 0 0 0 0 
0 0 0 0 0 0 0 0 0 0 0 0 0 0 0 0 0 0 0 0 0 0 0 0 
0 0 0 0 0 0 0 0 0 0 0 0 0 0 0 0 0 0 0 0 0 0 0 0 
0 0 0 0 0 0 0 0 0 47 38 38 214 173 174 255 199 200 255 196 197 235 181 182 
153 131 132 106 107 107 109 109 110 111 111 112 113 114 114 116 117 117 119 119 120 122 123 123 
124 124 125 127 129 129 140 142 143 148 150 153 146 148 150 142 144 146 137 139 142 133 135 138 
129 131 133 125 127 130 120 121 124 117 119 121 114 115 117 109 111 113 106 108 110 102 103 105 
99 100 102 96 97 99 93 94 96 89 90 92 87 88 89 83 84 85 81 82 83 77 79 80 
76 77 78 71 72 73 70 71 72 66 67 68 64 65 66 62 63 64 61 62 63 58 59 60 
55 56 57 53 54 55 51 51 52 49 50 51 48 48 49 45 46 46 43 44 44 41 42 42 
40 40 41 38 38 39 36 37 37 35 35 35 33 34 34 32 33 33 31 31 32 29 29 29 
27 27 28 26 26 27 25 26 26 24 25 25 23 23 24 22 22 23 21 21 21 20 20 21 
19 19 19 18 18 19 18 18 19 17 17 17 16 16 16 15 15 15 14 14 14 14 14 14 
13 13 13 12 12 13 13 13 13 11 11 11 12 12 12 10 10 10 12 12 12 20 20 20 
30 30 30 32 32 32 31 32 32 32 32 32 31 31 31 31 31 31 30 30 30 30 30 30 
31 31 31 89 30 32 216 27 34 255 26 35 255 26 35 219 23 31 63 6 8 0 0 0 
0 0 0 0 0 0 0 0 0 0 0 0 0 0 0 0 0 0 0 0 0 0 0 0 
0 0 0 0 0 0 0 0 0 0 0 0 0 0 0 0 0 0 0 0 0 0 0 0 
0 0 0 0 0 0 0 0 0 0 0 0 0 0 0 0 0 0 0 0 0 0 0 0 
0 0 0 0 0 0 0 0 0 0 0 0 0 0 0 0 0 0 0 0 0 0 0 0 
0 0 0 0 0 0 0 0 0 0 0 0 0 0 0 0 0 0 0 0 0 0 0 0 
0 0 0 0 0 0 
0 0 0 0 0 0 0 0 0 0 0 0 0 0 0 0 0 0 0 0 0 0 0 0 
0 0 0 0 0 0 0 0 0 0 0 0 0 0 0 0 0 0 0 0 0 0 0 0 
0 0 0 0 0 0 0 0 0 0 0 0 0 0 0 0 0 0 0 0 0 0 0 0 
0 0 0 0 0 0 0 0 0 0 0 0 0 0 0 0 0 0 0 0 0 0 0 0 
0 0 0 0 0 0 0 0 0 0 0 0 0 0 0 0 0 0 0 0 0 0 0 0 
0 0 0 0 0 0 0 0 0 0 0 0 3 3 3 110 91 92 242 195 196 255 201 202 
255 196 197 219 172 173 140 127 127 111 111 112 113 114 114 116 117 117 118 119 120 121 122 123 
123 124 124 125 125 126 123 124 124 121 121 122 126 127 128 132 133 136 134 136 138 130 131 134 
126 128 130 121 123 125 118 120 122 113 115 117 110 112 114 107 108 110 104 105 107 100 101 103 
97 98 100 93 95 96 90 92 94 87 88 90 84 86 88 81 82 83 78 79 81 75 76 77 
73 73 75 69 70 71 67 68 69 65 66 67 62 64 65 60 61 62 58 59 60 55 56 57 
53 54 55 51 51 52 49 50 50 46 47 48 44 44 45 43 44 45 42 43 43 41 41 42 
38 38 39 36 37 37 34 35 35 33 34 34 31 32 33 31 32 32 28 29 29 28 28 29 
26 27 27 24 25 25 24 24 25 23 23 24 22 22 22 21 21 21 20 20 20 19 19 19 
18 18 18 17 18 18 17 17 17 16 16 17 14 14 15 14 14 14 13 13 13 12 12 13 
12 12 12 12 12 12 11 11 11 11 11 11 14 14 14 23 23 23 31 31 31 32 32 32 
31 31 31 31 31 31 31 31 31 30 30 30 30 30 30 30 30 30 29 29 29 67 30 31 
185 28 34 255 27 36 255 27 35 246 26 35 123 13 17 8 1 1 0 0 0 0 0 0 
0 0 0 0 0 0 0 0 0 0 0 0 0 0 0 0 0 0 0 0 0 0 0 0 
0 0 0 0 0 0 0 0 0 0 0 0 0 0 0 0 0 0 0 0 0 0 0 0 
0 0 0 0 0 0 0 0 0 0 0 0 0 0 0 0 0 0 0 0 0 0 0 0 
0 0 0 0 0 0 0 0 0 0 0 0 0 0 0 0 0 0 0 0 0 0 0 0 
0 0 0 0 0 0 0 0 0 0 0 0 0 0 0 0 0 0 0 0 0 0 0 0 
0 0 0 0 0 0 
0 0 0 0 0 0 0 0 0 0 0 0 0 0 0 0 0 0 0 0 0 0 0 0 
0 0 0 0 0 0 0 0 0 0 0 0 0 0 0 0 0 0 0 0 0 0 0 0 
0 0 0 0 0 0 0 0 0 0 0 0 0 0 0 0 0 0 0 0 0 0 0 0 
0 0 0 0 0 0 0 0 0 0 0 0 0 0 0 0 0 0 0 0 0 0 0 0 
0 0 0 0 0 0 0 0 0 0 0 0 0 0 0 0 0 0 0 0 0 0 0 0 
0 0 0 0 0 0 0 0 0 0 0 0 0 0 0 0 0 0 17 14 14 153 128 128 
253 204 205 255 201 202 255 198 198 213 170 171 144 132 132 120 120 121 123 123 124 124 125 125 
126 127 127 126 127 128 124 124 125 121 122 122 118 118 119 115 116 116 115 116 117 121 123 124 
124 125 128 122 123 125 119 120 122 114 116 118 112 113 115 107 109 111 104 106 108 101 102 104 
98 100 101 94 95 97 91 92 93 88 89 90 85 86 88 83 84 85 79 80 82 77 78 79 
73 74 75 70 72 73 67 69 70 66 67 68 63 64 65 61 62 63 58 59 60 56 57 58 
53 54 55 52 52 53 49 50 51 48 49 50 46 47 47 45 46 46 43 44 44 41 41 42 
39 39 40 38 39 39 37 37 37 34 35 35 32 33 33 32 32 33 30 30 30 29 30 30 
27 28 28 26 27 27 26 26 26 25 25 25 24 24 25 22 23 23 22 22 23 20 21 21 
19 19 20 18 18 19 18 19 19 18 18 18 16 16 16 15 15 15 15 15 15 15 15 15 
14 14 15 16 16 16 22 22 22 31 31 31 34 34 34 34 34 34 33 33 33 33 33 33 
33 33 33 33 33 33 33 33 33 33 33 33 32 32 32 63 32 33 175 30 36 254 28 37 
255 28 37 255 28 36 164 18 24 27 3 4 0 0 0 0 0 0 0 0 0 0 0 0 
0 0 0 0 0 0 0 0 0 0 0 0 0 0 0 0 0 0 0 0 0 0 0 0 
0 0 0 0 0 0 0 0 0 0 0 0 0 0 0 0 0 0 0 0 0 0 0 0 
0 0 0 0 0 0 0 0 0 0 0 0 0 0 0 0 0 0 0 0 0 0 0 0 
0 0 0 0 0 0 0 0 0 0 0 0 0 0 0 0 0 0 0 0 0 0 0 0 
0 0 0 0 0 0 0 0 0 0 0 0 0 0 0 0 0 0 0 0 0 0 0 0 
0 0 0 0 0 0 
0 0 0 0 0 0 0 0 0 0 0 0 0 0 0 0 0 0 0 0 0 0 0 0 
0 0 0 0 0 0 0 0 0 0 0 0 0 0 0 0 0 0 0 0 0 0 0 0 
0 0 0 0 0 0 0 0 0 0 0 0 0 0 0 0 0 0 0 0 0 0 0 0 
0 0 0 0 0 0 0 0 0 0 0 0 0 0 0 0 0 0 0 0 0 0 0 0 
0 0 0 0 0 0 0 0 0 0 0 0 0 0 0 0 0 0 0 0 0 0 0 0 
0 0 0 0 0 0 0 0 0 0 0 0 0 0 0 0 0 0 0 0 0 0 0 0 
40 34 34 185 154 154 255 206 207 255 203 203 255 198 198 213 171 172 150 138 139 124 124 125 
125 126 126 125 125 126 122 122 123 118 119 119 115 115 116 112 113 113 110 110 111 108 108 109 
105 106 106 106 106 107 109 110 112 110 112 114 108 109 111 105 106 108 101 102 104 99 100 102 
95 96 97 92 93 95 87 88 90 84 86 87 82 83 84 80 81 83 76 77 79 75 75 77 
71 72 73 69 70 71 66 67 68 64 65 66 61 62 63 58 59 60 56 57 58 54 55 56 
52 52 53 50 50 51 47 48 49 47 47 48 43 45 45 43 43 44 41 42 42 39 40 40 
37 38 38 36 37 38 35 35 36 33 33 34 32 32 33 30 30 31 29 29 30 27 28 28 
26 27 27 25 25 26 23 24 24 23 23 23 22 22 22 22 22 22 20 20 20 19 19 19 
19 19 19 17 17 17 17 17 18 15 15 16 16 16 16 14 14 14 15 15 16 21 21 22 
29 29 29 34 34 34 33 33 33 33 33 33 33 33 33 33 33 33 32 32 32 32 32 32 
32 32 32 32 32 32 31 31 31 66 31 32 172 30 36 252 30 39 255 30 38 255 29 38 
194 23 30 53 6 8 0 0 0 0 0 0 0 0 0 0 0 0 0 0 0 0 0 0 
0 0 0 0 0 0 0 0 0 0 0 0 0 0 0 0 0 0 0 0 0 0 0 0 
0 0 0 0 0 0 0 0 0 0 0 0 0 0 0 0 0 0 0 0 0 0 0 0 
0 0 0 0 0 0 0 0 0 0 0 0 0 0 0 0 0 0 0 0 0 0 0 0 
0 0 0 0 0 0 0 0 0 0 0 0 0 0 0 0 0 0 0 0 0 0 0 0 
0 0 0 0 0 0 0 0 0 0 0 0 0 0 0 0 0 0 0 0 0 0 0 0 
0 0 0 0 0 0 
0 0 0 0 0 0 0 0 0 0 0 0 0 0 0 0 0 0 0 0 0 0 0 0 
0 0 0 0 0 0 0 0 0 0 0 0 0 0 0 0 0 0 0 0 0 0 0 0 
0 0 0 0 0 0 0 0 0 0 0 0 0 0 0 0 0 0 0 0 0 0 0 0 
0 0 0 0 0 0 0 0 0 0 0 0 0 0 0 0 0 0 0 0 0 0 0 0 
0 0 0 0 0 0 0 0 0 0 0 0 0 0 0 0 0 0 0 0 0 0 0 0 
0 0 0 0 0 0 0 0 0 0 0 0 0 0 0 0 0 0 0 0 0 0 0 0 
0 0 0 0 0 0 49 41 41 190 159 159 255 206 207 255 203 203 255 199 200 224 178 178 
165 147 147 126 125 126 122 122 123 118 119 119 115 116 116 112 113 113 110 111 111 108 108 108 
105 106 106 103 103 104 101 102 102 99 99 99 98 98 100 99 100 102 98 99 100 97 99 100 
94 95 97 92 93 94 88 89 91 86 87 89 82 83 85 80 81 83 77 78 79 75 76 78 
71 72 74 69 70 71 66 67 68 64 65 66 61 62 63 59 60 62 57 58 59 56 56 58 
53 53 54 50 51 52 48 48 49 46 47 48 45 45 46 42 43 43 41 42 42 39 40 41 
38 39 39 36 36 36 35 36 36 33 34 34 32 33 33 31 31 31 30 31 31 29 29 30 
28 28 29 26 26 26 25 25 25 23 23 24 23 24 24 22 22 23 21 22 22 20 20 21 
19 19 19 19 19 19 19 19 19 21 21 21 27 27 27 31 31 31 37 37 37 35 35 35 
36 36 36 36 36 36 35 35 35 35 35 35 35 35 35 34 34 34 34 34 34 34 34 34 
34 34 34 88 33 35 189 33 39 254 32 41 255 32 40 255 31 40 197 25 31 64 8 10 
0 0 0 0 0 0 0 0 0 0 0 0 0 0 0 0 0 0 0 0 0 0 0 0 
0 0 0 0 0 0 0 0 0 0 0 0 0 0 0 0 0 0 0 0 0 0 0 0 
0 0 0 0 0 0 0 0 0 0 0 0 0 0 0 0 0 0 0 0 0 0 0 0 
0 0 0 0 0 0 0 0 0 0 0 0 0 0 0 0 0 0 0 0 0 0 0 0 
0 0 0 0 0 0 0 0 0 0 0 0 0 0 0 0 0 0 0 0 0 0 0 0 
0 0 0 0 0 0 0 0 0 0 0 0 0 0 0 0 0 0 0 0 0 0 0 0 
0 0 0 0 0 0 
0 0 0 0 0 0 0 0 0 0 0 0 0 0 0 0 0 0 0 0 0 0 0 0 
0 0 0 0 0 0 0 0 0 0 0 0 0 0 0 0 0 0 0 0 0 0 0 0 
0 0 0 0 0 0 0 0 0 0 0 0 0 0 0 0 0 0 0 0 0 0 0 0 
0 0 0 0 0 0 0 0 0 0 0 0 0 0 0 0 0 0 0 0 0 0 0 0 
0 0 0 0 0 0 0 0 0 0 0 0 0 0 0 0 0 0 0 0 0 0 0 0 
0 0 0 0 0 0 0 0 0 0 0 0 0 0 0 0 0 0 0 0 0 0 0 0 
0 0 0 0 0 0 0 0 0 0 0 0 56 47 47 188 158 158 255 208 208 255 203 203 
255 199 200 235 185 186 179 151 152 127 122 123 114 114 115 111 111 112 109 109 110 107 107 107 
104 104 105 102 102 103 99 100 100 97 98 98 93 94 94 93 93 94 89 90 90 89 90 90 
88 89 89 88 88 89 86 87 88 84 85 86 80 81 83 78 79 80 75 76 78 72 73 75 
69 70 71 67 68 69 65 66 67 63 64 65 60 61 62 58 59 60 56 57 58 54 54 55 
52 52 53 49 50 51 48 48 49 45 46 47 44 45 46 42 42 43 40 41 41 39 40 40 
37 37 38 36 36 37 35 35 36 33 33 34 32 32 33 31 31 32 28 28 29 27 28 28 
27 28 28 25 25 26 24 25 25 22 23 23 23 23 23 21 21 21 21 21 21 23 23 23 
27 27 27 32 32 32 36 36 36 37 37 37 37 37 37 37 37 37 36 36 36 36 36 36 
35 35 35 34 34 34 34 34 34 35 35 35 34 34 34 33 33 33 43 33 34 119 35 38 
211 35 43 255 35 44 255 34 43 255 34 42 193 27 33 72 9 12 0 0 0 0 0 0 
0 0 0 0 0 0 0 0 0 0 0 0 0 0 0 0 0 0 0 0 0 0 0 0 
0 0 0 0 0 0 0 0 0 0 0 0 0 0 0 0 0 0 0 0 0 0 0 0 
0 0 0 0 0 0 0 0 0 0 0 0 0 0 0 0 0 0 0 0 0 0 0 0 
0 0 0 0 0 0 0 0 0 0 0 0 0 0 0 0 0 0 0 0 0 0 0 0 
0 0 0 0 0 0 0 0 0 0 0 0 0 0 0 0 0 0 0 0 0 0 0 0 
0 0 0 0 0 0 0 0 0 0 0 0 0 0 0 0 0 0 0 0 0 0 0 0 
0 0 0 0 0 0 
0 0 0 0 0 0 0 0 0 0 0 0 0 0 0 0 0 0 0 0 0 0 0 0 
0 0 0 0 0 0 0 0 0 0 0 0 0 0 0 0 0 0 0 0 0 0 0 0 
0 0 0 0 0 0 0 0 0 0 0 0 0 0 0 0 0 0 0 0 0 0 0 0 
0 0 0 0 0 0 0 0 0 0 0 0 0 0 0 0 0 0 0 0 0 0 0 0 
0 0 0 0 0 0 0 0 0 0 0 0 0 0 0 0 0 0 0 0 0 0 0 0 
0 0 0 0 0 0 0 0 0 0 0 0 0 0 0 0 0 0 0 0 0 0 0 0 
0 0 0 0 0 0 0 0 0 0 0 0 0 0 0 0 0 0 39 33 33 160 134 135 
250 204 204 255 204 205 255 199 200 251 194 195 204 164 165 145 129 129 107 106 107 104 104 104 
100 101 101 99 99 100 96 96 97 94 94 94 91 91 92 90 90 91 87 88 88 85 85 85 
83 84 84 80 80 81 79 80 80 76 77 77 76 77 77 74 75 76 72 73 74 69 70 71 
67 68 69 64 66 67 62 63 64 59 61 62 57 58 59 54 55 56 52 53 54 52 52 53 
49 50 50 47 47 48 45 45 46 43 43 44 41 42 42 40 40 41 39 39 40 36 37 37 
35 36 36 33 34 34 32 32 33 30 31 31 29 29 29 27 27 27 26 27 27 26 26 27 
24 24 25 25 25 25 26 26 27 29 29 29 31 31 31 34 34 34 37 37 37 36 36 36 
36 36 36 36 36 36 36 36 36 34 34 34 35 35 35 34 34 34 33 33 33 34 34 34 
33 33 33 32 33 33 32 32 32 33 33 33 77 34 36 167 37 42 244 39 47 255 39 47 
255 38 46 252 37 45 167 25 30 51 7 9 0 0 0 0 0 0 0 0 0 0 0 0 
0 0 0 0 0 0 0 0 0 0 0 0 0 0 0 0 0 0 0 0 0 0 0 0 
0 0 0 0 0 0 0 0 0 0 0 0 0 0 0 0 0 0 0 0 0 0 0 0 
0 0 0 0 0 0 0 0 0 0 0 0 0 0 0 0 0 0 0 0 0 0 0 0 
0 0 0 0 0 0 0 0 0 0 0 0 0 0 0 0 0 0 0 0 0 0 0 0 
0 0 0 0 0 0 0 0 0 0 0 0 0 0 0 0 0 0 0 0 0 0 0 0 
0 0 0 0 0 0 0 0 0 0 0 0 0 0 0 0 0 0 0 0 0 0 0 0 
0 0 0 0 0 0 
0 0 0 0 0 0 0 0 0 0 0 0 0 0 0 0 0 0 0 0 0 0 0 0 
0 0 0 0 0 0 0 0 0 0 0 0 0 0 0 0 0 0 0 0 0 0 0 0 
0 0 0 0 0 0 0 0 0 0 0 0 0 0 0 0 0 0 0 0 0 0 0 0 
0 0 0 0 0 0 0 0 0 0 0 0 0 0 0 0 0 0 0 0 0 0 0 0 
0 0 0 0 0 0 0 0 0 0 0 0 0 0 0 0 0 0 0 0 0 0 0 0 
0 0 0 0 0 0 0 0 0 0 0 0 0 0 0 0 0 0 0 0 0 0 0 0 
0 0 0 0 0 0 0 0 0 0 0 0 0 0 0 0 0 0 0 0 0 0 0 0 
21 18 18 123 103 103 230 189 189 255 204 205 255 201 202 255 196 197 238 183 184 187 151 152 
132 118 119 99 99 100 96 96 97 93 93 94 92 92 92 89 89 90 87 88 88 84 85 85 
84 84 84 81 82 82 80 80 80 77 77 78 75 76 76 74 74 75 73 73 74 71 71 71 
68 68 69 68 68 68 65 65 66 64 64 65 60 60 62 58 59 59 56 57 58 54 54 55 
51 52 52 50 50 50 47 48 49 45 45 46 44 44 45 41 43 43 40 41 41 39 40 40 
38 39 39 38 38 39 38 39 39 38 38 38 38 38 38 39 39 39 38 39 39 41 41 41 
42 42 42 41 41 41 41 41 41 40 40 40 39 39 39 39 39 39 38 38 38 38 38 38 
36 36 36 37 37 37 36 37 36 36 36 36 36 36 36 35 35 35 34 35 35 35 35 35 
33 33 33 71 36 38 147 40 44 221 43 50 255 44 52 255 43 51 255 41 50 231 38 45 
132 21 25 30 5 6 0 0 0 0 0 0 0 0 0 0 0 0 0 0 0 0 0 0 
0 0 0 0 0 0 0 0 0 0 0 0 0 0 0 0 0 0 0 0 0 0 0 0 
0 0 0 0 0 0 0 0 0 0 0 0 0 0 0 0 0 0 0 0 0 0 0 0 
0 0 0 0 0 0 0 0 0 0 0 0 0 0 0 0 0 0 0 0 0 0 0 0 
0 0 0 0 0 0 0 0 0 0 0 0 0 0 0 0 0 0 0 0 0 0 0 0 
0 0 0 0 0 0 0 0 0 0 0 0 0 0 0 0 0 0 0 0 0 0 0 0 
0 0 0 0 0 0 0 0 0 0 0 0 0 0 0 0 0 0 0 0 0 0 0 0 
0 0 0 0 0 0 
0 0 0 0 0 0 0 0 0 0 0 0 0 0 0 0 0 0 0 0 0 0 0 0 
0 0 0 0 0 0 0 0 0 0 0 0 0 0 0 0 0 0 0 0 0 0 0 0 
0 0 0 0 0 0 0 0 0 0 0 0 0 0 0 0 0 0 0 0 0 0 0 0 
0 0 0 0 0 0 0 0 0 0 0 0 0 0 0 0 0 0 0 0 0 0 0 0 
0 0 0 0 0 0 0 0 0 0 0 0 0 0 0 0 0 0 0 0 0 0 0 0 
0 0 0 0 0 0 0 0 0 0 0 0 0 0 0 0 0 0 0 0 0 0 0 0 
0 0 0 0 0 0 0 0 0 0 0 0 0 0 0 0 0 0 0 0 0 0 0 0 
0 0 0 0 0 0 1 1 1 67 56 56 176 147 147 251 201 202 255 201 202 255 198 198 
255 193 194 234 177 178 183 146 146 136 116 118 96 94 94 89 89 90 87 88 88 85 85 86 
83 83 83 81 81 82 79 79 80 77 77 77 76 76 76 73 74 74 71 71 72 69 70 70 
68 68 68 67 67 67 66 66 66 64 64 65 62 62 62 61 61 62 60 60 61 57 58 58 
57 57 58 56 56 56 55 55 55 54 54 54 53 53 53 52 52 52 51 51 51 50 50 50 
49 49 49 47 47 48 46 46 46 45 45 45 44 44 44 44 44 44 43 43 43 42 43 43 
41 42 42 41 41 41 40 40 40 39 39 39 39 39 39 39 39 39 38 38 38 38 38 38 
37 37 37 37 37 37 36 36 36 36 36 36 36 36 36 38 35 35 88 40 42 149 44 48 
217 48 55 255 50 58 255 49 57 255 47 55 253 46 54 180 33 38 78 13 16 4 1 1 
0 0 0 0 0 0 0 0 0 0 0 0 0 0 0 0 0 0 0 0 0 0 0 0 
0 0 0 0 0 0 0 0 0 0 0 0 0 0 0 0 0 0 0 0 0 0 0 0 
0 0 0 0 0 0 0 0 0 0 0 0 0 0 0 0 0 0 0 0 0 0 0 0 
0 0 0 0 0 0 0 0 0 0 0 0 0 0 0 0 0 0 0 0 0 0 0 0 
0 0 0 0 0 0 0 0 0 0 0 0 0 0 0 0 0 0 0 0 0 0 0 0 
0 0 0 0 0 0 0 0 0 0 0 0 0 0 0 0 0 0 0 0 0 0 0 0 
0 0 0 0 0 0 0 0 0 0 0 0 0 0 0 0 0 0 0 0 0 0 0 0 
0 0 0 0 0 0 
0 0 0 0 0 0 0 0 0 0 0 0 0 0 0 0 0 0 0 0 0 0 0 0 
0 0 0 0 0 0 0 0 0 0 0 0 0 0 0 0 0 0 0 0 0 0 0 0 
0 0 0 0 0 0 0 0 0 0 0 0 0 0 0 0 0 0 0 0 0 0 0 0 
0 0 0 0 0 0 0 0 0 0 0 0 0 0 0 0 0 0 0 0 0 0 0 0 
0 0 0 0 0 0 0 0 0 0 0 0 0 0 0 0 0 0 0 0 0 0 0 0 
0 0 0 0 0 0 0 0 0 0 0 0 0 0 0 0 0 0 0 0 0 0 0 0 
0 0 0 0 0 0 0 0 0 0 0 0 0 0 0 0 0 0 0 0 0 0 0 0 
0 0 0 0 0 0 0 0 0 0 0 0 0 0 0 15 13 13 93 77 77 190 156 157 
252 199 200 255 198 198 255 194 195 255 189 190 248 182 183 204 154 154 156 124 125 114 99 100 
82 81 81 78 78 78 76 76 77 75 75 75 73 73 74 71 71 72 69 69 70 68 69 69 
67 67 67 64 65 65 63 63 63 60 61 61 60 60 61 58 59 59 58 58 58 56 56 56 
55 55 55 53 54 54 52 52 52 51 51 51 50 50 50 49 49 49 48 49 49 47 47 47 
46 46 46 46 46 46 45 45 45 44 44 44 42 42 42 42 42 42 42 42 42 41 41 41 
39 39 39 39 40 39 38 38 38 38 38 38 37 37 37 37 37 37 36 36 36 35 36 36 
35 35 35 35 34 34 69 39 40 121 45 48 180 51 56 241 56 63 255 57 64 255 56 63 
255 54 61 254 53 60 191 40 46 104 20 24 22 4 5 0 0 0 0 0 0 0 0 0 
0 0 0 0 0 0 0 0 0 0 0 0 0 0 0 0 0 0 0 0 0 0 0 0 
0 0 0 0 0 0 0 0 0 0 0 0 0 0 0 0 0 0 0 0 0 0 0 0 
0 0 0 0 0 0 0 0 0 0 0 0 0 0 0 0 0 0 0 0 0 0 0 0 
0 0 0 0 0 0 0 0 0 0 0 0 0 0 0 0 0 0 0 0 0 0 0 0 
0 0 0 0 0 0 0 0 0 0 0 0 0 0 0 0 0 0 0 0 0 0 0 0 
0 0 0 0 0 0 0 0 0 0 0 0 0 0 0 0 0 0 0 0 0 0 0 0 
0 0 0 0 0 0 0 0 0 0 0 0 0 0 0 0 0 0 0 0 0 0 0 0 
0 0 0 0 0 0 
0 0 0 0 0 0 0 0 0 0 0 0 0 0 0 0 0 0 0 0 0 0 0 0 
0 0 0 0 0 0 0 0 0 0 0 0 0 0 0 0 0 0 0 0 0 0 0 0 
0 0 0 0 0 0 0 0 0 0 0 0 0 0 0 0 0 0 0 0 0 0 0 0 
0 0 0 0 0 0 0 0 0 0 0 0 0 0 0 0 0 0 0 0 0 0 0 0 
0 0 0 0 0 0 0 0 0 0 0 0 0 0 0 0 0 0 0 0 0 0 0 0 
0 0 0 0 0 0 0 0 0 0 0 0 0 0 0 0 0 0 0 0 0 0 0 0 
0 0 0 0 0 0 0 0 0 0 0 0 0 0 0 0 0 0 0 0 0 0 0 0 
0 0 0 0 0 0 0 0 0 0 0 0 0 0 0 0 0 0 0 0 0 0 0 0 
18 15 15 97 78 79 179 145 145 244 190 190 255 194 195 255 191 192 255 186 187 255 183 184 
246 175 176 207 149 151 165 124 125 129 103 104 94 84 85 72 72 73 70 70 71 68 68 68 
66 66 67 65 66 66 64 64 65 62 62 62 61 61 61 59 59 59 58 59 59 57 57 57 
56 57 57 55 55 55 53 54 54 53 53 53 52 52 52 50 50 50 49 50 50 48 48 48 
48 48 48 46 46 46 45 46 46 45 46 46 44 44 44 44 44 44 42 42 42 42 42 42 
41 41 41 40 40 40 40 40 40 39 39 39 39 39 39 58 42 42 97 47 49 139 53 56 
189 60 65 239 67 72 255 66 73 255 65 72 255 63 71 255 61 69 247 58 65 182 44 49 
107 24 27 26 6 6 0 0 0 0 0 0 0 0 0 0 0 0 0 0 0 0 0 0 
0 0 0 0 0 0 0 0 0 0 0 0 0 0 0 0 0 0 0 0 0 0 0 0 
0 0 0 0 0 0 0 0 0 0 0 0 0 0 0 0 0 0 0 0 0 0 0 0 
0 0 0 0 0 0 0 0 0 0 0 0 0 0 0 0 0 0 0 0 0 0 0 0 
0 0 0 0 0 0 0 0 0 0 0 0 0 0 0 0 0 0 0 0 0 0 0 0 
0 0 0 0 0 0 0 0 0 0 0 0 0 0 0 0 0 0 0 0 0 0 0 0 
0 0 0 0 0 0 0 0 0 0 0 0 0 0 0 0 0 0 0 0 0 0 0 0 
0 0 0 0 0 0 0 0 0 0 0 0 0 0 0 0 0 0 0 0 0 0 0 0 
0 0 0 0 0 0 
0 0 0 0 0 0 0 0 0 0 0 0 0 0 0 0 0 0 0 0 0 0 0 0 
0 0 0 0 0 0 0 0 0 0 0 0 0 0 0 0 0 0 0 0 0 0 0 0 
0 0 0 0 0 0 0 0 0 0 0 0 0 0 0 0 0 0 0 0 0 0 0 0 
0 0 0 0 0 0 0 0 0 0 0 0 0 0 0 0 0 0 0 0 0 0 0 0 
0 0 0 0 0 0 0 0 0 0 0 0 0 0 0 0 0 0 0 0 0 0 0 0 
0 0 0 0 0 0 0 0 0 0 0 0 0 0 0 0 0 0 0 0 0 0 0 0 
0 0 0 0 0 0 0 0 0 0 0 0 0 0 0 0 0 0 0 0 0 0 0 0 
0 0 0 0 0 0 0 0 0 0 0 0 0 0 0 0 0 0 0 0 0 0 0 0 
0 0 0 0 0 0 0 0 0 4 3 3 61 49 49 134 105 106 206 159 160 250 188 189 
255 188 189 255 183 184 255 180 181 255 176 178 255 172 174 244 163 165 211 143 145 179 123 125 
153 109 110 128 95 96 103 82 82 76 67 68 59 60 60 58 58 58 57 57 57 56 57 57 
54 54 54 53 53 53 52 52 52 50 51 51 50 50 50 49 49 49 48 48 48 48 48 48 
46 47 47 46 46 46 45 45 45 43 44 44 42 42 42 42 42 42 57 46 46 82 50 52 
110 57 59 136 61 64 164 66 70 199 72 77 237 78 84 255 80 86 255 78 85 255 76 82 
255 74 81 255 72 79 252 70 77 207 57 62 142 38 42 68 17 19 8 2 2 0 0 0 
0 0 0 0 0 0 0 0 0 0 0 0 0 0 0 0 0 0 0 0 0 0 0 0 
0 0 0 0 0 0 0 0 0 0 0 0 0 0 0 0 0 0 0 0 0 0 0 0 
0 0 0 0 0 0 0 0 0 0 0 0 0 0 0 0 0 0 0 0 0 0 0 0 
0 0 0 0 0 0 0 0 0 0 0 0 0 0 0 0 0 0 0 0 0 0 0 0 
0 0 0 0 0 0 0 0 0 0 0 0 0 0 0 0 0 0 0 0 0 0 0 0 
0 0 0 0 0 0 0 0 0 0 0 0 0 0 0 0 0 0 0 0 0 0 0 0 
0 0 0 0 0 0 0 0 0 0 0 0 0 0 0 0 0 0 0 0 0 0 0 0 
0 0 0 0 0 0 0 0 0 0 0 0 0 0 0 0 0 0 0 0 0 0 0 0 
0 0 0 0 0 0 
0 0 0 0 0 0 0 0 0 0 0 0 0 0 0 0 0 0 0 0 0 0 0 0 
0 0 0 0 0 0 0 0 0 0 0 0 0 0 0 0 0 0 0 0 0 0 0 0 
0 0 0 0 0 0 0 0 0 0 0 0 0 0 0 0 0 0 0 0 0 0 0 0 
0 0 0 0 0 0 0 0 0 0 0 0 0 0 0 0 0 0 0 0 0 0 0 0 
0 0 0 0 0 0 0 0 0 0 0 0 0 0 0 0 0 0 0 0 0 0 0 0 
0 0 0 0 0 0 0 0 0 0 0 0 0 0 0 0 0 0 0 0 0 0 0 0 
0 0 0 0 0 0 0 0 0 0 0 0 0 0 0 0 0 0 0 0 0 0 0 0 
0 0 0 0 0 0 0 0 0 0 0 0 0 0 0 0 0 0 0 0 0 0 0 0 
0 0 0 0 0 0 0 0 0 0 0 0 0 0 0 0 0 0 0 0 0 8 6 6 
59 45 46 120 90 90 182 136 137 229 167 168 255 180 181 255 176 178 255 173 175 255 169 171 
255 166 168 255 163 165 255 158 161 255 155 158 253 152 154 238 140 143 223 132 134 209 123 125 
194 113 115 189 109 112 179 103 105 179 101 103 168 94 96 166 92 94 178 94 97 177 92 94 
185 93 96 190 92 95 204 95 98 220 97 101 235 99 104 251 102 107 255 100 105 255 98 103 
255 96 101 255 93 99 255 91 97 255 89 95 255 86 92 255 84 91 229 76 81 184 59 64 
126 39 42 67 20 22 12 3 4 0 0 0 0 0 0 0 0 0 0 0 0 0 0 0 
0 0 0 0 0 0 0 0 0 0 0 0 0 0 0 0 0 0 0 0 0 0 0 0 
0 0 0 0 0 0 0 0 0 0 0 0 0 0 0 0 0 0 0 0 0 0 0 0 
0 0 0 0 0 0 0 0 0 0 0 0 0 0 0 0 0 0 0 0 0 0 0 0 
0 0 0 0 0 0 0 0 0 0 0 0 0 0 0 0 0 0 0 0 0 0 0 0 
0 0 0 0 0 0 0 0 0 0 0 0 0 0 0 0 0 0 0 0 0 0 0 0 
0 0 0 0 0 0 0 0 0 0 0 0 0 0 0 0 0 0 0 0 0 0 0 0 
0 0 0 0 0 0 0 0 0 0 0 0 0 0 0 0 0 0 0 0 0 0 0 0 
0 0 0 0 0 0 0 0 0 0 0 0 0 0 0 0 0 0 0 0 0 0 0 0 
0 0 0 0 0 0 
0 0 0 0 0 0 0 0 0 0 0 0 0 0 0 0 0 0 0 0 0 0 0 0 
0 0 0 0 0 0 0 0 0 0 0 0 0 0 0 0 0 0 0 0 0 0 0 0 
0 0 0 0 0 0 0 0 0 0 0 0 0 0 0 0 0 0 0 0 0 0 0 0 
0 0 0 0 0 0 0 0 0 0 0 0 0 0 0 0 0 0 0 0 0 0 0 0 
0 0 0 0 0 0 0 0 0 0 0 0 0 0 0 0 0 0 0 0 0 0 0 0 
0 0 0 0 0 0 0 0 0 0 0 0 0 0 0 0 0 0 0 0 0 0 0 0 
0 0 0 0 0 0 0 0 0 0 0 0 0 0 0 0 0 0 0 0 0 0 0 0 
0 0 0 0 0 0 0 0 0 0 0 0 0 0 0 0 0 0 0 0 0 0 0 0 
0 0 0 0 0 0 0 0 0 0 0 0 0 0 0 0 0 0 0 0 0 0 0 0 
0 0 0 0 0 0 0 0 0 0 0 0 13 10 10 58 42 42 103 73 74 144 100 101 
179 123 125 211 143 144 243 159 161 255 163 165 255 160 162 255 155 158 255 153 155 255 150 153 
255 146 149 255 143 146 255 140 144 255 136 140 255 134 137 255 131 135 255 127 131 255 125 129 
255 122 127 255 119 123 255 116 121 255 114 119 255 111 116 255 108 113 255 105 110 244 99 104 
213 86 90 181 71 75 147 56 59 109 40 43 63 22 24 17 6 6 0 0 0 0 0 0 
0 0 0 0 0 0 0 0 0 0 0 0 0 0 0 0 0 0 0 0 0 0 0 0 
0 0 0 0 0 0 0 0 0 0 0 0 0 0 0 0 0 0 0 0 0 0 0 0 
0 0 0 0 0 0 0 0 0 0 0 0 0 0 0 0 0 0 0 0 0 0 0 0 
0 0 0 0 0 0 0 0 0 0 0 0 0 0 0 0 0 0 0 0 0 0 0 0 
0 0 0 0 0 0 0 0 0 0 0 0 0 0 0 0 0 0 0 0 0 0 0 0 
0 0 0 0 0 0 0 0 0 0 0 0 0 0 0 0 0 0 0 0 0 0 0 0 
0 0 0 0 0 0 0 0 0 0 0 0 0 0 0 0 0 0 0 0 0 0 0 0 
0 0 0 0 0 0 0 0 0 0 0 0 0 0 0 0 0 0 0 0 0 0 0 0 
0 0 0 0 0 0 0 0 0 0 0 0 0 0 0 0 0 0 0 0 0 0 0 0 
0 0 0 0 0 0 
0 0 0 0 0 0 0 0 0 0 0 0 0 0 0 0 0 0 0 0 0 0 0 0 
0 0 0 0 0 0 0 0 0 0 0 0 0 0 0 0 0 0 0 0 0 0 0 0 
0 0 0 0 0 0 0 0 0 0 0 0 0 0 0 0 0 0 0 0 0 0 0 0 
0 0 0 0 0 0 0 0 0 0 0 0 0 0 0 0 0 0 0 0 0 0 0 0 
0 0 0 0 0 0 0 0 0 0 0 0 0 0 0 0 0 0 0 0 0 0 0 0 
0 0 0 0 0 0 0 0 0 0 0 0 0 0 0 0 0 0 0 0 0 0 0 0 
0 0 0 0 0 0 0 0 0 0 0 0 0 0 0 0 0 0 0 0 0 0 0 0 
0 0 0 0 0 0 0 0 0 0 0 0 0 0 0 0 0 0 0 0 0 0 0 0 
0 0 0 0 0 0 0 0 0 0 0 0 0 0 0 0 0 0 0 0 0 0 0 0 
0 0 0 0 0 0 0 0 0 0 0 0 0 0 0 0 0 0 0 0 0 0 0 0 
0 0 0 0 0 0 0 0 0 14 9 9 37 24 25 56 36 36 74 46 47 93 57 58 
112 67 68 114 67 68 128 74 75 128 72 73 138 76 78 141 76 78 128 67 69 128 66 68 
115 58 60 112 55 57 97 46 48 76 36 37 58 26 28 39 17 18 18 8 8 0 0 0 
0 0 0 0 0 0 0 0 0 0 0 0 0 0 0 0 0 0 0 0 0 0 0 0 
0 0 0 0 0 0 0 0 0 0 0 0 0 0 0 0 0 0 0 0 0 0 0 0 
0 0 0 0 0 0 0 0 0 0 0 0 0 0 0 0 0 0 0 0 0 0 0 0 
0 0 0 0 0 0 0 0 0 0 0 0 0 0 0 0 0 0 0 0 0 0 0 0 
0 0 0 0 0 0 0 0 0 0 0 0 0 0 0 0 0 0 0 0 0 0 0 0 
0 0 0 0 0 0 0 0 0 0 0 0 0 0 0 0 0 0 0 0 0 0 0 0 
0 0 0 0 0 0 0 0 0 0 0 0 0 0 0 0 0 0 0 0 0 0 0 0 
0 0 0 0 0 0 0 0 0 0 0 0 0 0 0 0 0 0 0 0 0 0 0 0 
0 0 0 0 0 0 0 0 0 0 0 0 0 0 0 0 0 0 0 0 0 0 0 0 
0 0 0 0 0 0 0 0 0 0 0 0 0 0 0 0 0 0 0 0 0 0 0 0 
0 0 0 0 0 0 
